<?xml version="1.0" encoding="UTF-8"?>
<map version="1.10" tiledversion="1.11.2" orientation="orthogonal" renderorder="right-down" width="11" height="9" tilewidth="16" tileheight="16" infinite="0" nextlayerid="6" nextobjectid="3">
 <editorsettings>
  <export target="../client/public/assets/maps/fishing_hut.json" format="json"/>
 </editorsettings>
 <tileset firstgid="1" name="village_fishing_dock_house_walls_floor" tilewidth="16" tileheight="16" tilecount="100" columns="10">
  <image source="../client/public/assets/sprites/village_fishing_dock_house_walls_floor.png" width="160" height="160"/>
  <tile id="1">
   <objectgroup draworder="index" id="2">
    <object id="1" x="0" y="5" width="16" height="11"/>
   </objectgroup>
  </tile>
  <tile id="10">
   <objectgroup draworder="index" id="2">
    <object id="1" x="5.0023" y="0" width="11" height="16"/>
   </objectgroup>
  </tile>
  <tile id="12">
   <objectgroup draworder="index" id="2">
    <object id="1" x="0" y="0" width="11" height="16"/>
   </objectgroup>
  </tile>
  <tile id="13">
   <objectgroup draworder="index" id="2">
    <object id="1" x="0" y="0" width="16" height="16"/>
   </objectgroup>
  </tile>
  <tile id="14">
   <objectgroup draworder="index" id="2">
    <object id="1" x="0" y="0" width="16" height="16"/>
   </objectgroup>
  </tile>
  <tile id="23">
   <objectgroup draworder="index" id="2">
    <object id="1" x="0" y="0" width="11" height="16"/>
   </objectgroup>
  </tile>
  <tile id="24">
   <objectgroup draworder="index" id="2">
    <object id="1" x="5" y="0" width="11" height="16"/>
   </objectgroup>
  </tile>
  <tile id="31">
   <objectgroup draworder="index" id="2">
    <object id="1" x="0" y="0" width="16" height="16"/>
   </objectgroup>
  </tile>
  <tile id="33">
   <objectgroup draworder="index" id="2">
    <object id="1" x="0" y="0" width="11" height="16"/>
    <object id="2" x="11.0048" y="5.0048" width="5" height="11"/>
   </objectgroup>
  </tile>
  <tile id="34">
   <objectgroup draworder="index" id="2">
    <object id="1" x="5" y="0" width="11" height="16"/>
    <object id="2" x="0" y="5" width="5" height="11"/>
   </objectgroup>
  </tile>
  <tile id="47">
   <objectgroup draworder="index" id="2">
    <object id="1" x="0" y="5" width="16" height="11"/>
   </objectgroup>
  </tile>
  <tile id="49">
   <objectgroup draworder="index" id="2">
    <object id="1" x="0" y="5" width="16" height="11"/>
   </objectgroup>
  </tile>
  <tile id="60">
   <objectgroup draworder="index" id="2">
    <object id="1" x="0" y="0" width="16" height="16"/>
   </objectgroup>
  </tile>
  <tile id="61">
   <objectgroup draworder="index" id="2">
    <object id="1" x="0" y="0" width="16" height="16"/>
   </objectgroup>
  </tile>
  <tile id="62">
   <objectgroup draworder="index" id="2">
    <object id="1" x="0" y="0" width="16" height="16"/>
   </objectgroup>
  </tile>
  <tile id="63">
   <objectgroup draworder="index" id="2">
    <object id="1" x="0" y="0" width="16" height="16"/>
   </objectgroup>
  </tile>
 </tileset>
 <tileset firstgid="101" name="village_fishing_dock_interior" tilewidth="16" tileheight="16" tilecount="273" columns="21">
  <image source="../client/public/assets/sprites/village_fishing_dock_interior.png" width="336" height="208"/>
 </tileset>
 <layer id="2" name="floor" width="11" height="9">
  <data encoding="csv">
0,0,0,0,0,0,0,0,0,0,0,
0,0,0,0,0,0,0,0,0,0,0,
0,0,0,0,0,0,0,0,0,0,0,
0,95,95,95,95,95,95,95,95,85,0,
0,97,95,95,85,95,98,95,95,87,0,
0,95,95,95,87,95,95,97,95,95,0,
0,95,85,95,95,95,95,95,85,95,0,
0,95,95,98,95,97,95,95,95,95,0,
0,0,0,0,0,0,0,0,0,0,0
</data>
 </layer>
 <layer id="1" name="walls" width="11" height="9">
  <properties>
   <property name="collides" type="bool" value="true"/>
  </properties>
  <data encoding="csv">
55,56,56,56,56,56,56,56,56,56,57,
65,4,22,22,22,22,22,22,22,5,67,
65,14,32,32,32,32,32,32,32,15,67,
65,24,42,42,42,42,42,42,42,25,67,
65,13,0,0,0,0,0,0,0,11,67,
65,13,0,0,0,0,0,0,0,11,67,
65,13,0,0,0,0,0,0,0,11,67,
65,34,2,2,48,49,50,2,2,35,67,
75,76,76,76,58,59,60,60,76,76,77
</data>
 </layer>
 <layer id="3" name="interior2" width="11" height="9">
  <data encoding="csv">
0,0,0,0,0,0,0,0,0,0,0,
0,101,102,103,104,0,108,109,110,111,0,
0,122,123,124,125,0,129,130,131,132,0,
0,143,144,145,146,0,150,151,152,153,0,
0,164,165,166,167,0,171,172,173,174,0,
0,0,0,0,311,312,313,0,0,0,0,
0,0,0,0,332,333,334,0,0,0,0,
0,0,0,0,0,0,0,0,0,0,0,
0,0,0,0,0,0,0,0,0,0,0
</data>
 </layer>
 <layer id="4" name="interior1" width="11" height="9">
  <data encoding="csv">
0,0,0,0,0,0,0,0,0,0,0,
0,0,0,0,105,106,107,0,0,0,0,
0,0,0,0,126,127,128,0,0,0,0,
0,0,0,0,147,148,149,0,0,0,0,
0,0,0,0,168,169,170,0,0,0,0,
0,260,261,262,0,0,0,263,264,265,0,
0,281,282,283,0,0,0,284,285,286,0,
0,302,303,304,0,0,0,305,306,307,0,
0,0,0,0,0,0,0,0,0,0,0
</data>
 </layer>
 <objectgroup id="5" name="objects">
  <object id="1" name="Fishing_Hut_Exit" x="87" y="128" width="1" height="1"/>
  <object id="2" name="Fishwife" x="88" y="78" width="1" height="1"/>
 </objectgroup>
</map>
