<?xml version="1.0" encoding="UTF-8"?>
<map version="1.10" tiledversion="1.11.2" orientation="orthogonal" renderorder="right-down" width="21" height="14" tilewidth="16" tileheight="16" infinite="0" nextlayerid="9" nextobjectid="6">
 <editorsettings>
  <export target="../client/public/assets/maps/market-house.json" format="json"/>
 </editorsettings>
 <tileset firstgid="1" name="market_house_walls_floor" tilewidth="16" tileheight="16" tilecount="203" columns="7">
  <image source="../client/public/assets/sprites/market_house_walls.png" width="112" height="464"/>
  <tile id="1">
   <objectgroup draworder="index" id="2">
    <object id="1" x="0" y="13" width="16" height="3"/>
   </objectgroup>
  </tile>
  <tile id="2">
   <objectgroup draworder="index" id="2">
    <object id="1" x="0" y="13" width="16" height="3"/>
   </objectgroup>
  </tile>
  <tile id="3">
   <objectgroup draworder="index" id="2">
    <object id="1" x="0" y="13" width="16" height="3"/>
   </objectgroup>
  </tile>
  <tile id="4">
   <objectgroup draworder="index" id="2">
    <object id="1" x="0" y="13" width="16" height="3"/>
   </objectgroup>
  </tile>
  <tile id="5">
   <objectgroup draworder="index" id="2">
    <object id="1" x="0" y="13" width="16" height="3"/>
   </objectgroup>
  </tile>
  <tile id="7">
   <objectgroup draworder="index" id="2">
    <object id="1" x="13" y="0" width="3" height="16"/>
   </objectgroup>
  </tile>
  <tile id="13">
   <objectgroup draworder="index" id="2">
    <object id="1" x="0" y="0" width="3" height="16"/>
   </objectgroup>
  </tile>
  <tile id="22">
   <objectgroup draworder="index" id="2">
    <object id="1" x="0" y="0" width="16" height="16"/>
   </objectgroup>
  </tile>
  <tile id="23">
   <objectgroup draworder="index" id="2">
    <object id="1" x="0" y="0" width="16" height="16"/>
   </objectgroup>
  </tile>
  <tile id="24">
   <objectgroup draworder="index" id="2">
    <object id="1" x="0" y="0" width="16" height="16"/>
   </objectgroup>
  </tile>
  <tile id="25">
   <objectgroup draworder="index" id="2">
    <object id="1" x="0" y="0" width="16" height="16"/>
   </objectgroup>
  </tile>
  <tile id="26">
   <objectgroup draworder="index" id="2">
    <object id="1" x="0" y="0" width="16" height="16"/>
   </objectgroup>
  </tile>
  <tile id="29">
   <objectgroup draworder="index" id="2">
    <object id="1" x="0" y="0" width="16" height="8"/>
   </objectgroup>
  </tile>
  <tile id="30">
   <objectgroup draworder="index" id="2">
    <object id="1" x="0" y="0" width="16" height="8"/>
   </objectgroup>
  </tile>
  <tile id="31">
   <objectgroup draworder="index" id="2">
    <object id="1" x="0" y="0" width="16" height="8"/>
   </objectgroup>
  </tile>
  <tile id="32">
   <objectgroup draworder="index" id="2">
    <object id="1" x="0" y="0" width="16" height="8"/>
   </objectgroup>
  </tile>
  <tile id="33">
   <objectgroup draworder="index" id="2">
    <object id="1" x="0" y="0" width="16" height="8"/>
   </objectgroup>
  </tile>
  <tile id="49">
   <objectgroup draworder="index" id="2">
    <object id="1" x="0" y="0" width="16" height="16"/>
   </objectgroup>
  </tile>
  <tile id="50">
   <objectgroup draworder="index" id="2">
    <object id="1" x="0" y="0" width="16" height="16"/>
   </objectgroup>
  </tile>
  <tile id="56">
   <objectgroup draworder="index" id="2">
    <object id="1" x="0" y="0" width="16" height="8"/>
    <object id="2" x="0" y="8" width="3" height="8"/>
   </objectgroup>
  </tile>
  <tile id="57">
   <objectgroup draworder="index" id="2">
    <object id="1" x="0" y="0" width="16" height="8"/>
    <object id="2" x="13" y="8" width="3" height="8"/>
   </objectgroup>
  </tile>
  <tile id="63">
   <objectgroup draworder="index" id="2">
    <object id="1" x="0" y="0" width="3" height="16"/>
    <object id="2" x="3" y="13" width="13" height="3"/>
   </objectgroup>
  </tile>
  <tile id="64">
   <objectgroup draworder="index" id="2">
    <object id="1" x="13" y="0" width="3" height="16"/>
    <object id="2" x="0" y="13" width="13" height="3"/>
   </objectgroup>
  </tile>
  <tile id="154">
   <objectgroup draworder="index" id="2">
    <object id="1" x="0" y="13" width="14" height="3"/>
   </objectgroup>
  </tile>
  <tile id="156">
   <objectgroup draworder="index" id="2">
    <object id="1" x="2" y="13" width="14" height="3"/>
   </objectgroup>
  </tile>
  <tile id="189">
   <objectgroup draworder="index" id="2">
    <object id="1" x="0" y="0" width="16" height="16"/>
   </objectgroup>
  </tile>
  <tile id="190">
   <objectgroup draworder="index" id="2">
    <object id="1" x="0" y="0" width="16" height="16"/>
   </objectgroup>
  </tile>
  <tile id="191">
   <objectgroup draworder="index" id="2">
    <object id="1" x="0" y="0" width="16" height="16"/>
   </objectgroup>
  </tile>
  <tile id="192">
   <objectgroup draworder="index" id="2">
    <object id="1" x="0" y="0" width="16" height="16"/>
   </objectgroup>
  </tile>
  <tile id="193">
   <objectgroup draworder="index" id="2">
    <object id="1" x="0" y="0" width="16" height="16"/>
   </objectgroup>
  </tile>
  <tile id="194">
   <objectgroup draworder="index" id="2">
    <object id="1" x="0" y="0" width="16" height="16"/>
   </objectgroup>
  </tile>
  <tile id="195">
   <objectgroup draworder="index" id="2">
    <object id="1" x="0" y="0" width="16" height="16"/>
   </objectgroup>
  </tile>
  <tile id="196">
   <objectgroup draworder="index" id="2">
    <object id="1" x="0" y="0" width="16" height="8"/>
   </objectgroup>
  </tile>
  <tile id="202">
   <objectgroup draworder="index" id="2">
    <object id="1" x="0" y="0" width="16" height="8"/>
   </objectgroup>
  </tile>
 </tileset>
 <tileset firstgid="204" name="market_house_floor" tilewidth="16" tileheight="16" tilecount="104" columns="13">
  <image source="../client/public/assets/sprites/market_house_floor.png" width="208" height="128"/>
  <tile id="5">
   <objectgroup draworder="index" id="2">
    <object id="1" x="0" y="10" width="16" height="6"/>
   </objectgroup>
  </tile>
  <tile id="6">
   <objectgroup draworder="index" id="2">
    <object id="1" x="0" y="10" width="16" height="6"/>
   </objectgroup>
  </tile>
  <tile id="13">
   <objectgroup draworder="index" id="2">
    <object id="1" x="2" y="0" width="4" height="16"/>
   </objectgroup>
  </tile>
  <tile id="15">
   <objectgroup draworder="index" id="2">
    <object id="1" x="10" y="0" width="4" height="16"/>
   </objectgroup>
  </tile>
  <tile id="16">
   <objectgroup draworder="index" id="2">
    <object id="1" x="10" y="0" width="4" height="16"/>
   </objectgroup>
  </tile>
  <tile id="18">
   <objectgroup draworder="index" id="2">
    <object id="1" x="2" y="0" width="4" height="16"/>
   </objectgroup>
  </tile>
  <tile id="29">
   <objectgroup draworder="index" id="2">
    <object id="1" x="10" y="0" width="4" height="16"/>
   </objectgroup>
  </tile>
  <tile id="31">
   <objectgroup draworder="index" id="2">
    <object id="1" x="2" y="0" width="4" height="16"/>
   </objectgroup>
  </tile>
  <tile id="65">
   <objectgroup draworder="index" id="2">
    <object id="1" x="0" y="10" width="16" height="6"/>
   </objectgroup>
  </tile>
  <tile id="66">
   <objectgroup draworder="index" id="2">
    <object id="1" x="0" y="10" width="16" height="6"/>
   </objectgroup>
  </tile>
  <tile id="67">
   <objectgroup draworder="index" id="2">
    <object id="1" x="0" y="10" width="16" height="6"/>
   </objectgroup>
  </tile>
  <tile id="68">
   <objectgroup draworder="index" id="2">
    <object id="1" x="0" y="10" width="16" height="6"/>
   </objectgroup>
  </tile>
  <tile id="69">
   <objectgroup draworder="index" id="2">
    <object id="1" x="0" y="8" width="6" height="8"/>
   </objectgroup>
  </tile>
  <tile id="71">
   <objectgroup draworder="index" id="2">
    <object id="1" x="10" y="8" width="6" height="8"/>
   </objectgroup>
  </tile>
  <tile id="78">
   <objectgroup draworder="index" id="2">
    <object id="1" x="0" y="0" width="16" height="16"/>
   </objectgroup>
  </tile>
  <tile id="79">
   <objectgroup draworder="index" id="2">
    <object id="1" x="0" y="0" width="16" height="16"/>
   </objectgroup>
  </tile>
  <tile id="80">
   <objectgroup draworder="index" id="2">
    <object id="1" x="0" y="0" width="16" height="16"/>
   </objectgroup>
  </tile>
  <tile id="81">
   <objectgroup draworder="index" id="2">
    <object id="1" x="0" y="0" width="16" height="16"/>
   </objectgroup>
  </tile>
  <tile id="91">
   <objectgroup draworder="index" id="2">
    <object id="1" x="0" y="0" width="16" height="8"/>
   </objectgroup>
  </tile>
  <tile id="92">
   <objectgroup draworder="index" id="2">
    <object id="1" x="0" y="0" width="16" height="8"/>
   </objectgroup>
  </tile>
  <tile id="93">
   <objectgroup draworder="index" id="2">
    <object id="1" x="0" y="0" width="16" height="8"/>
   </objectgroup>
  </tile>
  <tile id="94">
   <objectgroup draworder="index" id="2">
    <object id="1" x="0" y="0" width="16" height="8"/>
   </objectgroup>
  </tile>
 </tileset>
 <tileset firstgid="308" name="bookkeeper_idle" tilewidth="16" tileheight="16" tilecount="90" columns="5">
  <image source="../client/public/assets/sprites/bookkeeper_idle.png" width="80" height="288"/>
 </tileset>
 <tileset firstgid="398" name="village_fishing_dock_interior" tilewidth="16" tileheight="16" tilecount="273" columns="21">
  <image source="../client/public/assets/sprites/village_fishing_dock_interior.png" width="336" height="208"/>
 </tileset>
 <tileset firstgid="671" name="dungeon_objects2" tilewidth="16" tileheight="16" tilecount="555" columns="15">
  <image source="../client/public/assets/sprites/dungeon_objects2.png" width="240" height="592"/>
 </tileset>
 <tileset firstgid="1226" name="market_house_interior" tilewidth="16" tileheight="16" tilecount="936" columns="39">
  <image source="../client/public/assets/sprites/market_house_interior.png" width="624" height="384"/>
 </tileset>
 <tileset firstgid="2162" name="clock" tilewidth="16" tileheight="16" tilecount="192" columns="6">
  <image source="../client/public/assets/sprites/clock.png" width="96" height="512"/>
 </tileset>
 <tileset firstgid="2354" name="helper1_idle" tilewidth="16" tileheight="16" tilecount="120" columns="24">
  <image source="../client/public/assets/sprites/helper1_idle.png" width="384" height="80"/>
 </tileset>
 <tileset firstgid="2474" name="helper2_idle" tilewidth="16" tileheight="16" tilecount="120" columns="24">
  <image source="../client/public/assets/sprites/helper2_idle.png" width="384" height="80"/>
 </tileset>
 <tileset firstgid="2594" name="village_market_objects" tilewidth="16" tileheight="16" tilecount="1080" columns="30">
  <image source="../client/public/assets/sprites/village_market_objects.png" width="480" height="576"/>
 </tileset>
 <layer id="2" name="floor" width="21" height="14">
  <data encoding="csv">
0,0,0,0,0,0,0,0,0,0,0,0,0,0,0,0,0,0,0,0,0,
0,0,0,0,0,0,0,0,0,0,0,0,0,0,0,0,0,0,0,0,0,
0,0,0,0,0,0,0,0,0,0,0,0,0,0,0,0,0,0,0,0,0,
0,0,0,0,0,0,0,290,291,292,279,280,281,0,0,0,0,0,0,0,0,
0,218,218,218,218,218,218,303,304,305,306,307,218,218,218,218,218,218,218,218,0,
0,0,0,0,0,0,0,0,0,0,274,0,0,0,0,0,0,0,0,0,0,
0,0,0,0,0,0,0,0,0,0,0,0,0,0,0,0,0,0,0,0,0,
0,277,278,279,280,281,277,278,279,280,281,277,278,279,280,277,278,279,280,281,0,
0,290,291,292,293,294,290,291,292,293,294,290,291,292,293,290,291,292,293,294,0,
0,303,304,305,306,307,303,304,305,306,307,303,304,305,306,303,304,305,306,307,0,
0,277,278,279,280,281,278,279,280,281,277,278,279,280,281,277,278,279,280,281,0,
0,290,291,292,293,294,291,292,293,294,290,291,292,293,294,290,291,292,293,294,0,
0,303,304,305,306,307,304,305,306,307,303,304,305,306,307,303,304,305,306,307,0,
0,0,0,0,0,0,0,0,0,0,0,0,0,0,0,0,0,0,0,0,0
</data>
 </layer>
 <layer id="3" name="stairs" width="21" height="14">
  <data encoding="csv">
0,0,0,0,0,0,0,0,0,0,0,0,0,0,0,0,0,0,0,0,0,
0,0,0,0,0,0,0,0,0,0,0,0,0,0,0,0,0,0,0,0,0,
0,0,0,0,0,0,0,0,0,0,0,0,0,0,0,0,0,0,0,0,0,
0,0,0,0,0,0,0,0,0,0,0,0,0,0,0,0,0,0,0,0,0,
0,0,0,0,0,0,0,0,0,0,0,0,0,0,0,0,0,0,0,0,0,
0,0,0,0,0,0,0,0,0,0,0,0,0,0,0,0,0,0,0,0,0,
0,0,0,0,0,0,0,0,0,286,287,288,0,0,0,0,0,0,0,0,0,
0,0,0,0,0,0,0,0,0,299,300,301,0,0,0,0,0,0,0,0,0,
0,0,0,0,0,0,0,0,0,0,0,0,0,0,0,0,0,0,0,0,0,
0,0,0,0,0,0,0,0,0,0,0,0,0,0,0,0,0,0,0,0,0,
0,0,0,0,0,0,0,0,0,0,0,0,0,0,0,0,0,0,0,0,0,
0,0,0,0,0,0,0,0,0,0,0,0,0,0,0,0,0,0,0,0,0,
0,0,0,0,0,0,0,0,0,0,0,0,0,0,0,0,0,0,0,0,0,
0,0,0,0,0,0,0,0,0,0,0,0,0,0,0,0,0,0,0,0,0
</data>
 </layer>
 <layer id="4" name="railing" width="21" height="14">
  <properties>
   <property name="collides" type="bool" value="true"/>
  </properties>
  <data encoding="csv">
0,0,0,0,0,0,0,0,0,0,0,0,0,0,0,0,0,0,0,0,0,
0,0,0,0,0,0,0,0,0,0,0,0,0,0,0,0,0,0,0,0,0,
0,0,0,0,0,0,0,0,0,0,0,0,0,0,0,0,0,0,0,0,0,
0,0,0,0,0,0,0,0,0,0,0,0,0,0,0,0,0,0,0,0,0,
0,0,0,0,0,0,0,0,0,0,0,0,0,0,0,0,0,0,0,0,0,
0,210,269,270,271,269,270,271,272,273,0,275,269,270,271,272,269,270,271,209,0,
0,220,0,0,0,0,0,0,0,0,0,0,0,0,0,0,0,0,0,222,0,
0,233,0,0,0,0,0,0,0,0,0,0,0,0,0,0,0,0,0,235,0,
0,219,0,0,0,0,0,0,0,0,0,0,0,0,0,0,0,0,0,217,0,
0,219,0,0,0,0,0,0,0,0,0,0,0,0,0,0,0,0,0,217,0,
0,219,0,0,0,0,0,0,0,0,0,0,0,0,0,0,0,0,0,217,0,
0,219,0,0,0,0,0,0,0,0,0,0,0,0,0,0,0,0,0,217,0,
0,219,0,0,0,0,0,0,0,0,0,0,0,0,0,0,0,0,0,217,0,
0,0,0,0,0,0,0,0,0,0,0,0,0,0,0,0,0,0,0,0,0
</data>
 </layer>
 <layer id="1" name="walls" width="21" height="14">
  <properties>
   <property name="collides" type="bool" value="true"/>
  </properties>
  <data encoding="csv">
169,169,169,169,169,169,169,169,170,171,172,173,174,175,169,169,169,169,169,169,169,
138,139,139,139,139,139,139,176,177,178,179,180,181,182,139,139,139,139,139,139,140,
145,43,16,17,18,19,20,183,184,185,186,187,188,189,16,17,18,19,20,44,147,
145,50,23,24,25,26,27,190,191,192,193,194,195,196,23,24,25,26,27,51,147,
145,57,30,31,32,33,34,197,198,199,200,201,202,203,30,31,32,33,34,58,147,
145,14,0,0,0,0,0,0,0,0,0,0,0,0,0,0,0,0,0,8,147,
145,14,282,283,284,282,283,284,285,0,0,0,282,283,284,285,282,283,284,8,147,
145,14,295,296,297,295,296,297,298,0,0,0,295,296,297,298,295,296,297,8,147,
145,14,0,0,0,0,0,0,0,0,0,0,0,0,0,0,0,0,0,8,147,
145,14,0,0,0,0,0,0,0,0,0,0,0,0,0,0,0,0,0,8,147,
145,14,0,0,0,0,0,0,0,0,0,0,0,0,0,0,0,0,0,8,147,
145,14,0,0,0,0,0,0,0,0,0,0,0,0,0,0,0,0,0,8,147,
145,64,2,3,2,3,4,5,6,155,156,157,4,4,4,4,4,4,4,65,147,
152,153,153,153,153,153,153,153,153,162,163,164,153,153,153,153,153,153,153,153,154
</data>
 </layer>
 <layer id="6" name="bookshelf" width="21" height="14">
  <data encoding="csv">
0,0,0,0,0,0,0,0,0,0,0,0,0,0,0,0,0,0,0,0,0,
0,0,0,0,0,0,0,1233,1234,1235,1236,1237,1238,1239,0,0,0,0,0,0,0,
0,0,0,0,0,0,0,1272,1273,1274,1275,1276,1277,1278,0,0,0,0,0,0,0,
0,0,0,0,0,0,0,1311,1312,1313,1314,1315,1316,1317,0,0,0,0,0,0,0,
0,0,0,0,0,0,0,1350,1351,1352,1353,1354,1355,1356,0,0,0,0,0,0,0,
0,0,0,0,0,0,0,0,0,0,0,0,0,0,0,0,0,0,0,0,0,
0,0,0,0,0,0,0,0,0,0,0,0,0,0,0,0,0,0,0,0,0,
0,0,0,0,0,0,0,0,0,0,0,0,0,0,0,0,0,0,0,0,0,
0,0,0,0,0,0,0,0,0,0,0,0,0,0,0,0,0,0,0,0,0,
0,0,0,0,0,0,0,0,0,0,0,0,0,0,0,0,0,0,0,0,0,
0,0,0,0,0,0,0,0,0,0,0,0,0,0,0,0,0,0,0,0,0,
0,0,0,0,0,0,0,0,0,0,0,0,0,0,0,0,0,0,0,0,0,
0,0,0,0,0,0,0,0,0,0,0,0,0,0,0,0,0,0,0,0,0,
0,0,0,0,0,0,0,0,0,0,0,0,0,0,0,0,0,0,0,0,0
</data>
 </layer>
 <layer id="5" name="interior" width="21" height="14">
  <data encoding="csv">
0,0,0,0,0,0,0,0,0,0,0,0,0,0,0,0,0,0,0,0,0,
0,0,0,0,0,0,0,0,0,0,0,0,0,0,0,0,0,0,0,0,0,
0,0,678,679,680,681,682,0,0,0,0,0,0,0,675,676,677,683,684,0,0,
0,0,693,694,695,696,697,0,308,0,0,311,2053,2054,690,691,692,698,699,0,0,
0,0,708,709,710,711,712,0,0,0,0,0,2092,2093,705,706,707,713,714,0,0,
0,0,723,724,725,726,727,0,0,0,0,0,2131,2132,720,721,722,728,729,0,0,
0,0,936,937,938,939,846,847,0,0,0,0,891,892,893,894,972,973,974,0,0,
0,0,951,952,953,954,861,862,0,0,0,0,906,907,908,909,987,988,989,0,0,
0,0,966,967,968,969,876,877,0,0,0,0,921,922,923,924,1002,1003,1004,0,0,
0,0,0,1518,1519,1520,1521,1522,0,0,0,0,0,1791,1792,1793,1794,1795,0,0,0,
0,0,0,1557,1558,1559,1560,1561,0,0,0,0,0,1830,1831,1832,1833,1834,0,0,0,
0,0,0,1596,1597,1598,1599,1600,0,0,0,0,0,1869,1870,1871,1872,1873,0,0,0,
0,0,0,1635,1636,1637,1638,1639,0,0,0,0,0,1908,1909,1910,1911,1912,0,0,0,
0,0,0,0,0,0,0,0,0,0,0,0,0,0,0,0,0,0,0,0,0
</data>
 </layer>
 <layer id="7" name="interior2" width="21" height="14">
  <data encoding="csv">
0,0,0,0,0,0,0,0,0,0,0,0,0,0,0,0,0,0,0,0,0,
0,0,0,0,0,0,0,0,0,0,0,0,0,0,0,0,0,0,0,0,0,
0,0,0,0,0,0,0,0,0,0,0,0,0,0,0,0,0,0,0,0,0,
0,0,0,0,0,0,0,0,0,0,0,0,0,0,0,0,0,0,0,0,0,
0,0,0,0,0,0,0,0,0,0,0,0,0,0,0,0,0,0,0,0,0,
0,0,0,0,0,0,0,0,0,0,0,0,0,0,0,0,0,0,0,0,0,
0,0,0,0,0,0,0,0,0,0,0,0,0,0,0,0,0,0,0,0,0,
0,0,0,0,0,0,0,0,0,1494,1495,1496,0,0,0,0,0,0,0,0,0,
0,0,0,0,0,0,0,0,0,1572,1573,1574,0,0,0,0,0,0,0,0,0,
0,0,0,0,0,0,0,0,0,1611,1612,1613,0,0,0,0,0,0,0,0,0,
0,0,0,0,0,0,0,0,0,1650,1651,1652,0,0,0,0,0,0,0,0,0,
0,0,0,0,0,2402,2403,0,0,1689,1690,1691,0,0,2522,2523,0,0,0,0,0,
0,0,0,0,0,0,0,0,0,1728,1729,1730,0,0,0,0,0,0,0,0,0,
0,0,0,0,0,0,0,0,0,0,0,0,0,0,0,0,0,0,0,0,0
</data>
 </layer>
 <objectgroup id="8" name="objects">
  <object id="1" name="Bookkeeper" x="168" y="71" width="1" height="1"/>
  <object id="2" name="Helper1" x="96" y="164" width="1" height="1"/>
  <object id="4" name="Market_House_Exit" x="168" y="208" width="1" height="1"/>
 </objectgroup>
</map>
