<?xml version="1.0" encoding="UTF-8"?>
<map version="1.10" tiledversion="1.11.2" orientation="orthogonal" renderorder="right-down" width="73" height="33" tilewidth="16" tileheight="16" infinite="0" nextlayerid="10" nextobjectid="19">
 <properties>
  <property name="reference" type="bool" value="true"/>
 </properties>
 <tileset firstgid="1" name="forest_ground_grass" tilewidth="16" tileheight="16" tilecount="651" columns="21">
  <image source="../client/public/assets/sprites/forest_ground_grass.png" width="336" height="496"/>
  <tile id="67">
   <objectgroup draworder="index" id="2">
    <object id="1" x="0" y="0" width="16" height="10"/>
   </objectgroup>
  </tile>
  <tile id="68">
   <objectgroup draworder="index" id="2">
    <object id="1" x="0" y="0" width="6" height="10"/>
   </objectgroup>
  </tile>
  <tile id="106">
   <objectgroup draworder="index" id="2">
    <object id="1" x="4" y="0" width="12" height="10"/>
   </objectgroup>
  </tile>
  <tile id="107">
   <objectgroup draworder="index" id="2">
    <object id="1" x="0" y="0" width="13" height="10"/>
   </objectgroup>
  </tile>
  <tile id="108">
   <objectgroup draworder="index" id="2">
    <object id="1" x="9" y="0" width="7" height="10"/>
   </objectgroup>
  </tile>
  <tile id="109">
   <objectgroup draworder="index" id="2">
    <object id="1" x="0" y="0" width="16" height="10"/>
   </objectgroup>
  </tile>
  <tile id="110">
   <objectgroup draworder="index" id="2">
    <object id="1" x="0" y="0" width="8" height="10"/>
   </objectgroup>
  </tile>
  <tile id="127">
   <objectgroup draworder="index" id="2">
    <object id="1" x="0" y="0" width="10" height="16"/>
   </objectgroup>
  </tile>
  <tile id="128">
   <objectgroup draworder="index" id="2">
    <object id="1" x="6" y="0" width="10" height="16"/>
   </objectgroup>
  </tile>
  <tile id="148">
   <objectgroup draworder="index" id="2">
    <object id="1" x="0" y="0" width="10" height="16"/>
   </objectgroup>
  </tile>
  <tile id="151">
   <objectgroup draworder="index" id="2">
    <object id="1" x="0" y="0" width="16" height="10"/>
   </objectgroup>
  </tile>
  <tile id="153">
   <objectgroup draworder="index" id="2">
    <object id="1" x="0" y="0" width="16" height="10"/>
   </objectgroup>
  </tile>
  <tile id="154">
   <objectgroup draworder="index" id="2">
    <object id="1" x="0" y="0" width="16" height="10"/>
   </objectgroup>
  </tile>
  <tile id="263">
   <objectgroup draworder="index" id="2">
    <object id="1" x="0" y="0" width="10" height="16"/>
   </objectgroup>
  </tile>
  <tile id="264">
   <objectgroup draworder="index" id="2">
    <object id="1" x="6" y="0" width="10" height="16"/>
   </objectgroup>
  </tile>
  <tile id="402">
   <objectgroup draworder="index" id="2">
    <object id="1" x="0" y="8" width="10" height="8"/>
   </objectgroup>
  </tile>
  <tile id="423">
   <objectgroup draworder="index" id="2">
    <object id="1" x="0" y="0" width="10" height="16"/>
   </objectgroup>
  </tile>
  <tile id="424">
   <objectgroup draworder="index" id="2">
    <object id="1" x="0" y="0" width="10" height="16"/>
    <object id="2" x="0" y="8" width="16" height="8"/>
   </objectgroup>
  </tile>
 </tileset>
 <tileset firstgid="652" name="mountains_ground" tilewidth="16" tileheight="16" tilecount="1536" columns="32">
  <image source="../client/public/assets/sprites/mountains_ground.png" width="512" height="768"/>
  <tile id="143">
   <objectgroup draworder="index" id="2">
    <object id="1" x="6" y="0" width="10" height="10"/>
   </objectgroup>
  </tile>
  <tile id="144">
   <objectgroup draworder="index" id="2">
    <object id="1" x="0" y="0" width="10" height="10"/>
   </objectgroup>
  </tile>
  <tile id="161">
   <objectgroup draworder="index" id="2">
    <object id="1" x="6" y="0" width="10" height="16"/>
   </objectgroup>
  </tile>
  <tile id="162">
   <objectgroup draworder="index" id="2">
    <object id="1" x="0" y="0" width="16" height="10"/>
   </objectgroup>
  </tile>
  <tile id="163">
   <objectgroup draworder="index" id="2">
    <object id="1" x="0" y="0" width="16" height="10"/>
   </objectgroup>
  </tile>
  <tile id="164">
   <objectgroup draworder="index" id="2">
    <object id="1" x="0" y="0" width="16" height="10"/>
   </objectgroup>
  </tile>
  <tile id="167">
   <objectgroup draworder="index" id="2">
    <object id="1" x="0" y="0" width="10" height="10"/>
   </objectgroup>
  </tile>
  <tile id="175">
   <objectgroup draworder="index" id="2">
    <object id="1" x="0" y="0" width="16" height="10"/>
   </objectgroup>
  </tile>
  <tile id="176">
   <objectgroup draworder="index" id="2">
    <object id="1" x="0" y="0" width="16" height="10"/>
   </objectgroup>
  </tile>
  <tile id="298">
   <objectgroup draworder="index" id="2">
    <object id="1" x="0" y="0" width="10" height="16"/>
   </objectgroup>
  </tile>
  <tile id="299">
   <objectgroup draworder="index" id="2">
    <object id="1" x="6" y="0" width="10" height="16"/>
   </objectgroup>
  </tile>
  <tile id="335">
   <objectgroup draworder="index" id="2">
    <object id="1" x="6" y="0" width="10" height="10"/>
   </objectgroup>
  </tile>
  <tile id="336">
   <objectgroup draworder="index" id="2">
    <object id="1" x="0" y="0" width="10" height="10"/>
   </objectgroup>
  </tile>
  <tile id="353">
   <objectgroup draworder="index" id="2">
    <object id="1" x="6" y="0" width="10" height="16"/>
   </objectgroup>
  </tile>
  <tile id="354">
   <objectgroup draworder="index" id="2">
    <object id="1" x="0" y="0" width="10" height="16"/>
    <object id="2" x="0" y="6" width="16" height="10"/>
   </objectgroup>
  </tile>
  <tile id="355">
   <objectgroup draworder="index" id="2">
    <object id="1" x="0" y="0" width="16" height="10"/>
   </objectgroup>
  </tile>
  <tile id="356">
   <objectgroup draworder="index" id="2">
    <object id="1" x="0" y="0" width="16" height="10"/>
   </objectgroup>
  </tile>
  <tile id="367">
   <objectgroup draworder="index" id="2">
    <object id="1" x="0" y="0" width="16" height="10"/>
   </objectgroup>
  </tile>
  <tile id="368">
   <objectgroup draworder="index" id="2">
    <object id="1" x="0" y="0" width="16" height="10"/>
   </objectgroup>
  </tile>
  <tile id="490">
   <objectgroup draworder="index" id="2">
    <object id="1" x="6" y="0" width="10" height="16"/>
   </objectgroup>
  </tile>
  <tile id="780">
   <objectgroup draworder="index" id="2">
    <object id="1" x="0" y="0" width="10" height="16"/>
   </objectgroup>
  </tile>
 </tileset>
 <tileset firstgid="2188" name="stairs_grass" tilewidth="16" tileheight="16" tilecount="357" columns="21">
  <image source="../client/public/assets/sprites/stairs_grass.png" width="336" height="272"/>
 </tileset>
 <tileset firstgid="2545" name="village_home" tilewidth="16" tileheight="16" tilecount="969" columns="17">
  <image source="../client/public/assets/sprites/village_home.png" width="272" height="912"/>
  <tile id="45">
   <objectgroup draworder="index" id="2">
    <object id="1" x="3" y="0" width="13" height="16">
     <properties>
      <property name="clearance" type="int" value="10"/>
     </properties>
    </object>
   </objectgroup>
  </tile>
  <tile id="46">
   <properties>
    <property name="clearance" type="int" value="10"/>
    <property name="rendersAbove" type="bool" value="true"/>
   </properties>
   <objectgroup draworder="index" id="2">
    <object id="1" x="0" y="7" width="16" height="7">
     <properties>
      <property name="clearance" type="int" value="10"/>
      <property name="rendersAbove" type="bool" value="true"/>
     </properties>
    </object>
    <object id="3" x="0" y="0" width="16" height="7">
     <properties>
      <property name="clearance" type="int" value="10"/>
      <property name="rendersAbove" type="bool" value="false"/>
     </properties>
    </object>
   </objectgroup>
  </tile>
  <tile id="47">
   <objectgroup draworder="index" id="2">
    <object id="1" x="0" y="0" width="13" height="16">
     <properties>
      <property name="clearance" type="int" value="10"/>
     </properties>
    </object>
   </objectgroup>
  </tile>
  <tile id="62">
   <objectgroup draworder="index" id="2">
    <object id="1" x="3" y="0" width="17" height="16">
     <properties>
      <property name="clearance" type="int" value="10"/>
     </properties>
    </object>
   </objectgroup>
  </tile>
  <tile id="64">
   <objectgroup draworder="index" id="2">
    <object id="1" x="-4" y="0" width="17" height="16">
     <properties>
      <property name="clearance" type="int" value="10"/>
     </properties>
    </object>
   </objectgroup>
  </tile>
  <tile id="79">
   <objectgroup draworder="index" id="2">
    <object id="1" x="3" y="0" width="13" height="7">
     <properties>
      <property name="clearance" type="int" value="10"/>
     </properties>
    </object>
   </objectgroup>
  </tile>
  <tile id="80">
   <objectgroup draworder="index" id="2">
    <object id="1" x="0" y="0" width="16" height="7">
     <properties>
      <property name="clearance" type="int" value="10"/>
      <property name="rendersAbove" type="bool" value="false"/>
     </properties>
    </object>
    <object id="2" x="0" y="7" width="16" height="7">
     <properties>
      <property name="clearance" type="int" value="10"/>
      <property name="rendersAbove" type="bool" value="true"/>
     </properties>
    </object>
   </objectgroup>
  </tile>
  <tile id="81">
   <objectgroup draworder="index" id="2">
    <object id="1" x="0" y="0" width="13" height="7">
     <properties>
      <property name="clearance" type="int" value="10"/>
     </properties>
    </object>
   </objectgroup>
  </tile>
  <tile id="290">
   <properties>
    <property name="position" value="top_left"/>
    <property name="role" value="border_outer"/>
    <property name="terrain" value="grass"/>
   </properties>
  </tile>
  <tile id="291">
   <properties>
    <property name="position" value="top"/>
    <property name="role" value="border_outer"/>
    <property name="terrain" value="grass"/>
   </properties>
  </tile>
  <tile id="292">
   <properties>
    <property name="position" value="top_right"/>
    <property name="role" value="border_outer"/>
    <property name="terrain" value="grass"/>
   </properties>
  </tile>
  <tile id="293">
   <properties>
    <property name="position" value="top_left"/>
    <property name="role" value="border_inner"/>
    <property name="terrain" value="grass"/>
   </properties>
  </tile>
  <tile id="294">
   <properties>
    <property name="position" value="top_right"/>
    <property name="role" value="border_inner"/>
    <property name="terrain" value="grass"/>
   </properties>
  </tile>
  <tile id="307">
   <properties>
    <property name="position" value="left"/>
    <property name="role" value="border_outer"/>
    <property name="terrain" value="grass"/>
   </properties>
  </tile>
  <tile id="308">
   <properties>
    <property name="role" value="fill"/>
    <property name="terrain" value="grass"/>
   </properties>
  </tile>
  <tile id="309">
   <properties>
    <property name="position" value="right"/>
    <property name="role" value="border_outer"/>
    <property name="terrain" value="grass"/>
   </properties>
  </tile>
  <tile id="310">
   <properties>
    <property name="position" value="bottom_left"/>
    <property name="role" value="border_inner"/>
    <property name="terrain" value="grass"/>
   </properties>
  </tile>
  <tile id="311">
   <properties>
    <property name="position" value="bottom_right"/>
    <property name="role" value="border_inner"/>
    <property name="terrain" value="grass"/>
   </properties>
  </tile>
  <tile id="324">
   <properties>
    <property name="position" value="bottom_left"/>
    <property name="role" value="border_outer"/>
    <property name="terrain" value="grass"/>
   </properties>
  </tile>
  <tile id="325">
   <properties>
    <property name="position" value="bottom"/>
    <property name="role" value="border_outer"/>
    <property name="terrain" value="grass"/>
   </properties>
  </tile>
  <tile id="326">
   <properties>
    <property name="position" value="bottom_right"/>
    <property name="role" value="border_outer"/>
    <property name="terrain" value="grass"/>
   </properties>
  </tile>
  <tile id="341">
   <properties>
    <property name="position" value="top_left"/>
    <property name="role" value="border_outer"/>
    <property name="terrain" value="ground"/>
   </properties>
  </tile>
  <tile id="342">
   <properties>
    <property name="position" value="top"/>
    <property name="role" value="border_outer"/>
    <property name="terrain" value="ground"/>
   </properties>
  </tile>
  <tile id="343">
   <properties>
    <property name="position" value="top_right"/>
    <property name="role" value="border_outer"/>
    <property name="terrain" value="ground"/>
   </properties>
  </tile>
  <tile id="344">
   <properties>
    <property name="position" value="top_left"/>
    <property name="role" value="border_inner"/>
    <property name="terrain" value="ground"/>
   </properties>
  </tile>
  <tile id="345">
   <properties>
    <property name="position" value="top_right"/>
    <property name="role" value="border_inner"/>
    <property name="terrain" value="ground"/>
   </properties>
  </tile>
  <tile id="358">
   <properties>
    <property name="position" value="left"/>
    <property name="role" value="border_outer"/>
    <property name="terrain" value="ground"/>
   </properties>
  </tile>
  <tile id="359">
   <properties>
    <property name="role" value="fill"/>
    <property name="terrain" value="ground"/>
   </properties>
  </tile>
  <tile id="360">
   <properties>
    <property name="position" value="right"/>
    <property name="role" value="border_outer"/>
    <property name="terrain" value="ground"/>
   </properties>
  </tile>
  <tile id="361">
   <properties>
    <property name="position" value="bottom_left"/>
    <property name="role" value="border_inner"/>
    <property name="terrain" value="ground"/>
   </properties>
  </tile>
  <tile id="362">
   <properties>
    <property name="position" value="bottom_right"/>
    <property name="role" value="border_inner"/>
    <property name="terrain" value="ground"/>
   </properties>
  </tile>
  <tile id="375">
   <properties>
    <property name="position" value="bottom_left"/>
    <property name="role" value="border_outer"/>
    <property name="terrain" value="ground"/>
   </properties>
  </tile>
  <tile id="376">
   <properties>
    <property name="position" value="bottom"/>
    <property name="role" value="border_outer"/>
    <property name="terrain" value="ground"/>
   </properties>
  </tile>
  <tile id="377">
   <properties>
    <property name="position" value="bottom_right"/>
    <property name="role" value="border_outer"/>
    <property name="terrain" value="ground"/>
   </properties>
  </tile>
 </tileset>
 <layer id="1" name="ground" width="73" height="33">
  <data encoding="csv">
0,0,0,0,0,0,0,0,0,0,0,0,0,0,0,0,0,0,0,0,0,0,0,0,0,423,423,423,423,423,423,423,423,0,0,0,0,0,0,0,0,0,0,0,0,0,0,0,0,0,0,0,0,0,0,0,0,423,423,423,423,423,423,423,423,423,423,423,423,423,423,0,0,
0,0,0,0,0,0,0,0,0,0,0,0,0,0,0,0,0,0,0,0,0,0,0,0,423,423,423,423,423,423,423,423,423,423,0,0,0,0,0,0,0,0,0,0,0,0,0,0,0,0,0,0,0,0,0,0,0,423,423,423,423,423,423,423,423,423,423,423,423,423,423,0,0,
0,0,0,0,0,0,0,0,0,0,0,0,0,0,0,0,0,0,0,0,0,0,0,423,423,423,423,423,423,423,423,423,423,423,423,0,0,0,0,0,0,0,0,0,0,0,0,0,0,0,0,0,0,0,0,0,0,423,423,423,423,0,423,423,423,423,423,423,423,423,423,0,0,
0,0,0,0,0,0,0,0,0,0,0,0,0,0,0,0,0,0,0,0,0,0,0,423,423,423,423,423,423,423,423,423,423,423,423,423,423,0,0,0,0,0,0,0,0,0,0,0,0,0,0,0,0,0,0,0,423,423,423,423,423,423,423,423,423,423,423,423,423,423,423,0,0,
0,0,0,0,0,0,0,0,0,0,0,0,0,0,0,0,0,0,0,0,0,0,0,423,423,423,423,423,423,423,423,423,423,423,423,423,423,423,423,423,423,423,0,0,0,0,0,0,0,0,0,0,0,0,0,423,423,423,423,423,423,423,423,423,423,423,423,423,423,423,423,0,0,
0,0,0,0,0,0,0,0,0,0,0,0,0,0,0,0,0,0,0,0,0,0,0,423,423,423,423,423,423,423,423,423,423,423,423,423,423,423,423,423,423,423,423,0,0,0,0,0,0,0,0,0,0,0,423,423,423,423,423,423,0,423,423,423,423,423,423,423,423,423,0,0,0,
0,0,0,0,0,0,0,0,0,0,0,0,0,0,0,0,0,0,0,0,0,0,0,423,423,423,423,423,423,423,423,423,423,423,423,423,423,423,423,423,423,423,423,423,423,423,423,0,0,0,0,0,0,423,423,423,423,423,423,423,423,423,423,423,423,423,423,423,423,0,0,0,0,
0,0,0,0,0,0,0,0,0,0,0,0,0,0,0,0,0,0,0,0,0,0,0,423,423,423,423,423,423,423,423,423,423,423,423,423,423,423,423,423,423,423,423,423,423,423,423,423,0,0,423,423,423,423,423,423,423,423,423,423,423,423,423,423,423,423,423,423,0,0,0,0,0,
0,0,0,0,0,0,0,0,0,0,0,0,0,0,0,0,0,0,0,0,0,0,423,423,423,423,423,423,423,423,423,423,423,423,423,423,423,423,423,423,423,423,423,423,423,423,423,423,423,423,423,423,423,423,423,423,423,423,423,423,423,423,423,423,423,423,423,0,0,0,0,0,0,
0,0,0,0,0,0,0,0,0,0,0,0,0,0,0,0,0,0,0,0,423,423,423,423,423,423,423,423,423,423,423,423,423,423,423,423,423,423,423,423,423,423,423,423,423,423,423,423,423,423,423,423,423,423,423,423,423,423,423,423,423,423,423,423,423,423,423,0,0,0,0,0,0,
0,0,0,0,0,0,0,0,0,0,0,0,0,0,0,423,423,423,423,423,423,423,423,423,423,423,423,0,0,0,423,423,423,423,423,423,423,423,423,423,423,423,423,423,423,423,423,423,423,423,423,423,423,423,423,423,423,423,423,423,423,423,423,423,423,423,423,0,0,0,0,0,0,
0,0,0,0,0,0,0,0,0,0,0,0,0,0,0,423,423,423,423,423,423,423,423,423,423,423,423,0,423,423,0,423,423,423,423,423,423,423,423,423,423,423,423,423,423,423,423,423,423,423,423,423,423,423,423,423,423,0,423,423,423,423,423,423,423,423,423,0,0,0,0,0,0,
423,0,0,0,0,0,0,0,0,0,423,423,423,423,423,423,423,423,423,423,423,423,423,423,423,423,423,423,423,423,423,423,423,423,423,423,423,423,423,423,423,423,423,423,423,423,423,423,423,423,423,423,423,423,423,423,423,423,423,423,423,423,423,423,423,423,423,0,0,0,0,0,0,
423,423,423,0,0,0,0,0,423,423,423,423,423,423,423,423,423,423,423,423,423,423,423,423,423,423,423,423,423,423,423,0,423,423,423,423,423,423,0,0,0,423,423,423,423,423,423,423,423,423,423,423,423,423,423,423,423,423,423,423,423,423,423,423,423,423,423,0,0,0,0,0,0,
423,423,423,0,0,0,0,0,423,423,423,423,423,423,423,423,423,423,423,423,423,423,423,423,423,423,423,423,423,423,423,423,0,423,423,423,423,423,423,423,423,423,423,423,423,423,423,423,423,423,423,423,423,423,423,423,423,423,423,423,423,423,423,423,423,423,0,0,0,0,0,0,0,
423,423,423,423,423,423,423,423,423,423,423,423,423,423,423,423,423,423,423,423,423,423,423,423,423,423,423,423,423,423,423,423,423,0,0,0,0,0,423,423,423,0,423,423,423,423,423,423,423,423,423,423,423,423,423,423,0,423,423,423,423,423,423,423,423,0,0,0,0,0,0,0,0,
423,423,423,423,423,423,423,423,423,423,423,423,423,423,423,423,423,423,423,423,423,423,423,423,423,423,423,423,423,423,423,423,423,423,423,423,423,423,423,423,423,423,0,423,423,423,423,423,423,423,423,423,423,423,423,0,423,423,423,423,423,423,423,423,0,0,0,0,0,0,0,0,0,
423,423,423,423,423,423,423,423,423,423,423,423,423,423,423,423,423,423,423,423,423,423,423,423,423,423,423,423,423,423,423,423,423,423,423,423,423,423,423,423,423,423,423,0,423,423,423,423,423,423,423,423,0,0,0,423,423,423,423,423,423,423,0,0,0,0,0,0,0,0,0,0,0,
423,423,423,423,423,423,423,423,423,423,423,423,423,423,423,423,423,423,423,423,423,423,423,423,423,423,423,423,423,423,423,423,423,423,423,423,423,423,423,423,423,423,423,423,0,423,423,423,423,423,0,0,423,423,423,423,423,423,423,423,423,423,0,0,0,0,0,0,0,0,0,0,0,
423,423,423,423,423,423,423,423,423,423,423,423,423,423,423,423,423,423,423,423,423,423,423,423,423,423,423,423,423,423,423,423,423,423,423,423,423,423,423,423,423,423,423,423,423,0,0,0,0,0,423,423,423,423,423,423,423,423,423,423,423,423,0,0,0,0,0,0,0,0,0,0,0,
423,423,423,423,423,423,423,423,423,423,423,423,423,423,423,423,423,423,423,423,423,423,423,423,0,423,423,423,423,423,423,423,423,423,423,423,423,423,423,423,423,423,423,423,423,423,423,423,423,423,423,423,423,423,423,423,423,423,423,423,423,423,0,0,0,0,0,0,0,0,0,0,0,
423,423,423,423,423,423,423,423,423,423,423,423,423,423,423,423,423,423,423,423,423,423,423,0,0,423,423,423,423,423,423,423,423,423,423,423,423,423,423,423,423,423,423,423,423,423,423,423,423,423,423,423,423,423,423,423,423,423,423,423,423,423,0,0,0,0,0,0,0,0,0,0,0,
423,423,423,423,423,423,423,423,423,423,423,423,423,423,423,423,423,423,423,423,423,423,0,0,0,0,0,0,0,0,0,0,423,423,423,423,423,423,423,423,423,423,423,423,423,423,423,423,423,423,423,423,423,423,423,423,423,423,423,423,423,0,0,0,0,0,0,0,0,0,0,0,0,
0,0,0,0,0,0,0,0,0,0,423,423,423,423,423,423,423,423,423,423,0,0,0,0,0,0,0,0,0,0,0,0,423,423,423,423,423,423,423,423,423,423,423,423,423,423,423,423,423,423,423,423,423,423,423,423,423,423,423,0,0,0,0,0,0,0,0,0,0,0,0,0,0,
0,0,0,0,0,0,0,0,0,0,0,423,423,423,423,423,423,423,423,0,0,0,0,0,0,0,0,0,0,0,0,0,0,0,0,0,0,0,423,423,423,423,423,423,423,423,423,423,423,423,423,423,423,423,423,423,423,0,0,0,0,0,0,0,0,0,0,0,0,0,0,0,0,
0,0,0,0,0,0,0,0,0,0,0,0,423,423,423,423,423,0,0,0,0,0,0,0,0,0,0,0,0,0,0,0,0,0,0,0,0,0,423,423,423,423,423,423,423,423,423,423,423,423,423,423,423,423,423,423,0,0,0,0,0,0,0,0,0,0,0,0,0,0,0,0,0,
0,0,0,0,0,0,0,0,0,0,0,0,0,0,0,0,0,0,0,0,0,0,0,0,0,0,0,0,0,0,0,0,0,0,0,0,0,0,0,0,0,0,0,0,0,0,0,0,0,0,0,423,423,423,0,0,0,0,0,0,0,0,0,0,0,0,0,0,0,0,0,0,0,
0,0,0,0,0,0,0,0,0,0,0,0,0,0,0,0,0,0,0,0,0,0,0,0,0,0,0,0,0,0,0,0,0,0,0,0,0,0,0,0,0,0,0,0,0,0,0,0,0,0,0,0,0,0,0,0,0,0,0,0,0,0,0,0,0,0,0,0,0,0,0,0,0,
0,0,0,0,0,0,0,0,0,0,0,0,0,0,0,0,0,0,0,0,0,0,0,0,0,0,0,0,0,0,0,0,0,0,0,0,0,0,0,0,0,0,0,0,0,0,0,0,0,0,0,0,0,0,0,0,0,0,0,0,0,0,0,0,0,0,0,0,0,0,0,0,0,
0,0,0,0,0,0,0,0,0,0,0,0,0,0,0,0,0,0,0,0,0,0,0,0,0,0,0,0,0,0,0,0,0,0,0,0,0,0,0,0,0,0,0,0,0,0,0,0,0,0,0,0,0,0,0,0,0,0,0,0,0,0,0,0,0,0,0,0,0,0,0,0,0,
0,0,0,0,0,0,0,0,0,0,0,0,0,0,0,0,0,0,0,0,0,0,0,0,0,0,0,0,0,0,0,0,0,0,0,0,0,0,0,0,0,0,0,0,0,0,0,0,0,0,0,0,0,0,0,0,0,0,0,0,0,0,0,0,0,0,0,0,0,0,0,0,0,
0,0,0,0,0,0,0,0,0,0,0,0,0,0,0,0,0,0,0,0,0,0,0,0,0,0,0,0,0,0,0,0,0,0,0,0,0,0,0,0,0,0,0,0,0,0,0,0,0,0,0,0,0,0,0,0,0,0,0,0,0,0,0,0,0,0,0,0,0,0,0,0,0,
0,0,0,0,0,0,0,0,0,0,0,0,0,0,0,0,0,0,0,0,0,0,0,0,0,0,0,0,0,0,0,0,0,0,0,0,0,0,0,0,0,0,0,0,0,0,0,0,0,0,0,0,0,0,0,0,0,0,0,0,0,0,0,0,0,0,0,0,0,0,0,0,0
</data>
 </layer>
 <layer id="3" name="grass" width="73" height="33">
  <data encoding="csv">
0,0,0,0,0,0,0,0,0,0,0,0,0,0,0,0,0,0,0,0,0,0,0,0,0,0,0,0,0,0,0,0,0,0,0,0,0,0,0,0,0,0,0,0,0,0,0,0,0,0,0,0,0,0,0,0,0,0,0,0,0,0,0,0,0,0,0,0,0,0,0,528,528,
0,0,0,0,0,0,0,0,0,0,0,0,0,0,0,0,0,0,0,0,0,0,0,0,0,0,0,0,0,0,0,0,0,0,0,0,0,0,0,0,0,0,0,0,0,0,0,0,0,0,0,0,0,0,0,0,0,0,0,0,0,0,0,0,0,0,0,0,0,0,0,528,528,
0,0,0,0,0,0,0,0,0,0,0,0,0,0,0,0,0,0,0,0,0,0,0,0,0,0,0,0,0,0,0,0,0,0,0,0,0,0,0,0,0,0,0,0,0,0,0,0,0,0,0,0,0,0,0,0,0,0,0,0,0,0,0,0,0,0,0,0,0,0,0,528,528,
0,0,0,0,0,0,0,0,0,0,0,0,0,0,0,0,0,0,0,0,0,0,0,0,0,0,0,0,0,0,0,0,0,0,0,0,0,0,0,0,0,0,0,0,0,0,0,0,0,0,0,0,0,0,0,0,0,0,0,0,0,0,0,0,0,0,0,0,0,0,0,528,528,
0,0,0,0,0,0,0,0,0,0,0,0,0,0,0,0,0,0,0,0,0,0,0,0,0,0,0,0,0,0,0,0,0,0,0,0,0,0,0,0,0,0,0,0,0,0,0,0,0,0,0,0,0,0,0,0,0,0,0,0,0,0,0,0,0,0,0,0,0,0,0,528,528,
0,0,0,0,0,0,0,0,0,0,0,0,0,0,0,0,0,0,0,0,0,0,0,0,0,0,0,0,0,0,0,0,0,0,0,0,0,0,0,0,0,0,0,0,0,0,0,0,0,0,0,0,0,0,0,0,0,0,0,0,0,0,0,0,0,0,0,0,0,0,0,528,528,
0,0,0,0,0,0,0,0,0,0,0,0,0,0,0,0,0,0,0,0,0,0,0,0,0,0,0,0,0,0,0,0,0,0,0,0,0,0,0,0,0,0,0,0,0,0,0,0,0,0,0,0,0,0,0,0,0,0,0,0,0,0,0,0,0,0,0,0,0,0,528,528,528,
0,0,0,0,0,0,0,0,0,0,0,0,0,0,0,0,0,0,0,0,0,0,0,0,0,0,0,0,0,0,0,0,0,0,0,0,0,0,0,0,0,0,0,0,0,0,0,0,0,0,0,0,0,0,0,0,0,0,0,0,0,0,0,0,0,0,0,0,0,528,528,528,528,
0,0,0,0,0,0,0,0,0,0,0,0,0,0,0,0,0,0,0,0,0,0,0,0,0,0,0,0,0,0,0,0,0,0,0,0,0,0,0,0,0,0,0,0,0,0,0,0,0,0,0,0,0,0,0,0,0,0,0,0,0,0,0,0,0,0,0,0,528,528,528,528,528,
0,0,0,0,0,0,0,0,0,0,0,0,0,0,0,0,0,0,0,0,0,0,0,0,0,0,0,0,0,0,0,0,0,0,0,0,0,0,0,0,0,0,0,0,0,0,0,0,0,0,0,0,0,0,0,0,0,0,0,0,0,0,0,0,0,0,0,528,528,528,528,528,528,
0,0,0,0,0,0,0,0,0,0,0,0,0,0,0,0,0,0,0,0,0,0,0,0,0,0,0,0,0,0,0,0,0,0,0,0,0,0,0,0,0,0,0,0,0,0,0,0,0,0,0,0,0,0,0,0,0,0,0,0,0,0,0,0,0,0,0,528,528,528,528,528,528,
0,0,0,0,0,0,0,0,0,0,0,0,0,0,0,0,0,0,0,0,0,0,0,0,0,0,0,0,0,0,0,0,0,0,0,0,0,0,0,0,0,0,0,0,0,0,0,0,0,0,0,0,0,0,0,0,0,0,0,0,0,0,0,0,0,0,0,528,528,528,528,528,528,
0,0,0,0,0,0,0,0,0,0,0,0,0,0,0,0,0,0,0,0,0,0,0,0,0,0,0,0,0,0,0,0,0,0,0,0,0,0,0,0,0,0,0,0,0,0,0,0,0,0,0,0,0,0,0,0,0,0,0,0,0,0,0,0,0,0,0,528,528,528,528,528,528,
0,0,0,0,0,0,0,0,0,0,0,0,0,0,0,0,0,0,0,0,0,0,0,0,0,0,0,0,0,0,0,0,0,0,0,0,0,0,0,0,0,0,0,0,0,0,0,0,0,0,0,0,0,0,0,0,0,0,0,0,0,0,0,0,0,0,0,528,528,528,528,528,528,
0,0,0,0,0,0,0,0,0,0,0,0,0,0,0,0,0,0,0,0,0,0,0,0,0,0,0,0,0,0,0,0,0,0,0,0,0,0,0,0,0,0,0,0,0,0,0,0,0,0,0,0,0,0,0,0,0,0,0,0,0,0,0,0,0,0,0,528,528,528,528,528,528,
0,0,0,0,0,0,0,0,0,0,0,0,0,0,0,0,0,0,0,0,0,0,0,0,0,0,0,0,0,0,0,0,0,0,0,0,0,0,0,0,0,0,0,0,0,0,0,0,0,0,0,0,0,0,0,0,0,0,0,0,0,0,0,0,0,0,528,528,528,528,528,528,528,
0,0,0,0,0,0,0,0,0,0,0,0,0,0,0,0,0,0,0,0,0,0,0,0,0,0,0,0,0,0,0,0,0,0,0,0,0,0,0,0,0,0,0,0,0,0,0,0,0,0,0,0,0,0,0,0,0,0,0,0,0,0,0,0,0,528,528,528,528,528,528,528,528,
0,0,0,0,0,0,0,0,0,0,0,0,0,0,0,0,0,0,0,0,0,0,0,0,0,0,0,0,0,0,0,0,0,0,0,0,0,0,0,0,0,0,0,0,0,0,0,0,0,0,0,0,0,0,0,0,0,0,0,0,0,0,0,0,528,528,528,528,528,528,528,528,528,
0,0,0,0,0,0,0,0,0,0,0,0,0,0,0,0,0,0,0,0,0,0,0,0,0,0,0,0,0,0,0,0,0,0,0,0,0,0,0,0,0,0,0,0,0,0,0,0,0,0,0,0,0,0,0,0,0,0,0,0,0,0,528,528,528,528,528,528,528,528,528,528,528,
0,0,0,0,0,0,0,0,0,0,0,0,0,0,0,0,0,0,0,0,0,0,0,0,0,0,0,0,0,0,0,0,0,0,0,0,0,0,0,0,0,0,0,0,0,0,0,0,0,0,0,0,0,0,0,0,0,0,0,0,0,0,528,528,528,528,528,528,528,528,528,528,528,
0,0,0,0,0,0,0,0,0,0,0,0,0,0,0,0,0,0,0,0,0,0,0,0,0,0,0,0,0,0,0,0,0,0,0,0,0,0,0,0,0,0,0,0,0,0,0,0,0,0,0,0,0,0,0,0,0,0,0,0,0,0,528,528,528,528,528,528,528,528,528,528,528,
0,0,0,0,0,0,0,0,0,0,0,0,0,0,0,0,0,0,0,0,0,0,0,0,0,0,0,0,0,0,0,0,0,0,0,0,0,0,0,0,0,0,0,0,0,0,0,0,0,0,0,0,0,0,0,0,0,0,0,0,0,0,528,528,528,528,528,528,528,528,528,528,528,
0,0,0,0,0,0,0,0,0,0,0,0,0,0,0,0,0,0,0,0,0,0,0,0,0,0,0,0,0,0,0,0,0,0,0,0,0,0,0,0,0,0,0,0,0,0,0,0,0,0,0,0,0,0,0,0,0,0,0,0,0,0,528,528,528,528,528,528,528,528,528,528,528,
0,0,0,0,0,0,0,0,0,0,0,0,0,0,0,0,0,0,0,0,0,0,0,0,591,591,591,591,591,591,591,591,0,0,0,0,0,0,0,0,0,0,0,0,0,0,0,0,0,0,0,0,0,0,0,0,0,0,0,0,0,528,528,528,528,528,528,528,528,528,528,528,528,
68,68,68,68,68,68,68,68,68,0,0,0,0,0,0,0,0,0,0,0,0,0,0,591,591,591,591,591,591,591,591,591,0,0,0,0,0,0,0,0,0,0,0,0,0,0,0,0,0,0,0,0,0,0,0,0,0,0,0,528,528,528,528,528,528,528,528,528,528,528,528,528,528,
0,0,0,0,0,0,0,0,0,68,0,0,0,0,0,0,0,0,0,0,0,0,591,591,591,591,591,591,591,591,591,591,591,591,591,591,591,591,0,0,0,0,0,0,0,0,0,0,0,0,0,0,0,0,0,0,0,591,591,528,528,528,528,528,528,528,528,528,528,528,528,528,528,
591,591,591,591,591,591,591,591,591,0,68,0,0,0,0,0,0,0,0,0,591,591,591,591,591,591,591,591,591,591,591,591,591,591,591,591,591,591,0,0,0,0,0,0,0,0,0,0,0,0,0,0,0,0,0,0,591,591,528,528,528,528,528,528,528,528,528,528,528,528,528,528,528,
591,591,591,591,591,591,591,591,591,591,0,0,0,0,0,0,0,0,0,591,591,591,591,591,591,591,591,591,591,591,591,591,591,591,591,591,591,591,591,591,591,591,591,591,591,591,591,591,591,591,591,0,0,0,591,591,591,528,528,528,528,528,528,528,528,528,528,528,528,528,528,528,528,
591,591,591,591,591,591,591,591,591,591,591,591,0,0,0,0,0,591,591,591,591,591,591,591,591,591,591,591,591,591,591,591,591,591,591,591,591,591,591,591,591,591,528,528,528,528,528,528,528,528,591,591,591,591,591,528,528,528,528,528,528,528,528,528,528,528,528,528,528,528,528,528,528,
591,591,591,591,591,591,591,591,591,591,591,591,591,591,591,591,591,591,591,591,591,591,591,591,591,591,591,591,591,591,591,591,591,591,591,591,591,591,591,591,591,591,528,528,528,528,528,528,528,528,528,528,528,528,528,528,528,528,528,528,528,528,528,528,528,528,528,528,528,528,528,528,528,
591,591,591,591,591,591,591,591,591,591,591,591,591,591,591,591,591,591,591,591,591,591,591,591,591,591,591,591,591,591,591,591,591,591,591,591,591,591,591,591,591,591,528,528,528,528,528,528,528,528,528,528,528,528,528,528,528,528,528,528,528,528,528,528,528,528,528,528,528,528,528,528,528,
591,591,591,591,591,591,591,591,591,591,591,591,591,591,591,591,591,591,591,591,591,591,591,591,591,591,591,591,591,591,591,591,591,591,591,591,591,591,591,591,591,591,528,528,528,528,528,528,528,528,528,528,528,528,528,528,528,528,528,528,528,528,528,528,528,528,528,528,528,528,528,528,528,
591,591,591,591,591,591,591,591,591,591,591,591,591,591,591,591,591,591,591,591,591,591,591,591,591,591,591,591,591,591,591,591,591,591,591,591,591,591,591,591,591,591,528,528,528,528,528,528,528,528,528,528,528,528,528,528,528,528,528,528,528,528,528,528,528,528,528,528,528,528,528,528,528
</data>
 </layer>
 <layer id="5" name="snow" width="73" height="33">
  <properties>
   <property name="surface" value="snow"/>
  </properties>
  <data encoding="csv">
783,783,783,783,783,783,783,783,783,783,783,783,783,783,783,783,783,783,783,783,783,783,783,783,0,0,0,0,0,0,0,0,0,0,783,783,783,783,783,783,783,783,783,783,783,783,783,783,783,783,783,783,783,783,783,783,783,0,0,0,0,0,0,0,0,0,0,0,0,0,0,0,0,
783,783,783,783,783,783,783,783,783,783,783,783,783,783,783,783,783,783,783,783,783,783,783,0,0,0,0,0,0,0,0,0,0,0,0,783,783,783,783,783,783,783,783,783,783,783,783,783,783,783,783,783,783,783,783,783,783,0,0,0,0,0,0,0,0,0,0,0,0,0,0,0,0,
783,783,783,783,783,783,783,783,783,783,783,783,783,783,783,783,783,783,783,783,783,783,0,0,0,0,0,0,0,0,0,0,0,0,0,0,0,783,783,783,783,783,783,783,783,783,783,783,783,783,783,783,783,783,783,783,0,0,0,0,0,0,0,0,0,0,0,0,0,0,0,0,0,
783,783,783,783,783,783,783,783,783,783,783,783,783,783,783,783,783,783,783,783,783,783,0,0,0,0,0,0,0,0,0,0,0,0,0,0,0,0,0,0,0,0,783,783,783,783,783,783,783,783,783,783,783,783,783,0,0,0,0,0,0,0,0,0,0,0,0,0,0,0,0,0,0,
783,783,783,783,783,783,783,783,783,783,783,783,783,783,783,783,783,783,783,783,783,783,0,0,0,0,0,0,0,0,0,0,0,0,0,0,0,0,0,0,0,0,0,783,783,783,783,783,783,783,783,783,783,783,0,0,0,0,0,0,0,0,0,0,0,0,0,0,0,0,0,0,0,
783,783,783,783,783,783,783,783,783,783,783,783,783,783,783,783,783,783,783,783,783,783,0,0,0,0,0,0,0,0,0,0,0,0,0,0,0,0,0,0,0,0,0,0,0,0,0,783,783,783,783,783,783,0,0,0,0,0,0,0,0,0,0,0,0,0,0,0,0,0,0,0,0,
783,783,783,783,783,783,783,783,783,783,783,783,783,783,783,783,783,783,783,783,783,783,0,0,0,0,0,0,0,0,0,0,0,0,0,0,0,0,0,0,0,0,0,0,0,0,0,0,783,783,0,0,0,0,0,0,0,0,0,0,0,0,0,0,0,0,0,0,0,0,0,0,0,
783,783,783,783,783,783,783,783,783,783,783,783,783,783,783,783,783,783,783,783,783,783,0,0,0,0,0,0,0,0,0,0,0,0,0,0,0,0,0,0,0,0,0,0,0,0,0,0,0,0,0,0,0,0,0,0,0,0,0,0,0,0,0,0,0,0,0,0,0,0,0,0,0,
783,783,783,783,783,783,783,783,783,783,783,783,783,783,783,783,783,783,783,783,783,0,0,0,0,0,0,0,0,0,0,0,0,0,0,0,0,0,0,0,0,0,0,0,0,0,0,0,0,0,0,0,0,0,0,0,0,0,0,0,0,0,0,0,0,0,0,0,0,0,0,0,0,
783,783,783,783,783,783,783,783,783,783,783,783,783,783,783,783,783,783,783,783,0,0,0,0,0,0,0,0,0,0,0,0,0,0,0,0,0,0,0,0,0,0,0,0,0,0,0,0,0,0,0,0,0,0,0,0,0,0,0,0,0,0,0,0,0,0,0,0,0,0,0,0,0,
783,783,783,783,783,783,783,783,783,783,783,783,783,783,783,0,0,0,0,0,0,0,0,0,0,0,0,0,0,0,0,0,0,0,0,0,0,0,0,0,0,0,0,0,0,0,0,0,0,0,0,0,0,0,0,0,0,0,0,0,0,0,0,0,0,0,0,0,0,0,0,0,0,
0,783,783,783,783,783,783,783,783,783,783,783,783,783,0,0,0,0,0,0,0,0,0,0,0,0,0,0,0,0,0,0,0,0,0,0,0,0,0,0,0,0,0,0,0,0,0,0,0,0,0,0,0,0,0,0,0,0,0,0,0,0,0,0,0,0,0,0,0,0,0,0,0,
0,0,783,783,783,783,783,783,783,0,0,0,0,0,0,0,0,0,0,0,0,0,0,0,0,0,0,0,0,0,0,0,0,0,0,0,0,0,0,0,0,0,0,0,0,0,0,0,0,0,0,0,0,0,0,0,0,0,0,0,0,0,0,0,0,0,0,0,0,0,0,0,0,
0,0,0,783,783,783,783,783,0,0,0,0,0,0,0,0,0,0,0,0,0,0,0,0,0,0,0,0,0,0,0,0,0,0,0,0,0,0,0,0,0,0,0,0,0,0,0,0,0,0,0,0,0,0,0,0,0,0,0,0,0,0,0,0,0,0,0,0,0,0,0,0,0,
0,0,0,0,0,0,0,0,0,0,0,0,0,0,0,0,0,0,0,0,0,0,0,0,0,0,0,0,0,0,0,0,0,0,0,0,0,0,0,0,0,0,0,0,0,0,0,0,0,0,0,0,0,0,0,0,0,0,0,0,0,0,0,0,0,0,0,0,0,0,0,0,0,
0,0,0,0,0,0,0,0,0,0,0,0,0,0,0,0,0,0,0,0,0,0,0,0,0,0,0,0,0,0,0,0,0,0,0,0,0,0,0,0,0,0,0,0,0,0,0,0,0,0,0,0,0,0,0,0,0,0,0,0,0,0,0,0,0,0,0,0,0,0,0,0,0,
0,0,0,0,0,0,0,0,0,0,0,0,0,0,0,0,0,0,0,0,0,0,0,0,0,0,0,0,0,0,0,0,0,0,0,0,0,0,0,0,0,0,0,0,0,0,0,0,0,0,0,0,0,0,0,0,0,0,0,0,0,0,0,0,0,0,0,0,0,0,0,0,0,
0,0,0,0,0,0,0,0,0,0,0,0,0,0,0,0,0,0,0,0,0,0,0,0,0,0,0,0,0,0,0,0,0,0,0,0,0,0,0,0,0,0,0,0,0,0,0,0,0,0,0,0,0,0,0,0,0,0,0,0,0,0,0,0,0,0,0,0,0,0,0,0,0,
0,0,0,0,0,0,0,0,0,0,0,0,0,0,0,0,0,0,0,0,0,0,0,0,0,0,0,0,0,0,0,0,0,0,0,0,0,0,0,0,0,0,0,0,0,0,0,0,0,0,0,0,0,0,0,0,0,0,0,0,0,0,0,0,0,0,0,0,0,0,0,0,0,
0,0,0,0,0,0,0,0,0,0,0,0,0,0,0,0,0,0,0,0,0,0,0,0,0,0,0,0,0,0,0,0,0,0,0,0,0,0,0,0,0,0,0,0,0,0,0,0,0,0,0,0,0,0,0,0,0,0,0,0,0,0,0,0,0,0,0,0,0,0,0,0,0,
0,0,0,0,0,0,0,0,0,0,0,0,0,0,0,0,0,0,0,0,0,0,0,0,0,0,0,0,0,0,0,0,0,0,0,0,0,0,0,0,0,0,0,0,0,0,0,0,0,0,0,0,0,0,0,0,0,0,0,0,0,0,0,0,0,0,0,0,0,0,0,0,0,
0,0,0,0,0,0,0,0,0,0,0,0,0,0,0,0,0,0,0,0,0,0,0,0,0,0,0,0,0,0,0,0,0,0,0,0,0,0,0,0,0,0,0,0,0,0,0,0,0,0,0,0,0,0,0,0,0,0,0,0,0,0,0,0,0,0,0,0,0,0,0,0,0,
0,0,0,0,0,0,0,0,0,0,0,0,0,0,0,0,0,0,0,0,0,0,0,0,0,0,0,0,0,0,0,0,0,0,0,0,0,0,0,0,0,0,0,0,0,0,0,0,0,0,0,0,0,0,0,0,0,0,0,0,0,0,0,0,0,0,0,0,0,0,0,0,0,
0,0,0,0,0,0,0,0,0,0,0,0,0,0,0,0,0,0,0,0,0,0,0,0,0,0,0,0,0,0,0,0,0,0,0,0,0,0,0,0,0,0,0,0,0,0,0,0,0,0,0,0,0,0,0,0,0,0,0,0,0,0,0,0,0,0,0,0,0,0,0,0,0,
0,0,0,0,0,0,0,0,0,0,0,0,0,0,0,0,0,0,0,0,0,0,0,0,0,0,0,0,0,0,0,0,0,0,0,0,0,0,0,0,0,0,0,0,0,0,0,0,0,0,0,0,0,0,0,0,0,0,0,0,0,0,0,0,0,0,0,0,0,0,0,0,0,
0,0,0,0,0,0,0,0,0,0,0,0,0,0,0,0,0,0,0,0,0,0,0,0,0,0,0,0,0,0,0,0,0,0,0,0,0,0,0,0,0,0,0,0,0,0,0,0,0,0,0,0,0,0,0,0,0,0,0,0,0,0,0,0,0,0,0,0,0,0,0,0,0,
0,0,0,0,0,0,0,0,0,0,0,0,0,0,0,0,0,0,0,0,0,0,0,0,0,0,0,0,0,0,0,0,0,0,0,0,0,0,0,0,0,0,0,0,0,0,0,0,0,0,0,0,0,0,0,0,0,0,0,0,0,0,0,0,0,0,0,0,0,0,0,0,0,
0,0,0,0,0,0,0,0,0,0,0,0,0,0,0,0,0,0,0,0,0,0,0,0,0,0,0,0,0,0,0,0,0,0,0,0,0,0,0,0,0,0,0,0,0,0,0,0,0,0,0,0,0,0,0,0,0,0,0,0,0,0,0,0,0,0,0,0,0,0,0,0,0,
0,0,0,0,0,0,0,0,0,0,0,0,0,0,0,0,0,0,0,0,0,0,0,0,0,0,0,0,0,0,0,0,0,0,0,0,0,0,0,0,0,0,0,0,0,0,0,0,0,0,0,0,0,0,0,0,0,0,0,0,0,0,0,0,0,0,0,0,0,0,0,0,0,
0,0,0,0,0,0,0,0,0,0,0,0,0,0,0,0,0,0,0,0,0,0,0,0,0,0,0,0,0,0,0,0,0,0,0,0,0,0,0,0,0,0,0,0,0,0,0,0,0,0,0,0,0,0,0,0,0,0,0,0,0,0,0,0,0,0,0,0,0,0,0,0,0,
0,0,0,0,0,0,0,0,0,0,0,0,0,0,0,0,0,0,0,0,0,0,0,0,0,0,0,0,0,0,0,0,0,0,0,0,0,0,0,0,0,0,0,0,0,0,0,0,0,0,0,0,0,0,0,0,0,0,0,0,0,0,0,0,0,0,0,0,0,0,0,0,0,
0,0,0,0,0,0,0,0,0,0,0,0,0,0,0,0,0,0,0,0,0,0,0,0,0,0,0,0,0,0,0,0,0,0,0,0,0,0,0,0,0,0,0,0,0,0,0,0,0,0,0,0,0,0,0,0,0,0,0,0,0,0,0,0,0,0,0,0,0,0,0,0,0,
0,0,0,0,0,0,0,0,0,0,0,0,0,0,0,0,0,0,0,0,0,0,0,0,0,0,0,0,0,0,0,0,0,0,0,0,0,0,0,0,0,0,0,0,0,0,0,0,0,0,0,0,0,0,0,0,0,0,0,0,0,0,0,0,0,0,0,0,0,0,0,0,0
</data>
 </layer>
 <layer id="2" name="ledges" width="73" height="33">
  <properties>
   <property name="clearance" type="int" value="20"/>
   <property name="collides" type="bool" value="true"/>
  </properties>
  <data encoding="csv">
1005,1006,988,0,0,0,0,0,0,0,0,0,1142,1143,0,0,0,0,0,0,0,0,0,0,795,827,0,0,0,0,0,813,814,796,0,0,0,0,0,0,0,0,0,0,0,0,0,0,0,0,0,0,0,0,0,0,0,1142,1143,0,0,0,424,0,0,0,0,0,0,0,0,424,0,
1037,1038,1020,819,0,0,0,0,0,0,0,0,1142,1143,0,0,0,0,0,0,0,0,0,795,827,859,0,0,0,0,0,0,846,828,796,0,0,0,0,0,0,0,0,0,0,0,0,0,0,0,0,0,0,0,0,0,0,1142,1143,0,0,0,424,0,0,0,0,0,0,0,0,424,0,
0,0,1431,1432,0,0,0,0,0,0,0,0,951,952,0,0,0,0,0,0,0,0,795,827,859,0,0,0,0,0,0,0,0,860,828,815,796,0,0,0,0,0,0,0,0,0,0,0,0,0,0,0,0,0,0,0,795,816,817,0,0,107,111,0,0,0,0,0,0,0,0,424,0,
0,0,949,950,0,0,0,0,0,0,0,987,1008,1009,0,0,0,0,0,0,0,0,1142,1143,0,0,0,0,0,0,0,0,0,0,860,847,828,815,815,815,815,796,0,0,0,0,0,0,0,0,0,0,0,0,0,795,827,848,0,0,0,128,195,0,0,0,0,0,0,0,0,424,0,
0,0,1005,1006,988,0,0,0,0,0,987,1019,1040,1041,0,0,0,0,0,0,0,0,1142,1143,0,0,0,0,0,0,0,0,0,0,0,0,860,847,847,847,847,828,796,0,0,0,0,0,0,0,0,0,0,0,795,827,859,0,0,0,0,424,0,0,0,0,0,0,0,0,0,424,0,
0,0,1037,1038,1020,1007,1007,1007,1007,1007,1019,1051,0,0,0,0,0,0,0,0,0,0,1142,1143,0,0,0,0,0,0,0,0,0,0,0,0,0,0,0,0,0,860,828,815,815,815,796,0,0,0,0,0,0,795,827,859,0,0,0,0,107,111,0,0,0,0,0,0,0,0,107,111,0,
0,0,0,0,1052,1039,1039,1039,1039,1039,1051,0,0,0,0,0,0,0,0,0,0,0,1142,1143,0,0,0,0,0,0,0,0,0,0,0,0,0,0,0,0,0,0,860,847,847,847,828,796,0,0,795,815,815,827,859,0,0,0,0,0,128,195,0,0,0,0,0,0,0,107,306,142,0,
0,0,0,0,0,0,0,0,0,0,0,0,0,0,0,0,0,0,0,0,0,0,1142,1143,0,0,0,0,0,0,0,0,0,0,0,0,0,0,0,0,0,0,0,0,0,0,860,828,815,815,827,847,847,859,0,0,0,0,0,0,424,0,0,0,0,0,0,0,107,306,142,0,0,
0,0,0,0,0,0,0,0,0,0,0,0,0,0,0,0,0,0,0,0,0,795,816,817,0,0,0,0,0,0,0,0,0,0,0,0,0,0,0,0,0,0,0,0,0,0,0,860,847,847,859,0,0,0,0,0,0,0,0,0,424,0,0,0,0,0,0,107,306,142,0,0,0,
0,0,0,0,0,0,0,0,0,0,0,0,0,0,0,0,0,0,0,0,795,827,848,0,0,0,0,0,0,0,0,0,0,0,0,0,0,0,0,0,0,0,0,0,0,0,0,0,0,0,0,0,0,0,0,0,0,0,0,0,424,0,0,0,0,0,0,264,142,0,0,0,0,
0,0,0,0,0,0,0,0,0,0,0,0,0,0,0,795,815,815,815,815,827,859,0,0,0,0,0,107,110,108,0,0,0,0,0,0,0,0,0,0,0,0,0,0,0,0,0,0,0,0,0,0,0,0,0,0,0,0,0,107,111,0,0,0,0,0,0,424,0,0,0,0,0,
796,0,0,0,0,0,0,0,0,0,0,0,0,0,795,827,847,847,847,847,859,0,0,0,0,0,0,149,236,134,108,0,0,0,0,0,0,0,0,0,0,0,0,0,0,0,0,0,0,0,0,0,0,0,0,0,0,107,110,236,195,0,0,0,0,0,0,424,0,0,0,0,0,
828,796,0,0,0,0,0,0,0,795,815,815,815,815,827,859,0,0,0,0,0,0,0,0,0,0,0,128,48,193,129,0,0,0,0,0,0,0,0,0,0,0,0,0,0,0,0,0,0,0,0,0,0,0,0,0,0,128,194,195,0,0,0,0,0,0,0,424,0,0,0,0,0,
860,828,796,0,0,0,0,0,795,827,847,847,847,847,859,0,0,0,0,0,0,0,0,0,0,0,0,424,0,0,109,108,0,0,0,0,0,0,107,110,108,0,0,0,0,0,0,0,0,0,0,0,0,0,0,0,0,424,0,0,0,0,0,0,0,0,0,424,0,0,0,0,0,
0,860,828,815,815,815,815,815,827,859,0,0,0,0,0,0,0,0,0,0,0,0,0,0,0,0,0,424,0,0,193,134,108,0,0,0,0,0,128,194,129,0,0,0,0,0,0,0,0,0,0,0,0,0,0,0,0,424,0,0,0,0,0,0,0,0,107,111,0,0,0,0,0,
0,0,860,847,847,847,847,847,859,0,0,0,0,0,0,0,0,0,0,0,0,0,0,0,0,0,0,425,403,0,0,193,134,110,0,0,110,110,111,0,109,108,0,0,0,0,0,0,0,0,0,0,0,0,0,0,107,111,0,0,0,0,0,0,0,107,306,142,0,0,0,0,0,
0,0,0,0,0,0,0,0,0,0,0,0,0,0,0,0,0,0,0,0,0,0,0,0,0,0,0,0,424,0,0,0,193,194,0,0,194,194,195,0,193,134,108,0,0,0,0,0,0,0,0,0,0,0,0,107,236,195,0,0,0,0,0,0,107,306,142,0,0,0,0,0,0,
0,0,0,0,0,0,0,0,0,0,0,0,0,0,0,0,0,0,0,0,0,0,0,0,0,0,0,0,424,0,0,0,0,0,0,0,0,0,0,0,0,193,134,108,0,0,0,0,0,0,0,0,107,110,110,236,195,0,0,0,0,0,107,110,306,142,0,0,0,0,0,0,0,
0,0,0,0,0,0,0,0,0,0,0,0,0,0,0,0,0,0,0,0,0,0,0,0,0,0,0,0,424,0,0,0,0,0,0,0,0,0,0,0,0,0,193,134,108,0,0,0,0,0,107,110,236,194,194,195,0,0,0,0,0,0,264,141,142,0,0,0,0,0,0,0,0,
0,0,0,0,0,0,0,0,0,0,0,0,0,0,0,0,0,0,0,0,0,0,0,0,0,0,0,0,424,0,0,0,0,0,0,0,0,0,0,0,0,0,0,193,134,110,110,110,110,110,236,194,195,0,0,0,0,0,0,0,0,0,424,0,0,0,0,0,0,0,0,0,0,
0,0,0,0,0,0,0,0,0,0,0,0,0,0,0,0,0,0,0,0,0,0,0,0,0,0,0,0,0,0,0,0,0,0,0,0,0,0,0,0,0,0,0,0,193,194,194,194,194,194,195,0,0,0,0,0,0,0,0,0,0,0,424,0,0,0,0,0,0,0,0,0,0,
0,0,0,0,0,0,0,0,0,0,0,0,0,0,0,0,0,0,0,0,0,0,0,0,0,0,0,0,0,0,0,0,0,0,0,0,0,0,0,0,0,0,0,0,0,0,0,0,0,0,0,0,0,0,0,0,0,0,0,0,0,0,424,0,0,0,0,0,0,0,0,0,0,
0,0,0,0,0,0,0,0,0,0,0,0,0,0,0,0,0,0,0,0,0,0,0,0,0,0,0,0,152,110,110,108,0,0,0,0,0,0,0,0,0,0,0,0,0,0,0,0,0,0,0,0,0,0,0,0,0,0,0,0,0,107,111,0,0,0,0,0,0,0,0,0,0,
0,0,0,0,0,0,0,0,0,0,0,0,0,0,0,0,0,0,0,0,0,0,0,0,0,0,0,0,141,141,141,265,0,0,0,0,0,0,0,0,0,0,0,0,0,0,0,0,0,0,0,0,0,0,0,0,0,0,0,107,110,306,142,0,0,0,0,0,0,0,0,0,0,
0,0,0,0,0,0,0,0,0,0,0,0,0,0,0,0,0,0,0,0,0,0,0,0,0,0,0,0,0,0,0,109,110,110,110,110,110,108,0,0,0,0,0,0,0,0,0,0,0,0,0,0,0,0,0,0,0,107,110,306,141,142,0,0,0,0,0,0,0,0,0,0,0,
0,0,0,0,0,0,0,0,0,0,0,0,0,0,0,0,0,0,0,0,0,0,0,0,0,0,0,0,0,0,0,140,141,141,141,141,141,265,0,0,0,0,0,0,0,0,0,0,0,0,0,0,0,0,0,0,107,306,141,142,0,0,0,0,0,0,0,0,0,0,0,0,0,
0,0,0,0,0,0,0,0,0,0,0,0,0,0,0,0,0,0,0,0,0,0,0,0,0,0,0,0,0,0,0,0,0,0,0,0,0,109,110,110,110,110,0,0,110,110,110,110,110,110,108,0,0,0,107,110,306,142,0,0,0,0,0,0,0,0,0,0,0,0,0,0,0,
0,0,0,0,0,0,0,0,0,0,0,0,0,0,0,0,0,0,0,0,0,0,0,0,0,0,0,0,0,0,0,0,0,0,0,0,0,140,141,141,141,141,0,0,141,141,141,141,141,141,307,110,110,110,306,141,142,0,0,0,0,0,0,0,0,0,0,0,0,0,0,0,0,
0,0,0,0,0,0,0,0,0,0,0,0,0,0,0,0,0,0,0,0,0,0,0,0,0,0,0,0,0,0,0,0,0,0,0,0,0,0,0,0,0,0,0,0,0,0,0,0,0,0,140,141,141,141,142,0,0,0,0,0,0,0,0,0,0,0,0,0,0,0,0,0,0,
0,0,0,0,0,0,0,0,0,0,0,0,0,0,0,0,0,0,0,0,0,0,0,0,0,0,0,0,0,0,0,0,0,0,0,0,0,0,0,0,0,0,0,0,0,0,0,0,0,0,0,0,0,0,0,0,0,0,0,0,0,0,0,0,0,0,0,0,0,0,0,0,0,
0,0,0,0,0,0,0,0,0,0,0,0,0,0,0,0,0,0,0,0,0,0,0,0,0,0,0,0,0,0,0,0,0,0,0,0,0,0,0,0,0,0,0,0,0,0,0,0,0,0,0,0,0,0,0,0,0,0,0,0,0,0,0,0,0,0,0,0,0,0,0,0,0,
0,0,0,0,0,0,0,0,0,0,0,0,0,0,0,0,0,0,0,0,0,0,0,0,0,0,0,0,0,0,0,0,0,0,0,0,0,0,0,0,0,0,0,0,0,0,0,0,0,0,0,0,0,0,0,0,0,0,0,0,0,0,0,0,0,0,0,0,0,0,0,0,0,
0,0,0,0,0,0,0,0,0,0,0,0,0,0,0,0,0,0,0,0,0,0,0,0,0,0,0,0,0,0,0,0,0,0,0,0,0,0,0,0,0,0,0,0,0,0,0,0,0,0,0,0,0,0,0,0,0,0,0,0,0,0,0,0,0,0,0,0,0,0,0,0,0
</data>
 </layer>
 <layer id="8" name="cliffs" width="73" height="33">
  <properties>
   <property name="collides" type="bool" value="true"/>
  </properties>
  <data encoding="csv">
0,0,0,0,0,0,0,0,0,0,0,0,0,0,0,0,0,0,0,0,0,0,0,0,0,0,0,0,0,0,0,0,0,0,0,0,0,0,0,0,0,0,0,0,0,0,0,0,0,0,0,0,0,0,0,0,0,0,0,0,0,0,0,0,0,0,0,0,0,0,0,0,0,
0,0,0,0,0,0,0,0,0,0,0,0,0,0,0,0,0,0,0,0,0,0,0,0,0,0,0,0,0,0,0,0,0,0,0,0,0,0,0,0,0,0,0,0,0,0,0,0,0,0,0,0,0,0,0,0,0,0,0,0,0,0,0,0,0,0,0,0,0,0,0,0,0,
0,0,0,0,0,0,0,0,0,0,0,0,0,0,0,0,0,0,0,0,0,0,0,0,0,0,0,0,0,0,0,0,0,0,0,0,0,0,0,0,0,0,0,0,0,0,0,0,0,0,0,0,0,0,0,0,0,0,0,0,0,0,0,0,0,0,0,0,0,0,0,0,0,
0,0,0,0,0,0,0,0,0,0,0,0,0,0,0,0,0,0,0,0,0,0,0,0,0,0,0,0,0,0,0,0,0,0,0,0,0,0,0,0,0,0,0,0,0,0,0,0,0,0,0,0,0,0,0,0,0,0,0,0,0,0,0,0,0,0,0,0,0,0,0,0,0,
0,0,0,0,0,0,0,0,0,0,0,0,0,0,0,0,0,0,0,0,0,0,0,0,0,0,0,0,0,0,0,0,0,0,0,0,0,0,0,0,0,0,0,0,0,0,0,0,0,0,0,0,0,0,0,0,0,0,0,0,0,0,0,0,0,0,0,0,0,0,0,0,0,
0,0,0,0,0,0,0,0,0,0,0,0,0,0,0,0,0,0,0,0,0,0,0,0,0,0,0,0,0,0,0,0,0,0,0,0,0,0,0,0,0,0,0,0,0,0,0,0,0,0,0,0,0,0,0,0,0,0,0,0,0,0,0,0,0,0,0,0,0,0,0,0,0,
0,0,0,0,0,0,0,0,0,0,0,0,0,0,0,0,0,0,0,0,0,0,0,0,0,0,0,0,0,0,0,0,0,0,0,0,0,0,0,0,0,0,0,0,0,0,0,0,0,0,0,0,0,0,0,0,0,0,0,0,0,0,0,0,0,0,0,0,0,0,0,0,0,
0,0,0,0,0,0,0,0,0,0,0,0,0,0,0,0,0,0,0,0,0,0,0,0,0,0,0,0,0,0,0,0,0,0,0,0,0,0,0,0,0,0,0,0,0,0,0,0,0,0,0,0,0,0,0,0,0,0,0,0,0,0,0,0,0,0,0,0,0,0,0,0,0,
0,0,0,0,0,0,0,0,0,0,0,0,0,0,0,0,0,0,0,0,0,0,0,0,0,0,0,0,0,0,0,0,0,0,0,0,0,0,0,0,0,0,0,0,0,0,0,0,0,0,0,0,0,0,0,0,0,0,0,0,0,0,0,0,0,0,0,0,0,0,0,0,0,
0,0,0,0,0,0,0,0,0,0,0,0,0,0,0,0,0,0,0,0,0,0,0,0,0,0,0,0,0,0,0,0,0,0,0,0,0,0,0,0,0,0,0,0,0,0,0,0,0,0,0,0,0,0,0,0,0,0,0,0,0,0,0,0,0,0,0,0,0,0,0,0,0,
0,0,0,0,0,0,0,0,0,0,0,0,0,0,0,0,0,0,0,0,0,0,0,0,0,0,0,0,0,0,0,0,0,0,0,0,0,0,0,0,0,0,0,0,0,0,0,0,0,0,0,0,0,0,0,0,0,0,0,0,0,0,0,0,0,0,0,0,0,0,0,0,0,
0,0,0,0,0,0,0,0,0,0,0,0,0,0,0,0,0,0,0,0,0,0,0,0,0,0,0,0,0,0,0,0,0,0,0,0,0,0,0,0,0,0,0,0,0,0,0,0,0,0,0,0,0,0,0,0,0,0,0,0,0,0,0,0,0,0,0,0,0,0,0,0,0,
0,0,0,0,0,0,0,0,0,0,0,0,0,0,0,0,0,0,0,0,0,0,0,0,0,0,0,0,0,0,0,0,0,0,0,0,0,0,0,0,0,0,0,0,0,0,0,0,0,0,0,0,0,0,0,0,0,0,0,0,0,0,0,0,0,0,0,0,0,0,0,0,0,
0,0,0,0,0,0,0,0,0,0,0,0,0,0,0,0,0,0,0,0,0,0,0,0,0,0,0,0,0,0,0,0,0,0,0,0,0,0,0,0,0,0,0,0,0,0,0,0,0,0,0,0,0,0,0,0,0,0,0,0,0,0,0,0,0,0,0,0,0,0,0,0,0,
0,0,0,0,0,0,0,0,0,0,0,0,0,0,0,0,0,0,0,0,0,0,0,0,0,0,0,0,0,0,0,0,0,0,0,0,0,0,0,0,0,0,0,0,0,0,0,0,0,0,0,0,0,0,0,0,0,0,0,0,0,0,0,0,0,0,0,0,0,0,0,0,0,
0,0,0,0,0,0,0,0,0,0,0,0,0,0,0,0,0,0,0,0,0,0,0,0,0,0,0,0,0,0,0,0,0,0,0,0,0,0,0,0,0,0,0,0,0,0,0,0,0,0,0,0,0,0,0,0,0,0,0,0,0,0,0,0,0,0,0,0,0,0,0,0,0,
0,0,0,0,0,0,0,0,0,0,0,0,0,0,0,0,0,0,0,0,0,0,0,0,0,0,0,0,0,0,0,0,0,0,0,0,0,0,0,0,0,0,0,0,0,0,0,0,0,0,0,0,0,0,0,0,0,0,0,0,0,0,0,0,0,0,0,0,0,0,0,0,0,
0,0,0,0,0,0,0,0,0,0,0,0,0,0,0,0,0,0,0,0,0,0,0,0,0,0,0,0,0,0,0,0,0,0,0,0,0,0,0,0,0,0,0,0,0,0,0,0,0,0,0,0,0,0,0,0,0,0,0,0,0,0,0,0,0,0,0,0,0,0,0,0,0,
0,0,0,0,0,0,0,0,0,0,0,0,0,0,0,0,0,0,0,0,0,0,0,0,0,0,0,0,0,0,0,0,0,0,0,0,0,0,0,0,0,0,0,0,0,0,0,0,0,0,0,0,0,0,0,0,0,0,0,0,0,0,0,0,0,0,0,0,0,0,0,0,0,
0,0,0,0,0,0,0,0,0,0,0,0,0,0,0,0,0,0,0,0,0,0,0,0,0,0,0,0,0,0,0,0,0,0,0,0,0,0,0,0,0,0,0,0,0,0,0,0,0,0,0,0,0,0,0,0,0,0,0,0,0,0,0,0,0,0,0,0,0,0,0,0,0,
0,0,0,0,0,0,0,0,0,0,0,0,0,0,0,0,0,0,0,0,0,0,0,0,107,110,110,110,111,0,0,0,0,0,0,0,0,0,0,0,0,0,0,0,0,0,0,0,0,0,0,0,0,0,0,0,0,0,0,0,0,0,0,0,0,0,0,0,0,0,0,0,0,
0,0,0,0,0,0,0,0,0,0,0,0,0,0,0,0,0,0,0,0,0,0,0,107,154,68,68,68,69,0,0,0,0,0,0,0,0,0,0,0,0,0,0,0,0,0,0,0,0,0,0,0,0,0,0,0,0,0,0,0,0,0,0,0,0,0,0,0,0,0,0,0,0,
0,0,0,0,0,0,0,0,0,0,0,0,0,0,0,0,0,0,0,0,0,0,107,154,68,68,68,68,0,0,0,0,0,0,0,0,0,0,0,0,0,0,0,0,0,0,0,0,0,0,0,0,0,0,0,0,0,0,0,0,0,0,0,0,0,0,0,0,0,0,0,0,0,
110,110,110,110,110,110,110,110,110,108,0,0,0,0,0,0,0,0,0,0,107,110,154,68,206,141,141,141,0,0,0,0,0,0,0,0,0,0,0,0,0,0,0,0,0,0,0,0,0,0,0,0,0,0,0,0,0,0,0,0,0,0,0,0,0,0,0,0,0,0,0,0,0,
68,68,68,68,68,68,68,68,68,155,108,0,0,0,0,0,0,0,0,107,154,68,68,206,142,0,0,0,0,0,0,0,0,0,0,0,0,0,0,0,0,0,0,0,0,0,0,0,0,0,0,0,0,0,0,0,0,0,0,0,0,0,0,0,0,0,0,0,0,0,0,0,0,
68,68,68,68,68,68,68,68,68,68,155,108,0,0,0,0,0,107,110,154,68,68,206,142,0,0,0,0,0,0,0,0,0,0,0,0,0,0,0,0,0,0,0,0,0,0,0,0,0,0,0,0,0,0,0,0,0,0,0,0,0,0,0,0,0,0,0,0,0,0,0,0,0,
141,141,141,141,141,141,141,141,207,68,68,155,110,110,110,110,110,154,68,68,206,141,142,0,0,0,0,0,0,0,0,0,0,0,0,0,0,0,0,0,0,0,0,0,0,0,0,0,0,0,0,0,0,0,0,0,0,0,0,0,0,0,0,0,0,0,0,0,0,0,0,0,0,
0,0,0,0,0,0,0,0,140,207,68,68,68,68,68,68,68,68,68,206,142,0,0,0,0,0,0,0,0,0,0,0,0,0,0,0,0,0,0,0,0,0,0,0,0,0,0,0,0,0,0,0,0,0,0,0,0,0,0,0,0,0,0,0,0,0,0,0,0,0,0,0,0,
0,0,0,0,0,0,0,0,0,140,141,207,68,68,68,68,68,206,141,142,0,0,0,0,0,0,0,0,0,0,0,0,0,0,0,0,0,0,0,0,0,0,0,0,0,0,0,0,0,0,0,0,0,0,0,0,0,0,0,0,0,0,0,0,0,0,0,0,0,0,0,0,0,
0,0,0,0,0,0,0,0,0,0,0,140,141,141,141,141,141,142,0,0,0,0,0,0,0,0,0,0,0,0,0,0,0,0,0,0,0,0,0,0,0,0,0,0,0,0,0,0,0,0,0,0,0,0,0,0,0,0,0,0,0,0,0,0,0,0,0,0,0,0,0,0,0,
0,0,0,0,0,0,0,0,0,0,0,0,0,0,0,0,0,0,0,0,0,0,0,0,0,0,0,0,0,0,0,0,0,0,0,0,0,0,0,0,0,0,0,0,0,0,0,0,0,0,0,0,0,0,0,0,0,0,0,0,0,0,0,0,0,0,0,0,0,0,0,0,0,
0,0,0,0,0,0,0,0,0,0,0,0,0,0,0,0,0,0,0,0,0,0,0,0,0,0,0,0,0,0,0,0,0,0,0,0,0,0,0,0,0,0,0,0,0,0,0,0,0,0,0,0,0,0,0,0,0,0,0,0,0,0,0,0,0,0,0,0,0,0,0,0,0,
0,0,0,0,0,0,0,0,0,0,0,0,0,0,0,0,0,0,0,0,0,0,0,0,0,0,0,0,0,0,0,0,0,0,0,0,0,0,0,0,0,0,0,0,0,0,0,0,0,0,0,0,0,0,0,0,0,0,0,0,0,0,0,0,0,0,0,0,0,0,0,0,0
</data>
 </layer>
 <layer id="4" name="stairs" width="73" height="33">
  <data encoding="csv">
0,0,0,0,0,0,0,0,0,0,0,0,0,0,0,0,0,0,0,0,0,0,0,0,0,0,0,0,0,0,0,0,0,0,0,0,0,0,0,0,0,0,0,0,0,0,0,0,0,0,0,0,0,0,0,0,0,0,0,0,0,0,0,0,0,0,0,0,0,0,0,0,0,
0,0,0,0,0,0,0,0,0,0,0,0,0,0,0,0,0,0,0,0,0,0,0,0,0,0,0,0,0,0,0,0,0,0,0,0,0,0,0,0,0,0,0,0,0,0,0,0,0,0,0,0,0,0,0,0,0,0,0,0,0,0,0,0,0,0,0,0,0,0,0,0,0,
0,0,0,0,0,0,0,0,0,0,0,0,0,0,0,0,0,0,0,0,0,0,0,0,0,0,0,0,0,0,0,0,0,0,0,0,0,0,0,0,0,0,0,0,0,0,0,0,0,0,0,0,0,0,0,0,0,0,0,0,0,0,0,0,0,0,0,0,0,0,0,0,0,
0,0,0,0,0,0,0,0,0,0,0,0,0,0,0,0,0,0,0,0,0,0,0,0,0,0,0,0,0,0,0,0,0,0,0,0,0,0,0,0,0,0,0,0,0,0,0,0,0,0,0,0,0,0,0,0,0,0,0,0,0,0,0,0,0,0,0,0,0,0,0,0,0,
0,0,0,0,0,0,0,0,0,0,0,0,0,0,0,0,0,0,0,0,0,0,0,0,0,0,0,0,0,0,0,0,0,0,0,0,0,0,0,0,0,0,0,0,0,0,0,0,0,0,0,0,0,0,0,0,0,0,0,0,0,0,0,0,0,0,0,0,0,0,0,0,0,
0,0,0,0,0,0,1919,1920,0,0,0,0,0,0,0,0,0,0,0,0,0,0,0,0,0,0,0,0,0,0,0,0,0,0,0,0,0,0,0,0,0,0,0,0,0,0,0,0,0,0,0,0,0,0,0,0,0,0,0,0,0,0,0,0,0,0,0,0,0,0,0,0,0,
0,0,0,0,0,0,1951,1952,0,0,0,0,0,0,0,0,0,0,0,0,0,0,0,0,0,0,0,0,0,0,0,0,0,0,0,0,0,0,0,0,0,0,0,0,0,0,0,0,0,0,0,0,0,0,0,0,0,0,0,0,0,0,0,0,0,0,0,0,0,0,0,0,0,
0,0,0,0,0,0,0,0,0,0,0,0,0,0,0,0,0,0,0,0,0,0,0,0,0,0,0,0,0,0,0,0,0,0,0,0,0,0,0,0,0,0,0,0,0,0,0,0,1913,1914,0,0,0,0,0,0,0,0,0,0,0,0,0,0,0,0,0,0,0,0,0,0,0,
0,0,0,0,0,0,0,0,0,0,0,0,0,0,0,0,0,0,0,0,0,0,0,0,0,0,0,0,0,0,0,0,0,0,0,0,0,0,0,0,0,0,0,0,0,0,0,0,1945,1946,0,0,0,0,0,0,0,0,0,0,0,0,0,0,0,0,0,0,0,0,0,0,0,
0,0,0,0,0,0,0,0,0,0,0,0,0,0,0,0,0,0,0,0,0,0,0,0,0,0,0,0,0,0,0,0,0,0,0,0,0,0,0,0,0,0,0,0,0,0,0,0,0,0,0,0,0,0,0,0,0,0,0,0,0,0,0,0,0,0,0,0,0,0,0,0,0,
0,0,0,0,0,0,0,0,0,0,0,0,0,0,0,0,0,0,0,0,0,0,0,0,0,0,0,0,0,0,0,0,0,0,0,0,0,0,0,0,0,0,0,0,0,0,0,0,0,0,0,0,0,0,0,0,0,0,0,0,0,0,0,0,0,0,0,0,0,0,0,0,0,
0,0,0,0,0,0,0,0,0,0,0,0,0,0,0,0,0,0,0,0,0,0,0,0,0,0,0,0,0,0,0,0,0,0,0,0,0,0,0,0,0,0,0,0,0,0,0,0,0,0,0,0,0,0,0,0,0,0,0,0,0,0,0,0,0,0,0,0,0,0,0,0,0,
0,0,0,0,0,0,0,0,0,0,0,0,0,0,0,0,0,0,0,0,0,0,0,0,0,0,0,0,0,0,0,0,0,0,0,0,0,0,0,0,0,0,0,0,0,0,0,0,0,0,0,0,0,0,0,0,0,0,0,0,0,0,0,0,0,0,0,0,0,0,0,0,0,
0,0,0,0,0,0,0,0,0,0,0,0,0,0,0,0,0,0,0,0,0,0,0,0,0,0,0,0,0,0,0,0,0,0,0,0,0,0,0,0,0,0,0,0,0,0,0,0,0,0,0,0,0,0,0,0,0,0,0,0,0,0,0,0,0,0,0,0,0,0,0,0,0,
0,0,0,0,0,0,0,0,0,0,0,0,0,0,0,0,0,0,0,0,0,0,0,0,0,0,0,0,0,0,0,0,0,0,0,0,0,0,0,0,0,0,0,0,0,0,0,0,0,0,0,0,0,0,0,0,0,0,0,0,0,0,0,0,0,0,0,0,0,0,0,0,0,
0,0,0,0,0,0,0,0,0,0,0,0,0,0,0,0,0,0,0,0,0,0,0,0,0,0,0,0,0,0,0,0,0,0,2319,2320,0,0,0,0,0,0,0,0,0,0,0,0,0,0,0,0,0,0,0,0,0,0,0,0,0,0,0,0,0,0,0,0,0,0,0,0,0,
0,0,0,0,0,0,0,0,0,0,0,0,0,0,0,0,0,0,0,0,0,0,0,0,0,0,0,0,0,0,0,0,0,0,2265,2266,0,0,0,0,0,0,0,0,0,0,0,0,0,0,0,0,0,0,0,0,0,0,0,0,0,0,0,0,0,0,0,0,0,0,0,0,0,
0,0,0,0,0,0,0,0,0,0,0,0,0,0,0,0,0,0,0,0,0,0,0,0,0,0,0,0,0,0,0,0,0,0,0,0,0,0,0,0,0,0,0,0,0,0,0,0,0,0,0,0,0,0,0,0,0,0,0,0,0,0,0,0,0,0,0,0,0,0,0,0,0,
0,0,0,0,0,0,0,0,0,0,0,0,0,0,0,0,0,0,0,0,0,0,0,0,0,0,0,0,0,0,0,0,0,0,0,0,0,0,0,0,0,0,0,0,0,0,0,0,0,0,0,0,0,0,0,0,0,0,0,0,0,0,0,0,0,0,0,0,0,0,0,0,0,
0,0,0,0,0,0,0,0,0,0,0,0,0,0,0,0,0,0,0,0,0,0,0,0,0,0,0,0,0,0,0,0,0,0,0,0,0,0,0,0,0,0,0,0,0,0,0,0,0,0,0,0,0,0,0,0,0,0,0,0,0,0,0,0,0,0,0,0,0,0,0,0,0,
0,0,0,0,0,0,0,0,0,0,0,0,0,0,0,0,0,0,0,0,0,0,0,0,0,0,0,0,0,0,0,0,0,0,0,0,0,0,0,0,0,0,0,0,0,0,0,0,0,0,0,0,0,0,0,0,0,0,0,0,0,0,0,0,0,0,0,0,0,0,0,0,0,
0,0,0,0,0,0,0,0,0,0,0,0,0,0,0,0,0,0,0,0,0,0,0,0,0,0,0,0,0,0,0,0,0,0,0,0,0,0,0,0,0,0,0,0,0,0,0,0,0,0,0,0,0,0,0,0,0,0,0,0,0,0,0,0,0,0,0,0,0,0,0,0,0,
0,0,0,0,0,0,0,0,0,0,0,0,0,0,0,0,0,0,0,0,0,0,0,0,0,0,0,0,0,0,0,0,0,0,0,0,0,0,0,0,0,0,0,0,0,0,0,0,0,0,0,0,0,0,0,0,0,0,0,0,0,0,0,0,0,0,0,0,0,0,0,0,0,
0,0,0,0,0,0,0,0,0,0,0,0,0,0,0,0,0,0,0,0,0,0,0,0,0,0,0,0,0,0,0,0,0,0,0,0,0,0,0,0,0,0,0,0,0,0,0,0,0,0,0,0,0,0,0,0,0,0,0,0,0,0,0,0,0,0,0,0,0,0,0,0,0,
0,0,0,0,0,0,0,0,0,0,0,0,0,0,0,0,0,0,0,0,0,0,0,0,0,0,0,0,0,0,0,0,0,0,0,0,0,0,0,0,0,0,0,0,0,0,0,0,0,0,0,0,0,0,0,0,0,0,0,0,0,0,0,0,0,0,0,0,0,0,0,0,0,
0,0,0,0,0,0,0,0,0,0,0,0,0,0,0,0,0,0,0,0,0,0,0,0,0,0,0,0,0,0,0,0,0,0,0,0,0,0,0,0,0,0,0,0,0,0,0,0,0,0,0,0,0,0,0,0,0,0,0,0,0,0,0,0,0,0,0,0,0,0,0,0,0,
0,0,0,0,0,0,0,0,0,0,0,0,0,0,0,0,0,0,0,0,0,0,0,0,0,0,0,0,0,0,0,0,0,0,0,0,0,0,0,0,0,0,2319,2320,0,0,0,0,0,0,0,0,0,0,0,0,0,0,0,0,0,0,0,0,0,0,0,0,0,0,0,0,0,
0,0,0,0,0,0,0,0,0,0,0,0,0,0,0,0,0,0,0,0,0,0,0,0,0,0,0,0,0,0,0,0,0,0,0,0,0,0,0,0,0,0,2277,2278,0,0,0,0,0,0,0,0,0,0,0,0,0,0,0,0,0,0,0,0,0,0,0,0,0,0,0,0,0,
0,0,0,0,0,0,0,0,0,0,0,0,0,0,0,0,0,0,0,0,0,0,0,0,0,0,0,0,0,0,0,0,0,0,0,0,0,0,0,0,0,0,2298,2299,0,0,0,0,0,0,0,0,0,0,0,0,0,0,0,0,0,0,0,0,0,0,0,0,0,0,0,0,0,
0,0,0,0,0,0,0,0,0,0,0,0,0,0,0,0,0,0,0,0,0,0,0,0,0,0,0,0,0,0,0,0,0,0,0,0,0,0,0,0,0,0,0,0,0,0,0,0,0,0,0,0,0,0,0,0,0,0,0,0,0,0,0,0,0,0,0,0,0,0,0,0,0,
0,0,0,0,0,0,0,0,0,0,0,0,0,0,0,0,0,0,0,0,0,0,0,0,0,0,0,0,0,0,0,0,0,0,0,0,0,0,0,0,0,0,0,0,0,0,0,0,0,0,0,0,0,0,0,0,0,0,0,0,0,0,0,0,0,0,0,0,0,0,0,0,0,
0,0,0,0,0,0,0,0,0,0,0,0,0,0,0,0,0,0,0,0,0,0,0,0,0,0,0,0,0,0,0,0,0,0,0,0,0,0,0,0,0,0,0,0,0,0,0,0,0,0,0,0,0,0,0,0,0,0,0,0,0,0,0,0,0,0,0,0,0,0,0,0,0,
0,0,0,0,0,0,0,0,0,0,0,0,0,0,0,0,0,0,0,0,0,0,0,0,0,0,0,0,0,0,0,0,0,0,0,0,0,0,0,0,0,0,0,0,0,0,0,0,0,0,0,0,0,0,0,0,0,0,0,0,0,0,0,0,0,0,0,0,0,0,0,0,0
</data>
 </layer>
 <layer id="9" name="objects" width="73" height="33">
  <data encoding="csv">
0,0,0,0,0,0,0,0,0,0,0,0,0,0,0,0,0,0,0,0,0,0,0,0,0,0,0,0,0,0,0,0,0,0,0,0,0,0,0,0,0,0,0,0,0,0,0,0,0,0,0,0,0,0,0,0,0,0,0,0,0,0,0,0,0,0,0,0,0,0,0,0,0,
0,0,0,0,0,0,0,0,0,0,0,0,0,0,0,0,0,0,0,0,0,0,0,0,0,0,0,0,0,0,0,0,0,0,0,0,0,0,0,0,0,0,0,0,0,0,0,0,0,0,0,0,0,0,0,0,0,0,0,0,0,0,0,0,0,0,0,0,0,0,0,0,0,
0,0,0,0,0,0,0,0,0,0,0,0,0,0,0,0,0,0,0,0,0,0,0,0,0,0,0,0,0,0,0,0,0,0,0,0,0,0,0,0,0,0,0,0,0,0,0,0,0,0,0,0,0,0,0,0,0,0,0,0,0,0,0,0,0,0,0,0,0,0,0,0,0,
0,0,0,0,0,0,0,0,0,0,0,0,0,0,0,0,0,0,0,0,0,0,0,0,0,0,0,0,0,0,0,0,0,0,0,0,0,0,0,0,0,0,0,0,0,0,0,0,0,0,0,0,0,0,0,0,0,0,0,0,0,0,0,0,0,0,0,0,0,0,0,0,0,
0,0,0,0,0,0,0,0,0,0,0,0,0,0,0,0,0,0,0,0,0,0,0,0,0,0,0,0,0,0,0,0,0,0,0,0,0,0,0,0,0,0,0,0,0,0,0,0,0,0,0,0,0,0,0,0,0,0,0,0,0,0,0,0,0,0,0,0,0,0,0,0,0,
0,0,0,0,0,0,0,0,0,0,0,0,0,0,0,0,0,0,0,0,0,0,0,0,0,0,0,0,0,0,0,0,0,0,0,0,0,0,0,0,0,0,0,0,0,0,0,0,0,0,0,0,0,0,0,0,0,0,0,0,0,0,0,0,0,0,0,0,0,0,0,0,0,
0,0,0,0,0,0,0,0,0,0,0,0,0,0,0,0,0,0,0,0,0,0,0,0,0,0,0,0,0,0,0,0,0,0,0,0,0,0,0,0,0,0,0,0,0,0,0,0,0,0,0,0,0,0,0,0,0,0,0,0,0,0,0,0,0,0,0,0,0,0,0,0,0,
0,0,0,0,0,0,0,0,0,0,0,0,0,0,0,0,0,0,0,0,0,0,0,0,0,0,0,0,0,0,0,0,0,0,0,0,0,0,0,0,0,0,0,0,0,0,0,0,0,0,0,0,0,0,0,0,0,0,0,0,0,0,0,0,0,0,0,0,0,0,0,0,0,
0,0,0,0,0,0,0,0,0,0,0,0,0,0,0,0,0,0,0,0,0,0,0,0,0,0,0,0,0,0,0,0,0,0,0,0,0,0,0,0,0,0,0,0,0,0,0,0,0,0,0,0,0,0,0,0,0,0,0,0,0,0,0,0,0,0,0,0,0,0,0,0,0,
0,0,0,0,0,0,0,0,0,0,0,0,0,0,0,0,0,0,0,0,0,0,0,0,0,0,0,0,0,0,0,0,0,0,0,0,0,0,0,0,0,0,0,0,0,0,0,0,0,0,0,0,0,0,0,0,0,0,0,0,0,0,0,0,0,0,0,0,0,2795,2796,2797,2798,
0,0,0,0,0,0,0,0,0,0,0,0,0,0,0,0,0,0,0,0,0,0,0,0,0,0,0,0,0,0,0,0,0,0,0,0,0,0,0,0,0,0,0,0,0,0,0,0,0,0,0,0,0,0,0,0,0,0,0,0,0,0,0,0,0,0,0,0,0,2812,2813,2814,2815,
0,0,0,0,0,0,0,0,0,0,0,0,0,0,0,0,0,0,0,0,0,0,0,0,0,0,0,0,0,0,0,0,0,0,0,0,0,0,0,0,0,0,0,0,0,0,0,0,0,0,0,0,0,0,0,0,0,0,0,0,0,0,0,0,0,0,0,0,0,2829,2830,2831,2832,
0,0,0,0,0,0,0,0,0,0,0,0,0,0,0,0,0,0,0,0,0,0,0,0,0,0,0,0,0,0,0,0,0,0,0,0,0,0,0,0,0,0,0,0,0,0,0,0,0,0,0,0,0,0,0,0,0,0,0,0,0,0,0,0,0,0,0,0,0,2846,2847,2848,2849,
0,0,0,0,0,0,0,0,0,0,0,0,0,0,0,0,0,0,0,0,0,0,0,0,0,0,0,0,0,0,0,0,0,0,0,0,0,0,0,0,0,0,0,0,0,0,0,0,0,0,0,0,0,0,0,0,0,0,0,0,0,0,0,0,0,0,0,0,2941,2942,2943,2944,0,
0,0,0,0,0,0,0,0,0,0,0,0,0,0,0,0,0,0,0,0,0,0,0,0,0,0,0,0,0,0,0,0,0,0,0,0,0,0,0,0,0,0,0,0,0,0,0,0,0,0,0,0,0,0,0,0,0,0,0,0,0,0,0,0,0,0,0,0,2958,2959,2960,2961,0,
0,0,0,0,0,0,0,0,0,0,0,0,0,0,0,0,0,0,0,0,0,0,0,0,0,0,0,0,0,0,0,0,0,0,0,0,0,0,0,0,0,0,0,0,0,0,0,0,0,0,0,0,0,0,0,0,0,0,0,0,0,0,0,0,0,0,0,0,2975,2976,2977,2978,0,
0,0,0,0,0,0,0,0,0,0,0,0,0,0,0,0,0,0,0,0,0,0,0,0,0,0,0,0,0,0,0,0,0,0,0,0,0,0,0,0,0,0,0,0,0,0,0,0,0,0,0,0,0,0,0,0,0,0,0,0,0,0,0,0,0,0,0,0,2992,2993,2994,2995,0,
0,0,0,0,0,0,0,0,0,0,0,0,0,0,0,0,0,0,0,0,0,0,0,0,0,0,0,0,0,0,0,0,0,0,0,0,0,0,0,0,0,0,0,0,0,0,0,0,0,0,0,0,0,0,0,0,0,0,0,0,0,0,0,0,0,0,0,0,3009,3010,3011,3012,0,
0,0,0,0,0,0,0,0,0,0,0,0,0,0,0,0,0,0,0,0,0,0,0,0,0,0,0,0,0,0,0,0,0,0,0,0,0,0,0,0,0,0,0,0,0,0,0,0,0,0,0,0,0,0,0,0,0,0,0,0,0,0,0,0,0,0,0,0,0,0,0,0,0,
0,0,0,0,0,0,0,0,0,0,0,0,0,0,0,0,0,0,0,0,0,0,0,0,0,0,0,0,0,0,0,0,0,0,0,0,0,0,0,0,0,0,0,0,0,0,0,0,0,0,0,0,0,0,0,0,0,0,0,0,0,0,0,0,0,0,0,0,3271,3272,3273,3274,0,
0,0,0,0,0,0,0,0,0,0,0,0,0,0,0,0,0,0,0,0,0,0,0,0,0,0,0,0,0,0,0,0,0,0,0,0,0,0,0,0,0,0,0,0,0,0,0,0,0,0,0,0,0,0,0,0,0,0,0,0,0,0,0,0,3271,3272,3273,3274,3288,3289,3290,3291,0,
0,0,0,0,0,0,0,0,0,0,0,0,0,0,0,0,0,0,0,0,0,0,0,0,0,0,0,0,0,0,0,0,0,0,0,0,0,0,0,0,0,0,0,0,0,0,0,0,0,0,0,0,0,0,0,0,0,0,0,0,0,0,0,0,3288,3289,3290,3291,3305,3306,3307,3308,0,
0,0,0,0,0,0,0,0,0,0,0,0,0,0,0,0,0,0,0,0,0,0,0,0,0,0,0,0,0,0,0,0,0,0,0,0,0,0,0,0,0,0,0,0,0,0,0,0,0,0,0,0,0,0,0,0,0,0,0,0,0,0,0,0,3305,3306,3307,3308,3322,3323,3324,3325,0,
0,0,0,0,0,0,0,0,0,0,0,0,0,0,0,0,0,0,0,0,0,0,0,0,0,0,0,0,0,0,0,0,0,0,0,0,0,0,0,0,0,0,0,0,0,0,0,0,0,0,0,0,0,0,0,0,0,0,0,0,0,0,0,0,3322,3323,3324,3325,3339,3340,3341,3342,0,
0,0,0,0,0,0,0,0,0,0,0,0,0,0,0,0,0,0,0,0,0,0,0,0,0,2941,2942,2943,2944,0,0,0,0,0,0,0,0,0,0,0,0,0,0,0,0,0,0,0,0,0,0,0,0,0,0,0,0,0,0,0,0,0,0,0,3339,3340,3341,3342,0,0,0,0,0,
0,0,0,0,0,0,0,0,0,0,0,0,0,0,0,0,0,0,0,0,0,0,0,0,0,2958,2959,2960,2961,0,0,0,0,0,0,0,0,0,0,0,0,0,0,0,0,0,0,0,0,0,0,0,0,0,0,0,0,0,0,0,0,0,0,0,0,0,0,3271,3272,3273,3274,0,0,
0,0,0,0,0,0,0,0,0,0,0,0,0,0,0,0,0,0,0,0,0,0,0,0,0,2975,2976,2977,2978,0,0,0,0,0,0,0,0,0,0,0,0,0,0,0,0,0,0,0,0,0,0,0,0,0,0,0,0,0,0,0,0,0,0,2795,2796,2797,2798,3288,3289,3290,3291,0,0,
3271,3272,3273,3274,3271,3272,3273,3274,0,0,0,0,0,0,0,0,0,0,0,0,0,0,0,0,0,2992,2993,2994,2995,0,0,0,0,0,0,0,0,0,0,0,0,0,0,0,0,0,0,0,0,0,0,0,0,0,0,0,0,0,0,3271,3272,3273,3274,2812,2813,2814,2815,3305,3306,3307,3308,0,0,
3288,3289,3290,3291,3288,3289,3290,3291,0,0,0,0,0,0,0,0,0,0,0,0,0,0,0,0,0,3009,3010,3011,3012,0,0,0,0,0,0,0,0,0,0,0,0,0,0,0,0,0,0,0,0,0,0,0,0,0,0,0,0,0,0,3288,3289,3290,3291,2829,2830,2831,2832,3322,3323,3324,3325,0,0,
3305,3306,3307,3308,3305,3306,3307,3308,0,0,0,0,0,0,0,0,0,0,0,0,0,0,0,0,0,2795,2796,2797,2798,0,0,0,0,0,0,0,0,0,0,0,0,0,0,0,0,0,0,0,2795,2796,2797,2798,0,2795,2796,2797,2798,0,0,3305,3306,3307,3308,2846,2847,2848,2849,3339,3340,3341,3342,0,0,
3322,3323,3324,3325,3322,3323,3324,3325,0,0,0,0,0,0,0,0,0,0,0,0,0,0,0,0,0,2812,2813,2814,2815,0,0,0,0,0,0,0,0,0,0,0,0,0,0,0,0,0,0,0,2812,2813,2814,2815,0,2812,2813,2814,2815,0,0,3322,3323,3324,3325,0,0,0,0,0,0,0,0,0,0,
3339,3340,3341,3342,3339,3340,3341,3342,0,0,0,0,0,0,0,0,0,0,0,0,0,0,0,0,0,2829,2830,2831,2832,0,0,0,0,0,0,0,0,0,0,0,0,0,0,0,0,0,0,0,2829,2830,2831,2832,0,2829,2830,2831,2832,0,0,3339,3340,3341,3342,0,0,0,0,0,0,0,0,0,0,
0,0,0,0,0,0,0,0,0,0,0,0,0,0,0,0,0,0,0,0,0,0,0,0,0,2846,2847,2848,2849,0,0,0,0,0,0,0,0,0,0,0,0,0,0,0,0,0,0,0,2846,2847,2848,2849,0,2846,2847,2848,2849,0,0,0,0,0,0,0,0,0,0,0,0,0,0,0,0
</data>
 </layer>
 <objectgroup id="7" name="objects">
  <object id="1" name="Bloodgeist1" x="368" y="464" width="1" height="1"/>
  <object id="3" name="Bloodgeist1" x="816" y="192" width="1" height="1"/>
  <object id="4" name="Hexgeist" x="128" y="32" width="1" height="1"/>
  <object id="5" name="House1_Exit" x="560" y="504" width="1" height="1"/>
  <object id="6" name="Tree5" x="976" y="472" width="1" height="1"/>
  <object id="7" name="Tree1" x="1120" y="248" width="1" height="1"/>
  <object id="8" name="Tree5" x="1120" y="344" width="1" height="1"/>
  <object id="9" name="Tree2" x="1040" y="448" width="1" height="1"/>
  <object id="10" name="Tree5" x="1104" y="440" width="1" height="1"/>
  <object id="11" name="Tree5" x="1056" y="360" width="1" height="1"/>
  <object id="12" name="Tree2" x="1136" y="176" width="1" height="1"/>
  <object id="13" name="Tree2" x="880" y="496" width="1" height="1"/>
  <object id="14" name="Tree2" x="800" y="496" width="1" height="1"/>
  <object id="15" name="Tree1" x="432" y="424" width="1" height="1"/>
  <object id="16" name="Tree5" x="32" y="472" width="1" height="1"/>
  <object id="17" name="Tree5" x="96" y="472" width="1" height="1"/>
  <object id="18" name="Tree2" x="432" y="496" width="1" height="1"/>
 </objectgroup>
</map>
