<?xml version="1.0" encoding="UTF-8"?>
<map version="1.10" tiledversion="1.11.2" orientation="orthogonal" renderorder="right-down" width="49" height="29" tilewidth="16" tileheight="16" infinite="0" nextlayerid="17" nextobjectid="78">
 <editorsettings>
  <export target="temple-setpieces.json" format="json"/>
 </editorsettings>
 <tileset firstgid="1" name="temple_walls_floor" tilewidth="16" tileheight="16" tilecount="442" columns="17">
  <image source="../client/public/assets/sprites/temple_walls_floor.png" width="272" height="416"/>
  <tile id="18">
   <properties>
    <property name="position" value="top_left"/>
    <property name="rendersAbove" type="bool" value="true"/>
    <property name="role" value="wall_outer"/>
    <property name="skinOf" type="int" value="18"/>
   </properties>
   <objectgroup draworder="index" id="2">
    <object id="1" x="8" y="16" width="7.99806" height="8"/>
   </objectgroup>
  </tile>
  <tile id="19">
   <properties>
    <property name="position" value="top"/>
    <property name="rendersAbove" type="bool" value="true"/>
    <property name="role" value="wall_outer"/>
    <property name="skinOf" type="int" value="19"/>
   </properties>
   <objectgroup draworder="index" id="2">
    <object id="1" x="0" y="16" width="16" height="8"/>
   </objectgroup>
  </tile>
  <tile id="20">
   <properties>
    <property name="position" value="top_right"/>
    <property name="rendersAbove" type="bool" value="true"/>
    <property name="role" value="wall_outer"/>
    <property name="skinOf" type="int" value="20"/>
   </properties>
   <objectgroup draworder="index" id="2">
    <object id="1" x="0" y="16" width="7.99806" height="8"/>
   </objectgroup>
  </tile>
  <tile id="22">
   <properties>
    <property name="skinOf" type="int" value="22"/>
   </properties>
  </tile>
  <tile id="23">
   <properties>
    <property name="skinOf" type="int" value="23"/>
   </properties>
  </tile>
  <tile id="24">
   <properties>
    <property name="skinOf" type="int" value="24"/>
   </properties>
  </tile>
  <tile id="26">
   <properties>
    <property name="skinOf" type="int" value="26"/>
   </properties>
  </tile>
  <tile id="27">
   <properties>
    <property name="skinOf" type="int" value="27"/>
   </properties>
  </tile>
  <tile id="28">
   <properties>
    <property name="skinOf" type="int" value="28"/>
   </properties>
  </tile>
  <tile id="29">
   <properties>
    <property name="skinOf" type="int" value="29"/>
   </properties>
  </tile>
  <tile id="30">
   <properties>
    <property name="skinOf" type="int" value="30"/>
   </properties>
   <objectgroup draworder="index" id="2">
    <object id="1" x="0" y="0" width="16" height="16"/>
   </objectgroup>
  </tile>
  <tile id="31">
   <properties>
    <property name="skinOf" type="int" value="31"/>
   </properties>
   <objectgroup draworder="index" id="2">
    <object id="1" x="0" y="0" width="16" height="16"/>
   </objectgroup>
  </tile>
  <tile id="32">
   <properties>
    <property name="skinOf" type="int" value="32"/>
   </properties>
  </tile>
  <tile id="35">
   <properties>
    <property name="position" value="right"/>
    <property name="role" value="wall_outer"/>
    <property name="skinOf" type="int" value="35"/>
   </properties>
   <objectgroup draworder="index" id="2">
    <object id="1" x="-2" y="0" width="10" height="16"/>
   </objectgroup>
  </tile>
  <tile id="36">
   <properties>
    <property name="rendersAbove" type="bool" value="true"/>
    <property name="role" value="fill"/>
    <property name="skinOf" type="int" value="36"/>
    <property name="terrain" value="void"/>
   </properties>
  </tile>
  <tile id="37">
   <properties>
    <property name="position" value="left"/>
    <property name="role" value="wall_outer"/>
    <property name="skinOf" type="int" value="37"/>
   </properties>
   <objectgroup draworder="index" id="2">
    <object id="1" x="8" y="0" width="10" height="16"/>
   </objectgroup>
  </tile>
  <tile id="39">
   <properties>
    <property name="skinOf" type="int" value="39"/>
   </properties>
   <objectgroup draworder="index" id="2">
    <object id="1" x="8" y="0" width="10" height="16"/>
   </objectgroup>
  </tile>
  <tile id="40">
   <properties>
    <property name="skinOf" type="int" value="40"/>
   </properties>
   <objectgroup draworder="index" id="2">
    <object id="1" x="0" y="0" width="16" height="16"/>
   </objectgroup>
  </tile>
  <tile id="41">
   <properties>
    <property name="skinOf" type="int" value="41"/>
   </properties>
   <objectgroup draworder="index" id="2">
    <object id="1" x="-2" y="0" width="10" height="16"/>
   </objectgroup>
  </tile>
  <tile id="43">
   <properties>
    <property name="skinOf" type="int" value="43"/>
   </properties>
  </tile>
  <tile id="44">
   <properties>
    <property name="skinOf" type="int" value="44"/>
   </properties>
   <objectgroup draworder="index" id="2">
    <object id="1" x="0" y="0" width="16" height="16"/>
   </objectgroup>
  </tile>
  <tile id="45">
   <properties>
    <property name="skinOf" type="int" value="45"/>
   </properties>
  </tile>
  <tile id="46">
   <properties>
    <property name="skinOf" type="int" value="46"/>
   </properties>
  </tile>
  <tile id="47">
   <properties>
    <property name="skinOf" type="int" value="47"/>
   </properties>
  </tile>
  <tile id="48">
   <properties>
    <property name="skinOf" type="int" value="48"/>
   </properties>
  </tile>
  <tile id="49">
   <properties>
    <property name="skinOf" type="int" value="49"/>
   </properties>
  </tile>
  <tile id="52">
   <properties>
    <property name="skinOf" type="int" value="52"/>
   </properties>
   <objectgroup draworder="index" id="2">
    <object id="1" x="-2" y="0" width="10" height="16"/>
   </objectgroup>
  </tile>
  <tile id="53">
   <properties>
    <property name="skinOf" type="int" value="53"/>
   </properties>
  </tile>
  <tile id="54">
   <properties>
    <property name="skinOf" type="int" value="54"/>
   </properties>
   <objectgroup draworder="index" id="2">
    <object id="1" x="8" y="0" width="10" height="16"/>
   </objectgroup>
  </tile>
  <tile id="56">
   <properties>
    <property name="position" value="top_left"/>
    <property name="role" value="wall_inner"/>
    <property name="skinOf" type="int" value="56"/>
   </properties>
   <objectgroup draworder="index" id="2">
    <object id="1" x="8" y="0" width="10" height="16"/>
   </objectgroup>
  </tile>
  <tile id="57">
   <properties>
    <property name="skinOf" type="int" value="57"/>
   </properties>
  </tile>
  <tile id="58">
   <properties>
    <property name="position" value="top_right"/>
    <property name="role" value="wall_inner"/>
    <property name="skinOf" type="int" value="58"/>
   </properties>
   <objectgroup draworder="index" id="2">
    <object id="1" x="-2" y="0" width="10" height="16"/>
   </objectgroup>
  </tile>
  <tile id="60">
   <properties>
    <property name="skinOf" type="int" value="60"/>
   </properties>
   <objectgroup draworder="index" id="2">
    <object id="1" x="0" y="0" width="16" height="16"/>
   </objectgroup>
  </tile>
  <tile id="61">
   <properties>
    <property name="skinOf" type="int" value="61"/>
   </properties>
  </tile>
  <tile id="62">
   <properties>
    <property name="skinOf" type="int" value="62"/>
   </properties>
   <objectgroup draworder="index" id="2">
    <object id="1" x="0" y="0" width="16" height="16"/>
   </objectgroup>
  </tile>
  <tile id="63">
   <properties>
    <property name="skinOf" type="int" value="63"/>
   </properties>
   <objectgroup draworder="index" id="2">
    <object id="1" x="0" y="0" width="16" height="16"/>
   </objectgroup>
  </tile>
  <tile id="64">
   <properties>
    <property name="skinOf" type="int" value="64"/>
   </properties>
  </tile>
  <tile id="65">
   <properties>
    <property name="skinOf" type="int" value="65"/>
   </properties>
  </tile>
  <tile id="66">
   <properties>
    <property name="skinOf" type="int" value="66"/>
   </properties>
   <objectgroup draworder="index" id="2">
    <object id="1" x="0" y="0" width="16" height="16"/>
   </objectgroup>
  </tile>
  <tile id="69">
   <properties>
    <property name="skinOf" type="int" value="69"/>
   </properties>
   <objectgroup draworder="index" id="2">
    <object id="1" x="-2" y="0" width="10" height="16"/>
   </objectgroup>
  </tile>
  <tile id="70">
   <properties>
    <property name="skinOf" type="int" value="70"/>
   </properties>
   <objectgroup draworder="index" id="2">
    <object id="1" x="0" y="0" width="16" height="16"/>
   </objectgroup>
  </tile>
  <tile id="71">
   <properties>
    <property name="skinOf" type="int" value="71"/>
   </properties>
   <objectgroup draworder="index" id="2">
    <object id="1" x="8" y="0" width="10" height="16"/>
   </objectgroup>
  </tile>
  <tile id="73">
   <properties>
    <property name="position" value="bottom_left"/>
    <property name="rendersAbove" type="bool" value="true"/>
    <property name="role" value="wall_inner"/>
    <property name="skinOf" type="int" value="73"/>
   </properties>
   <objectgroup draworder="index" id="2">
    <object id="1" x="8" y="0" width="10" height="16"/>
   </objectgroup>
  </tile>
  <tile id="74">
   <properties>
    <property name="skinOf" type="int" value="74"/>
   </properties>
   <objectgroup draworder="index" id="2">
    <object id="1" x="0" y="16" width="16" height="8"/>
   </objectgroup>
  </tile>
  <tile id="75">
   <properties>
    <property name="position" value="bottom_right"/>
    <property name="rendersAbove" type="bool" value="true"/>
    <property name="role" value="wall_inner"/>
    <property name="skinOf" type="int" value="75"/>
   </properties>
   <objectgroup draworder="index" id="2">
    <object id="1" x="-2" y="0" width="10" height="16"/>
   </objectgroup>
  </tile>
  <tile id="77">
   <properties>
    <property name="skinOf" type="int" value="77"/>
   </properties>
  </tile>
  <tile id="78">
   <properties>
    <property name="skinOf" type="int" value="78"/>
   </properties>
  </tile>
  <tile id="79">
   <properties>
    <property name="skinOf" type="int" value="79"/>
   </properties>
  </tile>
  <tile id="80">
   <properties>
    <property name="skinOf" type="int" value="80"/>
   </properties>
  </tile>
  <tile id="83">
   <properties>
    <property name="skinOf" type="int" value="83"/>
   </properties>
  </tile>
  <tile id="86">
   <properties>
    <property name="position" value="bottom_left"/>
    <property name="role" value="wall_outer"/>
    <property name="skinOf" type="int" value="86"/>
   </properties>
  </tile>
  <tile id="87">
   <properties>
    <property name="position" value="bottom"/>
    <property name="role" value="wall_outer"/>
    <property name="skinOf" type="int" value="87"/>
   </properties>
  </tile>
  <tile id="88">
   <properties>
    <property name="position" value="bottom_right"/>
    <property name="role" value="wall_outer"/>
    <property name="skinOf" type="int" value="88"/>
   </properties>
  </tile>
  <tile id="90">
   <properties>
    <property name="skinOf" type="int" value="90"/>
   </properties>
  </tile>
  <tile id="91">
   <properties>
    <property name="skinOf" type="int" value="91"/>
   </properties>
  </tile>
  <tile id="120">
   <properties>
    <property name="height" type="int" value="1"/>
    <property name="position" value="top_left"/>
    <property name="role" value="border_outer"/>
    <property name="skinOf" type="int" value="120"/>
    <property name="terrain" value="floor"/>
   </properties>
   <objectgroup draworder="index" id="2">
    <object id="1" x="8" y="-8" width="8" height="8">
     <properties>
      <property name="rendersAbove" type="bool" value="false"/>
     </properties>
    </object>
    <object id="2" x="-2" y="8" width="18" height="8">
     <properties>
      <property name="rendersAbove" type="bool" value="true"/>
     </properties>
    </object>
    <object id="3" x="-2" y="-8" width="10" height="24">
     <properties>
      <property name="rendersAbove" type="bool" value="false"/>
     </properties>
    </object>
   </objectgroup>
  </tile>
  <tile id="121">
   <properties>
    <property name="height" type="int" value="1"/>
    <property name="position" value="top"/>
    <property name="role" value="border_outer"/>
    <property name="skinOf" type="int" value="121"/>
    <property name="terrain" value="floor"/>
   </properties>
   <objectgroup draworder="index" id="2">
    <object id="1" x="0" y="8" width="16" height="8">
     <properties>
      <property name="rendersAbove" type="bool" value="true"/>
     </properties>
    </object>
    <object id="2" x="0" y="-8" width="16" height="8">
     <properties>
      <property name="rendersAbove" type="bool" value="false"/>
     </properties>
    </object>
   </objectgroup>
  </tile>
  <tile id="122">
   <properties>
    <property name="height" type="int" value="1"/>
    <property name="position" value="top_right"/>
    <property name="role" value="border_outer"/>
    <property name="skinOf" type="int" value="122"/>
    <property name="terrain" value="floor"/>
   </properties>
   <objectgroup draworder="index" id="2">
    <object id="1" x="0" y="8" width="18" height="8">
     <properties>
      <property name="rendersAbove" type="bool" value="true"/>
     </properties>
    </object>
    <object id="2" x="-0.00471287" y="-8" width="8" height="8">
     <properties>
      <property name="rendersAbove" type="bool" value="false"/>
     </properties>
    </object>
    <object id="3" x="8" y="-8" width="10" height="24">
     <properties>
      <property name="rendersAbove" type="bool" value="false"/>
     </properties>
    </object>
   </objectgroup>
  </tile>
  <tile id="124">
   <properties>
    <property name="height" type="int" value="2"/>
    <property name="position" value="top_left"/>
    <property name="role" value="border_inner"/>
    <property name="skinOf" type="int" value="124"/>
    <property name="terrain" value="floor"/>
   </properties>
   <objectgroup draworder="index" id="2">
    <object id="1" x="8" y="4.5" width="10" height="11.5"/>
   </objectgroup>
  </tile>
  <tile id="125">
   <properties>
    <property name="height" type="int" value="2"/>
    <property name="position" value="top"/>
    <property name="role" value="border_inner"/>
    <property name="skinOf" type="int" value="125"/>
    <property name="terrain" value="floor"/>
   </properties>
   <objectgroup draworder="index" id="2">
    <object id="1" x="0.00194254" y="4.5" width="16" height="11.5"/>
   </objectgroup>
  </tile>
  <tile id="126">
   <properties>
    <property name="height" type="int" value="2"/>
    <property name="position" value="top_right"/>
    <property name="role" value="border_inner"/>
    <property name="skinOf" type="int" value="126"/>
    <property name="terrain" value="floor"/>
   </properties>
   <objectgroup draworder="index" id="2">
    <object id="1" x="-2" y="4.5" width="10" height="11.5"/>
   </objectgroup>
  </tile>
  <tile id="137">
   <properties>
    <property name="height" type="int" value="1"/>
    <property name="position" value="left"/>
    <property name="role" value="border_outer"/>
    <property name="skinOf" type="int" value="137"/>
    <property name="terrain" value="floor"/>
   </properties>
   <objectgroup draworder="index" id="2">
    <object id="1" x="-2" y="0" width="10" height="16"/>
   </objectgroup>
  </tile>
  <tile id="138">
   <properties>
    <property name="role" value="fill"/>
    <property name="skinOf" type="int" value="138"/>
    <property name="terrain" value="floor"/>
   </properties>
  </tile>
  <tile id="139">
   <properties>
    <property name="height" type="int" value="1"/>
    <property name="position" value="right"/>
    <property name="role" value="border_outer"/>
    <property name="skinOf" type="int" value="139"/>
    <property name="terrain" value="floor"/>
   </properties>
   <objectgroup draworder="index" id="2">
    <object id="1" x="8" y="0" width="10" height="16"/>
   </objectgroup>
  </tile>
  <tile id="141">
   <properties>
    <property name="height" type="int" value="1"/>
    <property name="position" value="left"/>
    <property name="role" value="border_inner"/>
    <property name="skinOf" type="int" value="141"/>
    <property name="terrain" value="floor"/>
   </properties>
   <objectgroup draworder="index" id="2">
    <object id="1" x="8" y="0" width="10" height="16"/>
   </objectgroup>
  </tile>
  <tile id="142">
   <properties>
    <property name="position" value="bottom"/>
    <property name="role" value="border_inner"/>
    <property name="skinOf" type="int" value="142"/>
    <property name="terrain" value="floor"/>
   </properties>
  </tile>
  <tile id="143">
   <properties>
    <property name="height" type="int" value="1"/>
    <property name="position" value="right"/>
    <property name="role" value="border_inner"/>
    <property name="skinOf" type="int" value="143"/>
    <property name="terrain" value="floor"/>
   </properties>
   <objectgroup draworder="index" id="2">
    <object id="1" x="-2" y="0" width="10" height="16"/>
   </objectgroup>
  </tile>
  <tile id="154">
   <properties>
    <property name="height" type="int" value="2"/>
    <property name="position" value="bottom_left"/>
    <property name="role" value="border_outer"/>
    <property name="skinOf" type="int" value="154"/>
    <property name="terrain" value="floor"/>
   </properties>
   <objectgroup draworder="index" id="2">
    <object id="1" x="-2" y="0" width="10" height="16"/>
    <object id="2" x="8" y="4.5" width="8" height="11.5"/>
   </objectgroup>
  </tile>
  <tile id="155">
   <properties>
    <property name="height" type="int" value="2"/>
    <property name="position" value="bottom"/>
    <property name="role" value="border_outer"/>
    <property name="skinOf" type="int" value="155"/>
    <property name="terrain" value="floor"/>
   </properties>
   <objectgroup draworder="index" id="2">
    <object id="1" x="0" y="4.5" width="16" height="11.5"/>
   </objectgroup>
  </tile>
  <tile id="156">
   <properties>
    <property name="height" type="int" value="2"/>
    <property name="position" value="bottom_right"/>
    <property name="role" value="border_outer"/>
    <property name="skinOf" type="int" value="156"/>
    <property name="terrain" value="floor"/>
   </properties>
   <objectgroup draworder="index" id="2">
    <object id="1" x="0" y="4.5" width="8" height="11.5"/>
    <object id="2" x="8" y="0" width="10" height="16"/>
   </objectgroup>
  </tile>
  <tile id="158">
   <properties>
    <property name="height" type="int" value="1"/>
    <property name="position" value="bottom_left"/>
    <property name="role" value="border_inner"/>
    <property name="skinOf" type="int" value="158"/>
    <property name="terrain" value="floor"/>
   </properties>
   <objectgroup draworder="index" id="2">
    <object id="1" x="8" y="-0.00194254" width="10" height="16.0019">
     <properties>
      <property name="rendersAbove" type="bool" value="true"/>
     </properties>
    </object>
   </objectgroup>
  </tile>
  <tile id="159">
   <properties>
    <property name="height" type="int" value="1"/>
    <property name="position" value="bottom"/>
    <property name="role" value="border_inner"/>
    <property name="skinOf" type="int" value="159"/>
    <property name="terrain" value="floor"/>
   </properties>
   <objectgroup draworder="index" id="2">
    <object id="1" x="0" y="8" width="16" height="8">
     <properties>
      <property name="rendersAbove" type="bool" value="true"/>
     </properties>
    </object>
    <object id="2" x="0" y="-8" width="16" height="8">
     <properties>
      <property name="rendersAbove" type="bool" value="false"/>
     </properties>
    </object>
   </objectgroup>
  </tile>
  <tile id="160">
   <properties>
    <property name="height" type="int" value="1"/>
    <property name="position" value="bottom_right"/>
    <property name="role" value="border_inner"/>
    <property name="skinOf" type="int" value="160"/>
    <property name="terrain" value="floor"/>
   </properties>
   <objectgroup draworder="index" id="2">
    <object id="1" x="-2" y="0" width="10" height="16">
     <properties>
      <property name="rendersAbove" type="bool" value="true"/>
     </properties>
    </object>
   </objectgroup>
  </tile>
  <tile id="171">
   <properties>
    <property name="skinOf" type="int" value="171"/>
   </properties>
  </tile>
  <tile id="172">
   <properties>
    <property name="skinOf" type="int" value="172"/>
   </properties>
  </tile>
  <tile id="173">
   <properties>
    <property name="skinOf" type="int" value="173"/>
   </properties>
  </tile>
  <tile id="175">
   <properties>
    <property name="skinOf" type="int" value="175"/>
   </properties>
  </tile>
  <tile id="176">
   <properties>
    <property name="skinOf" type="int" value="176"/>
   </properties>
  </tile>
  <tile id="177">
   <properties>
    <property name="skinOf" type="int" value="177"/>
   </properties>
  </tile>
  <tile id="205">
   <properties>
    <property name="skinOf" type="int" value="256"/>
   </properties>
  </tile>
  <tile id="206">
   <properties>
    <property name="skinOf" type="int" value="257"/>
   </properties>
   <objectgroup draworder="index" id="2">
    <object id="1" x="0" y="11" width="16" height="5"/>
   </objectgroup>
  </tile>
  <tile id="207">
   <properties>
    <property name="skinOf" type="int" value="258"/>
   </properties>
  </tile>
  <tile id="209">
   <properties>
    <property name="skinOf" type="int" value="260"/>
   </properties>
  </tile>
  <tile id="210">
   <properties>
    <property name="skinOf" type="int" value="261"/>
   </properties>
  </tile>
  <tile id="222">
   <properties>
    <property name="skinOf" type="int" value="273"/>
   </properties>
   <objectgroup draworder="index" id="2">
    <object id="1" x="0" y="0" width="16" height="8">
     <properties>
      <property name="rendersAbove" type="bool" value="true"/>
     </properties>
    </object>
    <object id="2" x="0.00480288" y="8" width="16" height="8">
     <properties>
      <property name="rendersAbove" type="bool" value="false"/>
     </properties>
    </object>
   </objectgroup>
  </tile>
  <tile id="223">
   <properties>
    <property name="skinOf" type="int" value="274"/>
   </properties>
   <objectgroup draworder="index" id="2">
    <object id="1" x="0" y="0" width="16" height="16"/>
   </objectgroup>
  </tile>
  <tile id="224">
   <properties>
    <property name="skinOf" type="int" value="275"/>
   </properties>
   <objectgroup draworder="index" id="2">
    <object id="1" x="0" y="0" width="16" height="8">
     <properties>
      <property name="rendersAbove" type="bool" value="true"/>
     </properties>
    </object>
    <object id="2" x="0.00480288" y="8" width="16" height="8">
     <properties>
      <property name="rendersAbove" type="bool" value="false"/>
     </properties>
    </object>
   </objectgroup>
  </tile>
  <tile id="226">
   <properties>
    <property name="skinOf" type="int" value="277"/>
   </properties>
  </tile>
  <tile id="227">
   <properties>
    <property name="skinOf" type="int" value="278"/>
   </properties>
  </tile>
  <tile id="229">
   <properties>
    <property name="skinOf" type="int" value="280"/>
   </properties>
  </tile>
  <tile id="231">
   <properties>
    <property name="skinOf" type="int" value="282"/>
   </properties>
  </tile>
  <tile id="232">
   <properties>
    <property name="skinOf" type="int" value="283"/>
   </properties>
   <objectgroup draworder="index" id="2">
    <object id="1" x="0" y="0" width="16" height="24"/>
   </objectgroup>
  </tile>
  <tile id="233">
   <properties>
    <property name="skinOf" type="int" value="284"/>
   </properties>
  </tile>
  <tile id="239">
   <properties>
    <property name="skinOf" type="int" value="290"/>
   </properties>
   <objectgroup draworder="index" id="2">
    <object id="1" x="0" y="0" width="16" height="16"/>
   </objectgroup>
  </tile>
  <tile id="240">
   <properties>
    <property name="skinOf" type="int" value="291"/>
   </properties>
   <objectgroup draworder="index" id="2">
    <object id="1" x="0" y="0" width="16" height="16"/>
   </objectgroup>
  </tile>
  <tile id="241">
   <properties>
    <property name="skinOf" type="int" value="292"/>
   </properties>
   <objectgroup draworder="index" id="2">
    <object id="1" x="0" y="0" width="16" height="16"/>
   </objectgroup>
  </tile>
  <tile id="243">
   <properties>
    <property name="skinOf" type="int" value="294"/>
   </properties>
  </tile>
  <tile id="244">
   <properties>
    <property name="skinOf" type="int" value="295"/>
   </properties>
  </tile>
  <tile id="246">
   <properties>
    <property name="skinOf" type="int" value="297"/>
   </properties>
   <objectgroup draworder="index" id="2">
    <object id="1" x="0" y="0" width="16" height="16"/>
   </objectgroup>
  </tile>
  <tile id="248">
   <properties>
    <property name="skinOf" type="int" value="299"/>
   </properties>
   <objectgroup draworder="index" id="2">
    <object id="1" x="-2" y="0" width="10" height="16"/>
   </objectgroup>
  </tile>
  <tile id="249">
   <properties>
    <property name="skinOf" type="int" value="300"/>
   </properties>
  </tile>
  <tile id="250">
   <properties>
    <property name="skinOf" type="int" value="301"/>
   </properties>
   <objectgroup draworder="index" id="2">
    <object id="1" x="8" y="0" width="10" height="16"/>
   </objectgroup>
  </tile>
  <tile id="252">
   <properties>
    <property name="skinOf" type="int" value="303"/>
   </properties>
  </tile>
  <tile id="253">
   <properties>
    <property name="skinOf" type="int" value="304"/>
   </properties>
  </tile>
  <tile id="255">
   <properties>
    <property name="skinOf" type="int" value="306"/>
   </properties>
  </tile>
  <tile id="256">
   <properties>
    <property name="skinOf" type="int" value="307"/>
   </properties>
  </tile>
  <tile id="257">
   <properties>
    <property name="skinOf" type="int" value="308"/>
   </properties>
   <objectgroup draworder="index" id="2">
    <object id="1" x="0" y="0" width="16" height="16"/>
   </objectgroup>
  </tile>
  <tile id="258">
   <properties>
    <property name="skinOf" type="int" value="309"/>
   </properties>
  </tile>
  <tile id="259">
   <properties>
    <property name="skinOf" type="int" value="310"/>
   </properties>
  </tile>
  <tile id="260">
   <properties>
    <property name="skinOf" type="int" value="311"/>
   </properties>
   <objectgroup draworder="index" id="2">
    <object id="1" x="0" y="0" width="16" height="16"/>
   </objectgroup>
  </tile>
  <tile id="261">
   <properties>
    <property name="skinOf" type="int" value="312"/>
   </properties>
   <objectgroup draworder="index" id="2">
    <object id="1" x="0" y="0" width="16" height="16"/>
   </objectgroup>
  </tile>
  <tile id="263">
   <properties>
    <property name="skinOf" type="int" value="314"/>
   </properties>
   <objectgroup draworder="index" id="2">
    <object id="1" x="0" y="0" width="16" height="16"/>
   </objectgroup>
  </tile>
  <tile id="265">
   <properties>
    <property name="skinOf" type="int" value="316"/>
   </properties>
   <objectgroup draworder="index" id="2">
    <object id="1" x="0" y="0" width="16" height="16"/>
   </objectgroup>
  </tile>
  <tile id="266">
   <properties>
    <property name="skinOf" type="int" value="317"/>
   </properties>
   <objectgroup draworder="index" id="2">
    <object id="1" x="0" y="0" width="16" height="16"/>
   </objectgroup>
  </tile>
  <tile id="267">
   <properties>
    <property name="skinOf" type="int" value="318"/>
   </properties>
   <objectgroup draworder="index" id="2">
    <object id="1" x="0" y="0" width="16" height="16"/>
   </objectgroup>
  </tile>
  <tile id="269">
   <properties>
    <property name="skinOf" type="int" value="320"/>
   </properties>
  </tile>
  <tile id="270">
   <properties>
    <property name="skinOf" type="int" value="321"/>
   </properties>
  </tile>
  <tile id="272">
   <properties>
    <property name="skinOf" type="int" value="323"/>
   </properties>
   <objectgroup draworder="index" id="2">
    <object id="1" x="12" y="0" width="4" height="16"/>
   </objectgroup>
  </tile>
  <tile id="273">
   <properties>
    <property name="skinOf" type="int" value="324"/>
   </properties>
   <objectgroup draworder="index" id="2">
    <object id="1" x="0" y="0" width="16" height="16"/>
   </objectgroup>
  </tile>
  <tile id="274">
   <properties>
    <property name="skinOf" type="int" value="325"/>
   </properties>
   <objectgroup draworder="index" id="2">
    <object id="1" x="0" y="0" width="16" height="8">
     <properties>
      <property name="rendersAbove" type="bool" value="true"/>
     </properties>
    </object>
    <object id="2" x="0.00480288" y="8" width="16" height="8">
     <properties>
      <property name="rendersAbove" type="bool" value="false"/>
     </properties>
    </object>
   </objectgroup>
  </tile>
  <tile id="275">
   <properties>
    <property name="skinOf" type="int" value="326"/>
   </properties>
   <objectgroup draworder="index" id="2">
    <object id="1" x="0" y="0" width="16" height="8">
     <properties>
      <property name="rendersAbove" type="bool" value="true"/>
     </properties>
    </object>
    <object id="2" x="0.00480288" y="8" width="16" height="8">
     <properties>
      <property name="rendersAbove" type="bool" value="false"/>
     </properties>
    </object>
   </objectgroup>
  </tile>
  <tile id="276">
   <properties>
    <property name="skinOf" type="int" value="327"/>
   </properties>
   <objectgroup draworder="index" id="2">
    <object id="1" x="0" y="0" width="5" height="16"/>
   </objectgroup>
  </tile>
  <tile id="277">
   <properties>
    <property name="skinOf" type="int" value="328"/>
   </properties>
   <objectgroup draworder="index" id="2">
    <object id="1" x="0" y="0" width="16" height="8">
     <properties>
      <property name="rendersAbove" type="bool" value="true"/>
     </properties>
    </object>
    <object id="2" x="0.00480288" y="8" width="16" height="8">
     <properties>
      <property name="rendersAbove" type="bool" value="false"/>
     </properties>
    </object>
   </objectgroup>
  </tile>
  <tile id="278">
   <properties>
    <property name="skinOf" type="int" value="329"/>
   </properties>
   <objectgroup draworder="index" id="2">
    <object id="1" x="0" y="0" width="16" height="8">
     <properties>
      <property name="rendersAbove" type="bool" value="true"/>
     </properties>
    </object>
    <object id="2" x="0.00480288" y="8" width="16" height="8">
     <properties>
      <property name="rendersAbove" type="bool" value="false"/>
     </properties>
    </object>
   </objectgroup>
  </tile>
  <tile id="280">
   <properties>
    <property name="skinOf" type="int" value="331"/>
   </properties>
  </tile>
  <tile id="282">
   <properties>
    <property name="skinOf" type="int" value="333"/>
   </properties>
  </tile>
  <tile id="283">
   <properties>
    <property name="skinOf" type="int" value="334"/>
   </properties>
   <objectgroup draworder="index" id="2">
    <object id="1" x="0" y="0" width="16" height="16"/>
   </objectgroup>
  </tile>
  <tile id="284">
   <properties>
    <property name="skinOf" type="int" value="335"/>
   </properties>
  </tile>
  <tile id="286">
   <properties>
    <property name="skinOf" type="int" value="337"/>
   </properties>
  </tile>
  <tile id="287">
   <properties>
    <property name="skinOf" type="int" value="338"/>
   </properties>
  </tile>
  <tile id="289">
   <properties>
    <property name="skinOf" type="int" value="340"/>
   </properties>
  </tile>
  <tile id="290">
   <properties>
    <property name="skinOf" type="int" value="341"/>
   </properties>
  </tile>
  <tile id="291">
   <properties>
    <property name="skinOf" type="int" value="342"/>
   </properties>
   <objectgroup draworder="index" id="2">
    <object id="1" x="0" y="0" width="16" height="16"/>
   </objectgroup>
  </tile>
  <tile id="292">
   <properties>
    <property name="skinOf" type="int" value="343"/>
   </properties>
  </tile>
  <tile id="293">
   <properties>
    <property name="skinOf" type="int" value="344"/>
   </properties>
  </tile>
  <tile id="294">
   <properties>
    <property name="skinOf" type="int" value="345"/>
   </properties>
  </tile>
  <tile id="295">
   <properties>
    <property name="skinOf" type="int" value="346"/>
   </properties>
  </tile>
  <tile id="307">
   <properties>
    <property name="skinOf" type="int" value="358"/>
   </properties>
  </tile>
  <tile id="308">
   <properties>
    <property name="skinOf" type="int" value="359"/>
   </properties>
   <objectgroup draworder="index" id="2">
    <object id="1" x="0" y="0" width="16" height="16"/>
   </objectgroup>
  </tile>
  <tile id="309">
   <properties>
    <property name="skinOf" type="int" value="360"/>
   </properties>
  </tile>
  <tile id="311">
   <properties>
    <property name="skinOf" type="int" value="362"/>
   </properties>
  </tile>
  <tile id="312">
   <properties>
    <property name="skinOf" type="int" value="363"/>
   </properties>
  </tile>
  <tile id="314">
   <properties>
    <property name="skinOf" type="int" value="365"/>
   </properties>
  </tile>
  <tile id="315">
   <properties>
    <property name="skinOf" type="int" value="366"/>
   </properties>
  </tile>
  <tile id="317">
   <properties>
    <property name="skinOf" type="int" value="368"/>
   </properties>
   <objectgroup draworder="index" id="2">
    <object id="1" x="-2" y="0" width="10" height="16"/>
   </objectgroup>
  </tile>
  <tile id="318">
   <properties>
    <property name="skinOf" type="int" value="369"/>
   </properties>
   <objectgroup draworder="index" id="2">
    <object id="1" x="8" y="0" width="10" height="16"/>
   </objectgroup>
  </tile>
  <tile id="320">
   <properties>
    <property name="skinOf" type="int" value="371"/>
   </properties>
  </tile>
  <tile id="321">
   <properties>
    <property name="skinOf" type="int" value="372"/>
   </properties>
  </tile>
  <tile id="324">
   <properties>
    <property name="skinOf" type="int" value="375"/>
   </properties>
  </tile>
  <tile id="325">
   <properties>
    <property name="skinOf" type="int" value="376"/>
   </properties>
   <objectgroup draworder="index" id="2">
    <object id="1" x="0" y="0" width="16" height="16"/>
   </objectgroup>
  </tile>
  <tile id="326">
   <properties>
    <property name="skinOf" type="int" value="377"/>
   </properties>
  </tile>
  <tile id="328">
   <properties>
    <property name="skinOf" type="int" value="379"/>
   </properties>
  </tile>
  <tile id="329">
   <properties>
    <property name="skinOf" type="int" value="380"/>
   </properties>
  </tile>
  <tile id="331">
   <properties>
    <property name="skinOf" type="int" value="382"/>
   </properties>
  </tile>
  <tile id="332">
   <properties>
    <property name="skinOf" type="int" value="383"/>
   </properties>
  </tile>
  <tile id="334">
   <properties>
    <property name="skinOf" type="int" value="385"/>
   </properties>
   <objectgroup draworder="index" id="2">
    <object id="1" x="0" y="0" width="16" height="16"/>
   </objectgroup>
  </tile>
  <tile id="335">
   <properties>
    <property name="skinOf" type="int" value="386"/>
   </properties>
   <objectgroup draworder="index" id="2">
    <object id="1" x="0" y="0" width="16" height="16"/>
   </objectgroup>
  </tile>
  <tile id="337">
   <properties>
    <property name="skinOf" type="int" value="388"/>
   </properties>
   <objectgroup draworder="index" id="2">
    <object id="1" x="0" y="0" width="16" height="8">
     <properties>
      <property name="rendersAbove" type="bool" value="true"/>
     </properties>
    </object>
    <object id="2" x="0" y="8" width="16" height="8">
     <properties>
      <property name="rendersAbove" type="bool" value="false"/>
     </properties>
    </object>
   </objectgroup>
  </tile>
  <tile id="338">
   <properties>
    <property name="skinOf" type="int" value="389"/>
   </properties>
   <objectgroup draworder="index" id="2">
    <object id="1" x="0" y="8" width="16" height="8">
     <properties>
      <property name="rendersAbove" type="bool" value="false"/>
     </properties>
    </object>
    <object id="2" x="0.00166309" y="0" width="16" height="8">
     <properties>
      <property name="rendersAbove" type="bool" value="true"/>
     </properties>
    </object>
   </objectgroup>
  </tile>
  <tile id="341">
   <properties>
    <property name="skinOf" type="int" value="392"/>
   </properties>
  </tile>
  <tile id="342">
   <properties>
    <property name="skinOf" type="int" value="393"/>
   </properties>
   <objectgroup draworder="index" id="2">
    <object id="1" x="0" y="0" width="16" height="4"/>
   </objectgroup>
  </tile>
  <tile id="343">
   <properties>
    <property name="skinOf" type="int" value="394"/>
   </properties>
  </tile>
  <tile id="345">
   <properties>
    <property name="skinOf" type="int" value="396"/>
   </properties>
  </tile>
  <tile id="346">
   <properties>
    <property name="skinOf" type="int" value="397"/>
   </properties>
  </tile>
  <tile id="348">
   <properties>
    <property name="skinOf" type="int" value="399"/>
   </properties>
  </tile>
  <tile id="349">
   <properties>
    <property name="skinOf" type="int" value="400"/>
   </properties>
  </tile>
  <tile id="351">
   <properties>
    <property name="skinOf" type="int" value="402"/>
   </properties>
   <objectgroup draworder="index" id="2">
    <object id="1" x="-2" y="0" width="10" height="16"/>
   </objectgroup>
  </tile>
  <tile id="352">
   <properties>
    <property name="skinOf" type="int" value="403"/>
   </properties>
   <objectgroup draworder="index" id="2">
    <object id="1" x="8" y="0" width="10" height="16"/>
   </objectgroup>
  </tile>
  <tile id="354">
   <properties>
    <property name="skinOf" type="int" value="405"/>
   </properties>
   <objectgroup draworder="index" id="2">
    <object id="1" x="-2" y="0" width="10" height="16"/>
   </objectgroup>
  </tile>
  <tile id="355">
   <properties>
    <property name="skinOf" type="int" value="406"/>
   </properties>
   <objectgroup draworder="index" id="2">
    <object id="1" x="8" y="0" width="10" height="16"/>
   </objectgroup>
  </tile>
 </tileset>
 <tileset firstgid="443" name="temple_stairs" tilewidth="16" tileheight="16" tilecount="323" columns="17">
  <image source="../client/public/assets/sprites/temple_stairs.png" width="272" height="304"/>
  <tile id="24">
   <objectgroup draworder="index" id="2">
    <object id="1" x="8.5" y="4.5" width="7.5" height="11.5"/>
   </objectgroup>
  </tile>
  <tile id="26">
   <objectgroup draworder="index" id="2">
    <object id="1" x="0.00220751" y="4.5" width="7.5" height="11.5"/>
   </objectgroup>
  </tile>
 </tileset>
 <tileset firstgid="766" name="temple_arches_doors" tilewidth="16" tileheight="16" tilecount="280" columns="20">
  <image source="../client/public/assets/sprites/temple_arches_doors.png" width="320" height="224"/>
  <tile id="27">
   <properties>
    <property name="skinOf" type="int" value="431"/>
   </properties>
  </tile>
  <tile id="28">
   <properties>
    <property name="skinOf" type="int" value="432"/>
   </properties>
  </tile>
  <tile id="34">
   <properties>
    <property name="skinOf" type="int" value="444"/>
   </properties>
  </tile>
  <tile id="35">
   <properties>
    <property name="skinOf" type="int" value="445"/>
   </properties>
  </tile>
  <tile id="47">
   <properties>
    <property name="skinOf" type="int" value="448"/>
   </properties>
   <objectgroup draworder="index" id="2">
    <object id="1" x="0.00125842" y="0" width="7" height="8">
     <properties>
      <property name="rendersAbove" type="bool" value="true"/>
     </properties>
    </object>
    <object id="2" x="0.00125842" y="8" width="7" height="8">
     <properties>
      <property name="rendersAbove" type="bool" value="false"/>
     </properties>
    </object>
   </objectgroup>
  </tile>
  <tile id="48">
   <properties>
    <property name="skinOf" type="int" value="449"/>
   </properties>
   <objectgroup draworder="index" id="2">
    <object id="1" x="9" y="0" width="7" height="8">
     <properties>
      <property name="rendersAbove" type="bool" value="true"/>
     </properties>
    </object>
    <object id="2" x="9" y="8" width="7" height="8">
     <properties>
      <property name="rendersAbove" type="bool" value="false"/>
     </properties>
    </object>
   </objectgroup>
  </tile>
  <tile id="54">
   <properties>
    <property name="skinOf" type="int" value="461"/>
   </properties>
  </tile>
  <tile id="55">
   <properties>
    <property name="skinOf" type="int" value="462"/>
   </properties>
  </tile>
  <tile id="67">
   <properties>
    <property name="skinOf" type="int" value="465"/>
   </properties>
  </tile>
  <tile id="68">
   <properties>
    <property name="skinOf" type="int" value="466"/>
   </properties>
  </tile>
  <tile id="129">
   <objectgroup draworder="index" id="2">
    <object id="1" x="0" y="0" width="16" height="16"/>
   </objectgroup>
  </tile>
  <tile id="130">
   <objectgroup draworder="index" id="2">
    <object id="1" x="0" y="0" width="16" height="16"/>
   </objectgroup>
  </tile>
  <tile id="131">
   <objectgroup draworder="index" id="2">
    <object id="1" x="0" y="0" width="16" height="16"/>
   </objectgroup>
  </tile>
  <tile id="176">
   <objectgroup draworder="index" id="2">
    <object id="1" x="0" y="6" width="16" height="10"/>
   </objectgroup>
  </tile>
  <tile id="177">
   <objectgroup draworder="index" id="2">
    <object id="1" x="0" y="6" width="16" height="10"/>
   </objectgroup>
  </tile>
  <tile id="178">
   <objectgroup draworder="index" id="2">
    <object id="1" x="0" y="6" width="16" height="10"/>
   </objectgroup>
  </tile>
  <tile id="196">
   <objectgroup draworder="index" id="2">
    <object id="1" x="0" y="0" width="16" height="16"/>
   </objectgroup>
  </tile>
  <tile id="197">
   <objectgroup draworder="index" id="2">
    <object id="1" x="0" y="0" width="16" height="16"/>
   </objectgroup>
  </tile>
  <tile id="198">
   <objectgroup draworder="index" id="2">
    <object id="1" x="0" y="0" width="16" height="16"/>
   </objectgroup>
  </tile>
 </tileset>
 <tileset firstgid="1046" name="temple_doors" tilewidth="16" tileheight="16" tilecount="144" columns="8">
  <image source="../client/public/assets/sprites/temple_doors.png" width="128" height="288"/>
 </tileset>
 <tileset firstgid="1190" name="dungeon_doors_lever" tilewidth="16" tileheight="16" tilecount="150" columns="10">
  <image source="../client/public/assets/sprites/dungeon_doors_lever.png" width="160" height="240"/>
 </tileset>
 <tileset firstgid="1340" name="torch" tilewidth="16" tileheight="16" tilecount="162" columns="9">
  <image source="../client/public/assets/sprites/torch.png" width="144" height="288"/>
 </tileset>
 <tileset firstgid="1502" name="dungeon_objects1" tilewidth="16" tileheight="16" tilecount="216" columns="24">
  <image source="../client/public/assets/sprites/dungeon_objects1.png" width="384" height="144"/>
 </tileset>
 <tileset firstgid="1718" name="candles" tilewidth="16" tileheight="16" tilecount="72" columns="6">
  <image source="../client/public/assets/sprites/candles.png" width="96" height="192"/>
 </tileset>
 <tileset firstgid="1790" name="temple_objects" tilewidth="16" tileheight="16" tilecount="288" columns="12">
  <image source="../client/public/assets/sprites/temple_objects.png" width="192" height="384"/>
 </tileset>
 <tileset firstgid="2078" name="temple_coffins" tilewidth="16" tileheight="16" tilecount="300" columns="30">
  <image source="../client/public/assets/sprites/temple_coffins.png" width="480" height="160"/>
 </tileset>
 <layer id="1" name="floor" width="49" height="29">
  <properties>
   <property name="surface" value="stone"/>
  </properties>
  <data encoding="csv">
0,0,0,0,0,0,0,0,0,0,0,0,0,0,0,0,0,0,0,0,0,0,0,0,0,0,0,0,0,0,0,0,0,0,0,0,0,0,0,0,0,0,0,0,0,0,0,0,0,
0,0,0,0,0,0,0,0,0,0,0,0,0,0,0,0,0,0,0,0,0,0,0,0,0,0,0,0,0,0,0,0,0,0,0,0,0,0,0,0,0,0,0,0,0,0,0,0,0,
0,0,0,0,0,0,0,0,0,0,0,0,0,0,0,0,0,0,0,0,0,0,0,0,0,0,0,0,0,0,0,0,0,0,0,0,0,0,0,0,0,0,0,0,0,0,0,0,0,
0,37,37,37,37,37,37,37,37,37,37,37,37,37,37,37,37,37,37,37,37,37,37,37,37,37,37,37,37,37,37,37,37,37,37,37,37,37,37,37,37,37,37,37,37,37,37,0,0,
0,37,37,37,37,37,37,37,37,37,37,37,37,37,37,37,37,37,37,37,37,37,37,37,37,37,37,37,37,37,37,37,37,37,37,37,37,37,37,37,37,37,37,37,37,37,37,0,0,
0,0,0,0,0,0,0,0,139,139,139,139,139,139,139,139,139,139,139,139,139,139,139,139,139,139,139,139,139,139,139,139,139,139,139,139,139,139,139,139,139,0,0,0,0,0,0,0,0,
0,0,0,0,0,0,0,0,139,139,139,139,139,139,139,139,139,139,139,139,139,139,139,139,139,139,139,139,139,139,139,139,139,139,139,139,139,139,139,139,139,0,0,0,0,0,0,0,0,
0,0,0,0,0,0,0,0,139,139,139,139,139,139,139,139,139,139,139,139,139,139,139,139,139,139,139,139,139,139,139,139,139,139,139,139,139,139,139,139,139,0,0,0,0,0,0,0,0,
0,139,139,139,139,139,139,139,139,139,139,139,139,139,139,139,139,139,139,139,139,139,139,139,139,139,139,139,139,139,139,139,139,139,139,139,139,139,139,139,139,139,139,139,139,139,139,0,0,
0,0,139,139,139,139,139,139,139,139,139,139,139,139,139,139,139,139,139,139,139,139,139,139,139,139,139,139,139,139,139,139,139,139,139,139,139,139,139,139,139,139,139,139,139,139,139,0,0,
0,0,139,139,139,139,139,139,139,139,139,139,139,139,139,139,139,139,139,139,139,139,139,139,139,139,139,139,139,139,139,139,139,139,139,139,139,139,139,139,139,139,139,139,139,139,139,0,0,
0,0,139,139,139,139,139,139,139,139,139,139,139,139,139,139,139,139,139,139,139,139,139,139,139,139,139,139,139,139,139,139,139,139,139,139,139,139,139,139,139,139,139,139,139,139,139,0,0,
0,0,139,139,139,139,139,139,139,139,139,139,139,139,139,139,139,139,139,139,139,139,139,139,139,139,139,139,139,139,139,139,139,139,139,139,139,139,139,139,139,139,139,139,139,139,139,0,0,
0,0,139,139,139,139,139,139,139,139,139,139,139,139,139,139,139,139,139,139,139,139,139,139,139,139,139,139,139,139,139,139,139,139,139,139,139,139,139,139,139,139,139,139,139,139,139,0,0,
0,0,139,139,139,139,139,139,139,139,139,139,139,139,139,139,139,139,139,139,139,139,139,139,139,139,139,139,139,139,139,139,139,139,139,139,139,139,139,139,139,139,139,139,139,139,139,0,0,
0,0,139,139,139,139,139,139,139,139,139,139,139,139,139,139,139,139,139,139,139,139,139,139,139,139,139,139,139,139,139,139,139,139,139,139,139,139,139,139,139,139,139,139,139,139,139,0,0,
0,0,139,139,139,139,139,139,139,139,139,139,139,139,139,139,139,139,139,139,139,139,139,139,139,139,139,139,139,139,139,139,139,139,139,139,139,139,139,139,139,139,139,139,139,139,139,0,0,
0,0,139,139,139,139,139,139,139,139,139,139,139,139,139,139,139,139,139,139,139,139,139,139,139,139,139,139,139,139,139,139,139,139,139,139,139,139,139,139,139,139,139,139,139,139,139,0,0,
0,0,139,139,139,139,139,139,139,139,139,139,139,139,139,139,139,139,139,139,139,139,139,139,139,139,139,139,139,139,139,139,139,139,139,139,139,139,139,139,139,139,139,139,139,139,139,0,0,
0,0,139,139,139,139,139,139,139,139,139,139,139,139,139,139,139,139,139,139,139,139,139,139,139,139,139,139,139,139,139,139,139,139,139,139,139,139,139,139,139,139,139,139,139,139,139,0,0,
0,0,139,139,139,139,139,139,139,139,139,139,139,139,139,139,139,139,139,139,139,139,139,139,139,139,139,139,139,139,139,139,139,139,139,139,139,139,139,139,139,139,139,139,139,139,139,0,0,
0,0,139,139,139,139,139,139,139,139,139,139,139,139,139,139,139,139,139,139,139,139,139,139,139,139,139,139,139,139,139,139,139,139,139,139,139,139,139,139,139,139,139,139,139,139,139,0,0,
0,0,139,139,139,139,139,139,139,139,139,139,139,139,139,139,139,139,139,139,139,139,139,139,139,139,139,139,139,139,139,139,139,139,139,139,139,139,139,139,139,139,139,139,139,139,139,0,0,
0,0,139,139,139,139,139,139,139,139,139,139,139,139,139,139,139,139,139,139,139,139,139,139,139,139,139,139,139,139,139,139,139,139,139,139,139,139,139,139,139,139,139,139,139,139,139,0,0,
0,0,139,139,139,139,139,139,139,139,139,139,139,139,139,139,139,139,139,139,139,139,139,139,139,139,139,139,139,139,139,139,139,139,139,139,139,139,139,139,139,139,139,139,139,139,139,0,0,
0,0,139,139,139,139,139,139,139,139,139,139,139,139,139,139,139,139,139,139,139,139,139,139,139,139,139,139,139,139,139,139,139,139,139,139,139,139,139,139,139,139,139,139,139,139,139,0,0,
0,0,139,139,139,139,139,139,139,139,139,139,139,139,139,139,139,139,139,139,139,139,139,139,139,139,139,139,139,139,139,139,139,139,139,139,139,139,139,139,139,139,139,139,139,139,139,0,0,
0,0,139,139,139,139,139,139,139,139,139,139,139,139,139,139,139,139,139,139,139,139,139,139,139,139,139,139,139,139,139,139,139,139,139,139,139,139,139,139,139,139,139,139,139,139,139,0,0,
0,0,139,139,139,139,139,139,139,139,139,139,139,139,139,139,139,139,139,139,139,139,139,139,139,139,139,139,139,139,139,139,139,139,139,139,139,139,139,139,139,139,139,139,139,139,139,0,0
</data>
 </layer>
 <layer id="2" name="overlay" width="49" height="29">
  <properties>
   <property name="shadows" type="bool" value="true"/>
  </properties>
  <data encoding="csv">
0,0,0,0,0,0,0,0,0,0,0,0,0,0,0,0,0,0,0,0,0,0,0,0,0,0,0,0,0,0,0,0,0,0,0,0,0,0,0,0,0,0,0,0,0,0,0,0,0,
0,0,0,0,0,0,0,0,0,0,0,0,0,0,0,0,0,0,0,0,0,0,0,0,0,0,0,0,0,0,0,0,0,0,0,0,0,0,0,0,0,0,0,0,0,0,0,0,0,
0,0,0,0,0,0,0,0,0,0,0,0,0,0,0,0,0,0,0,0,0,0,0,0,0,0,0,0,0,0,0,0,0,0,0,0,0,0,0,0,0,0,0,0,0,0,0,0,0,
0,0,0,0,0,0,0,0,0,0,0,0,0,0,0,0,0,0,0,0,0,0,0,0,0,0,0,0,0,0,0,0,0,0,0,0,0,0,0,0,0,0,0,0,0,0,0,0,0,
0,0,0,0,0,0,0,0,0,0,0,0,0,0,0,0,0,0,0,0,0,0,0,0,0,0,0,0,0,0,0,0,0,0,0,0,0,0,0,0,0,0,0,0,0,0,0,0,0,
0,0,0,0,0,0,0,0,0,0,0,0,0,0,0,0,0,0,0,0,0,0,0,0,0,0,0,0,0,0,0,0,0,0,0,0,0,0,0,0,0,0,0,0,0,0,0,0,0,
0,0,0,0,0,0,0,405,0,0,0,0,0,0,0,0,0,0,0,0,0,0,0,0,0,0,0,0,0,0,0,0,0,0,0,0,0,0,0,0,0,0,0,0,0,0,0,0,0,
0,0,0,0,0,0,0,0,0,0,0,0,0,0,0,0,0,0,0,0,0,0,0,0,403,0,0,405,0,0,0,0,0,0,0,0,0,0,0,0,0,0,0,0,0,0,0,0,0,
0,0,0,0,0,0,0,0,0,0,0,419,0,0,0,0,419,0,0,0,0,0,405,0,0,0,0,0,0,0,0,0,0,0,0,0,0,0,0,0,0,0,0,0,0,0,0,0,0,
0,0,0,0,0,0,0,0,0,0,0,0,0,0,0,0,0,0,0,0,0,0,0,0,0,0,0,0,0,0,0,0,0,0,0,0,0,0,0,0,0,0,0,0,0,0,0,0,0,
0,0,0,0,0,0,0,0,0,0,0,0,0,0,0,0,0,0,0,0,0,0,0,0,421,0,0,0,0,0,0,0,0,0,0,0,0,0,0,0,0,0,0,0,0,0,0,0,0,
0,0,0,0,0,0,0,0,0,0,0,0,405,0,0,0,0,0,0,0,0,0,0,0,0,0,0,0,423,0,0,0,0,0,0,0,0,0,0,0,0,0,0,0,0,0,0,0,0,
0,0,0,0,0,0,0,0,0,0,0,0,0,0,0,0,0,0,0,0,0,0,0,0,0,0,0,0,0,0,0,0,0,0,0,0,0,0,0,0,0,0,0,0,0,0,0,0,0,
0,0,0,0,0,0,0,0,423,0,0,0,0,0,0,0,0,0,0,0,0,0,0,402,0,420,0,0,0,0,0,0,0,0,0,0,0,0,405,0,0,0,0,0,0,0,0,0,0,
0,0,0,0,0,0,0,0,0,0,0,0,423,0,0,0,0,0,0,0,0,0,0,0,0,0,0,0,0,0,0,0,0,0,423,0,0,0,0,0,0,0,0,0,0,0,0,0,0,
0,0,0,0,0,0,0,0,420,0,0,0,0,0,0,0,0,0,0,0,0,0,0,0,0,0,0,0,0,0,0,0,0,0,0,0,0,0,0,0,0,0,0,0,0,0,0,0,0,
0,0,0,0,0,0,0,0,0,0,0,0,0,0,0,0,0,0,0,0,0,0,0,0,402,0,0,0,0,0,404,0,0,0,0,0,0,0,0,0,0,0,0,0,0,0,0,0,0,
0,0,0,0,0,0,403,0,0,0,403,0,0,0,0,0,0,0,0,404,0,0,0,0,0,0,0,0,0,0,0,0,0,0,403,0,0,0,0,0,0,0,0,419,0,0,0,0,0,
0,0,0,0,402,0,0,0,0,0,0,0,0,0,0,0,0,0,0,0,0,0,0,0,0,0,0,0,0,0,0,0,0,0,0,0,0,0,0,0,0,0,0,0,0,0,0,0,0,
0,0,0,0,0,0,0,0,0,0,0,0,0,0,0,0,0,0,0,0,0,0,0,0,0,0,0,0,0,0,0,0,0,0,0,0,0,0,0,0,0,0,0,0,0,0,0,0,0,
0,0,0,0,0,0,0,0,0,0,0,0,0,0,420,0,421,0,0,0,0,0,0,0,0,0,0,404,0,0,421,0,0,0,0,0,0,0,0,0,0,0,0,0,0,0,0,0,0,
0,0,0,0,0,0,0,0,0,0,0,0,0,0,0,0,0,0,0,0,0,0,0,0,0,0,0,0,0,0,0,0,0,0,0,0,0,0,0,0,0,0,0,0,0,0,0,0,0,
0,0,0,0,0,0,0,0,0,0,0,0,0,0,0,0,0,0,0,0,0,0,0,0,0,0,422,0,0,0,0,0,0,0,0,0,0,420,0,0,0,0,0,0,0,0,0,0,0,
0,0,0,0,0,0,0,0,0,0,420,0,0,0,0,422,0,402,0,0,0,0,0,0,0,0,0,0,0,0,0,0,0,0,0,0,0,0,0,0,0,0,0,0,0,0,0,0,0,
0,0,0,420,0,0,0,0,0,0,0,0,0,0,0,0,0,0,0,0,0,0,0,0,0,0,0,0,0,0,404,0,0,0,0,0,0,0,0,0,0,0,0,0,0,0,0,0,0,
0,0,0,0,0,0,0,0,0,0,0,0,0,0,0,0,0,0,0,0,0,0,0,0,0,0,0,0,0,0,0,0,0,0,0,0,403,0,0,404,0,421,0,0,0,0,0,0,0,
0,0,0,0,0,0,0,0,0,0,0,0,0,0,421,0,0,0,0,0,0,0,0,0,0,0,0,0,0,0,0,0,0,0,0,0,0,0,0,0,0,0,0,0,0,0,0,0,0,
0,0,0,0,0,0,0,0,0,0,0,0,0,0,0,0,0,0,0,0,0,0,0,0,0,0,0,402,0,0,403,0,0,0,0,0,0,0,0,0,0,0,0,0,0,0,0,0,0,
0,0,0,0,0,0,0,0,0,0,0,0,0,0,0,0,0,0,0,0,0,0,0,0,0,0,0,0,0,0,0,0,0,0,0,0,0,0,404,0,402,0,0,0,403,0,0,0,0
</data>
 </layer>
 <layer id="15" name="stone" width="49" height="29">
  <data encoding="csv">
0,0,0,0,0,0,0,0,0,0,0,0,0,0,0,0,0,0,0,0,0,0,0,0,0,0,0,0,0,0,0,0,0,0,0,0,0,0,0,0,0,0,0,0,0,0,0,0,0,
0,0,0,0,0,0,0,0,0,0,0,0,0,0,0,0,0,0,0,0,0,0,0,0,0,0,0,0,0,0,0,0,0,0,0,0,0,0,0,0,0,0,0,0,0,0,0,0,0,
0,0,0,0,0,0,0,0,0,0,0,0,0,0,0,0,0,0,0,0,0,0,0,0,0,0,0,0,0,0,0,0,0,0,0,0,0,0,0,0,0,0,0,0,0,0,0,0,0,
0,0,0,0,0,0,0,0,0,0,0,0,0,0,0,0,0,0,0,0,0,0,0,0,0,0,0,0,0,0,0,0,0,0,0,0,0,0,0,0,0,0,0,0,0,0,0,0,0,
0,0,0,0,0,0,0,0,0,0,0,0,0,0,0,0,0,0,0,0,0,0,0,0,0,0,0,0,0,0,0,0,0,0,0,0,0,0,0,0,0,0,0,0,0,0,0,0,0,
0,0,0,0,0,0,0,0,0,0,0,0,0,0,0,0,0,0,0,0,0,0,394,394,394,394,394,0,0,0,0,0,0,0,0,0,0,0,0,0,0,0,0,0,0,0,0,0,0,
0,0,0,0,0,0,0,0,0,0,0,0,0,0,0,0,0,0,0,0,394,394,394,379,411,380,394,394,394,0,0,0,0,0,0,0,0,0,0,0,0,0,0,0,0,0,0,0,0,
0,0,0,0,0,0,0,0,0,394,394,394,394,394,394,394,394,394,394,394,394,379,411,412,0,410,411,380,394,394,394,394,394,394,394,394,394,394,394,394,0,0,0,0,0,0,0,0,0,
0,0,0,0,0,0,0,0,0,411,411,411,411,411,411,411,411,411,411,411,411,412,0,0,0,0,0,410,411,411,411,411,411,411,411,411,411,411,411,411,0,0,0,0,0,0,0,0,0,
0,0,0,0,0,0,0,0,0,0,0,0,0,0,0,0,0,0,0,0,0,0,0,0,0,0,0,0,0,0,0,0,0,0,0,0,0,0,0,0,0,0,0,0,0,0,0,0,0,
0,0,0,0,0,0,0,0,0,0,0,0,0,0,0,0,0,0,0,0,0,0,0,0,0,0,0,0,0,0,0,0,0,0,0,0,0,0,0,0,0,0,0,0,0,0,0,0,0,
0,0,0,0,0,0,0,0,0,0,0,0,0,0,0,0,0,0,0,0,0,0,0,0,0,0,0,0,0,0,0,0,0,0,0,0,0,0,0,0,0,0,0,0,0,0,0,0,0,
0,0,0,0,0,0,0,0,0,0,0,0,0,0,0,0,0,0,0,0,0,0,0,0,0,0,0,0,0,0,0,0,0,0,0,0,0,0,0,0,0,0,0,0,0,0,0,0,0,
0,0,0,0,0,0,0,0,0,0,0,0,0,0,0,0,0,0,0,0,0,0,0,0,0,0,0,0,0,0,0,0,0,0,0,0,0,0,0,0,0,0,0,0,0,0,0,0,0,
0,0,0,0,0,0,0,0,0,0,0,0,0,0,0,0,0,0,0,0,0,0,0,0,0,0,0,0,0,0,0,0,0,0,0,0,0,0,0,0,0,0,0,0,0,0,0,0,0,
0,0,0,0,0,0,0,0,0,0,0,0,0,0,0,0,0,0,0,0,0,0,0,0,0,0,0,0,0,0,0,0,0,0,0,0,0,0,0,0,0,0,0,0,0,0,0,0,0,
0,0,0,0,0,0,0,0,0,0,0,0,0,0,0,0,0,0,0,0,0,0,381,382,382,382,383,0,0,0,0,0,0,0,0,0,0,0,0,0,0,0,0,0,0,0,0,0,0,
0,0,0,0,0,0,0,0,0,0,0,0,0,0,0,0,0,0,0,0,0,0,398,399,399,399,400,0,0,0,0,0,0,0,0,0,0,0,0,0,0,0,0,0,0,0,0,0,0,
0,0,0,0,0,0,0,0,0,0,0,0,0,0,0,0,0,0,0,0,0,0,415,416,416,416,417,0,0,0,0,0,0,0,0,0,0,0,0,0,0,0,0,0,0,0,0,0,0,
0,0,0,0,0,0,0,0,0,0,0,0,0,0,0,0,0,0,0,0,0,0,0,0,0,0,0,0,0,0,0,0,0,0,0,0,0,0,0,0,0,0,0,0,0,0,0,0,0,
0,0,0,0,0,0,0,0,0,0,0,0,0,0,0,0,0,0,0,0,0,0,0,0,0,0,0,0,0,0,0,0,0,0,0,0,0,0,0,0,0,0,0,0,0,0,0,0,0,
0,0,0,0,0,0,0,0,0,0,0,0,0,0,0,0,0,0,0,0,0,0,0,0,0,0,0,0,0,0,0,0,0,0,0,0,0,0,0,0,0,0,0,0,0,0,0,0,0,
0,0,0,0,0,0,0,0,0,0,0,0,0,0,0,0,0,0,0,0,0,0,0,0,0,0,0,0,0,0,0,0,0,0,0,0,0,0,0,0,0,0,0,0,0,0,0,0,0,
0,0,0,0,0,0,0,0,0,0,0,0,0,0,0,0,0,0,0,0,0,0,0,0,0,0,0,0,0,0,0,0,0,0,0,0,0,0,0,0,0,0,0,0,0,0,0,0,0,
0,0,0,0,0,0,0,0,0,0,0,0,0,0,0,0,0,0,0,0,0,0,0,0,0,0,0,0,0,0,0,0,0,0,0,0,0,0,0,0,0,0,0,0,0,0,0,0,0,
0,0,0,0,0,0,0,0,0,0,0,0,0,0,0,0,0,0,0,0,0,0,0,0,0,0,0,0,0,0,0,0,0,0,0,0,0,0,0,0,0,0,0,0,0,0,0,0,0,
0,0,0,0,0,0,0,0,0,0,0,0,0,0,0,0,0,0,0,0,0,0,0,0,0,0,0,0,0,0,0,0,0,0,0,0,0,0,0,0,0,0,0,0,0,0,0,0,0,
0,0,0,0,0,0,0,0,0,0,0,0,0,0,0,0,0,0,0,0,0,0,0,0,0,0,0,0,0,0,0,0,0,0,0,0,0,0,0,0,0,0,0,0,0,0,0,0,0,
0,0,0,0,0,0,0,0,0,0,0,0,0,0,0,0,0,0,0,0,0,0,0,0,0,0,0,0,0,0,0,0,0,0,0,0,0,0,0,0,0,0,0,0,0,0,0,0,0
</data>
 </layer>
 <layer id="3" name="walls" width="49" height="29">
  <properties>
   <property name="collides" type="bool" value="true"/>
  </properties>
  <data encoding="csv">
0,0,0,0,0,0,0,0,0,0,0,0,0,0,0,0,0,0,0,0,0,0,0,0,0,0,0,0,0,0,0,0,0,0,0,0,0,0,0,0,0,0,0,0,0,0,0,0,0,
0,0,0,0,0,0,0,0,0,0,0,0,0,0,0,0,0,0,0,0,0,0,0,0,0,0,0,0,0,0,0,0,0,0,0,0,0,0,0,0,0,0,0,0,0,0,0,0,0,
0,0,0,0,0,0,0,0,0,0,0,0,0,0,0,0,0,0,0,0,0,0,0,0,0,0,0,0,0,0,0,0,0,0,0,0,0,0,0,0,0,0,0,0,0,0,0,0,0,
0,0,0,0,0,0,0,0,0,0,0,0,0,0,0,0,0,0,0,0,0,0,0,0,54,0,0,0,0,0,0,0,0,0,0,0,0,0,0,0,0,0,0,0,0,0,0,0,0,
0,0,0,0,0,0,0,0,0,0,0,0,0,0,0,0,0,0,0,0,0,0,0,0,71,0,0,0,0,0,0,0,0,0,0,0,0,0,0,0,0,0,0,0,0,0,0,0,0,
0,0,0,0,0,0,0,0,0,867,868,54,54,54,54,54,54,54,54,54,0,0,0,0,88,0,0,0,0,54,54,54,54,54,54,54,54,54,869,870,0,0,0,0,0,0,0,0,0,
0,37,23,24,54,54,54,54,54,887,888,71,71,71,71,71,71,71,71,71,0,0,0,0,0,0,0,0,0,71,71,71,71,71,71,71,71,71,889,890,54,54,54,54,54,24,25,0,0,
0,37,40,41,71,71,71,71,71,907,908,88,88,88,88,88,88,88,88,88,0,0,0,0,0,0,0,0,0,88,88,88,88,88,88,88,88,88,909,910,71,71,71,71,71,41,42,0,0,
0,37,57,58,88,88,88,88,88,927,928,0,0,0,0,0,0,0,0,0,0,0,0,0,0,0,0,0,0,0,0,0,0,0,0,0,0,0,929,930,88,88,88,88,88,58,59,0,0,
0,0,38,0,0,0,0,0,0,0,0,0,0,0,0,0,0,0,0,0,0,0,0,0,0,0,0,0,0,0,0,0,0,0,0,0,0,0,0,0,0,0,0,0,0,0,36,0,0,
0,0,38,0,0,0,0,0,0,0,0,0,0,0,0,0,0,0,0,0,0,0,0,0,0,0,0,0,0,0,0,0,0,0,0,0,0,0,0,0,0,0,0,0,0,0,36,0,0,
0,0,38,0,0,0,0,0,0,0,0,0,0,0,0,0,0,0,0,0,0,0,0,0,0,0,0,0,0,0,0,0,0,0,0,0,0,0,0,0,0,0,0,0,0,0,36,0,0,
0,0,38,0,0,0,0,0,0,0,0,0,0,0,0,0,0,0,0,0,0,0,0,0,0,0,0,0,0,0,0,0,0,0,0,0,0,0,0,0,0,0,0,0,0,0,36,0,0,
0,0,38,0,0,0,0,0,0,0,0,0,0,0,0,0,0,0,0,0,0,0,0,0,0,0,0,0,0,0,0,0,0,0,0,0,0,0,0,0,0,0,0,0,0,0,36,0,0,
0,0,38,0,0,0,0,0,0,0,0,0,0,0,0,0,0,0,0,0,0,0,0,0,0,0,0,0,0,0,0,0,0,0,0,0,0,0,0,0,0,0,0,0,0,0,36,0,0,
0,0,38,0,0,0,0,0,0,0,0,0,0,0,0,0,0,0,0,0,0,0,0,0,0,0,0,0,0,0,0,0,0,0,0,0,0,0,0,0,0,0,0,0,0,0,36,0,0,
0,0,38,0,0,0,0,0,0,0,0,0,0,0,0,0,0,0,0,0,0,0,0,0,0,0,0,0,0,0,0,0,0,0,0,0,0,0,0,0,0,0,0,0,0,0,36,0,0,
0,0,38,0,0,0,0,0,0,0,0,0,0,0,0,0,0,0,0,0,0,0,0,0,0,0,0,0,0,0,0,0,0,0,0,0,0,0,0,0,0,0,0,0,0,0,36,0,0,
0,0,38,0,0,0,0,0,0,0,0,0,0,0,0,0,0,0,0,0,0,0,0,0,0,0,0,0,0,0,0,0,0,0,0,0,0,0,0,0,0,0,0,0,0,0,36,0,0,
0,0,38,0,0,0,0,0,0,0,0,0,0,0,0,0,0,0,0,0,0,0,0,0,0,0,0,0,0,0,0,0,0,0,0,0,0,0,0,0,0,0,0,0,0,0,36,0,0,
0,0,38,0,0,0,0,0,0,0,0,0,0,0,0,0,0,0,0,0,0,0,0,0,0,0,0,0,0,0,0,0,0,0,0,0,0,0,0,0,0,0,0,0,0,0,36,0,0,
0,0,38,0,0,0,0,0,0,0,0,0,0,0,0,0,0,0,0,0,0,0,0,0,0,0,0,0,0,0,0,0,0,0,0,0,0,0,0,0,0,0,0,0,0,0,36,0,0,
0,0,38,0,0,0,0,0,0,0,0,0,0,0,0,0,0,0,0,0,0,0,0,0,0,0,0,0,0,0,0,0,0,0,0,0,0,0,0,0,0,0,0,0,0,0,36,0,0,
0,0,38,0,0,0,0,0,0,0,0,0,0,0,0,0,0,0,0,0,0,0,0,0,0,0,0,0,0,0,0,0,0,0,0,0,0,0,0,0,0,0,0,0,0,0,36,0,0,
0,0,38,0,0,0,0,0,0,0,0,0,0,0,0,0,0,0,0,0,0,0,0,0,0,0,0,0,0,0,0,0,0,0,0,0,0,0,0,0,0,0,0,0,0,0,36,0,0,
0,0,38,0,0,0,0,0,0,0,0,0,0,0,0,0,0,0,0,0,0,0,0,0,0,0,0,0,0,0,0,0,0,0,0,0,0,0,0,0,0,0,0,0,0,0,36,0,0,
0,0,38,0,0,0,0,0,0,0,0,0,0,0,0,0,0,0,0,0,0,0,0,0,0,0,0,0,0,0,0,0,0,0,0,0,0,0,0,0,0,0,0,0,0,0,36,0,0,
0,0,38,0,0,0,0,0,0,0,0,0,0,0,0,0,0,0,0,0,0,0,0,0,0,0,0,0,0,0,0,0,0,0,0,0,0,0,0,0,0,0,0,0,0,0,36,0,0,
0,0,38,0,0,0,0,0,0,0,0,0,0,0,0,0,0,0,0,0,0,0,0,0,0,0,0,0,0,0,0,0,0,0,0,0,0,0,0,0,0,0,0,0,0,0,36,0,0
</data>
 </layer>
 <layer id="4" name="arches" width="49" height="29">
  <properties>
   <property name="collides" type="bool" value="true"/>
  </properties>
  <data encoding="csv">
0,0,0,0,0,0,0,0,0,0,0,0,0,0,0,0,0,0,0,0,0,0,0,0,0,0,0,0,0,0,0,0,0,0,0,0,0,0,0,0,0,0,0,0,0,0,0,0,0,
0,0,0,0,0,0,0,0,0,0,0,0,0,0,0,0,0,0,0,0,0,0,0,0,0,0,0,0,0,0,0,0,0,0,0,0,0,0,0,0,0,0,0,0,0,0,0,0,0,
0,0,0,0,0,0,0,0,0,0,0,0,0,0,0,0,0,0,0,0,0,0,0,0,0,0,0,0,0,0,0,0,0,0,0,0,0,0,0,0,0,0,0,0,0,0,0,0,0,
0,0,0,0,0,0,0,0,0,0,0,0,0,0,0,0,0,0,0,0,0,0,867,868,0,869,870,0,0,0,0,0,0,0,0,0,0,0,0,0,0,0,0,0,0,0,0,0,0,
0,0,0,0,0,0,0,0,0,0,0,0,0,0,0,0,0,0,0,0,867,868,887,888,0,889,890,869,870,0,0,0,0,0,0,0,0,0,0,0,0,0,0,0,0,0,0,0,0,
0,0,0,0,0,0,0,0,0,0,0,0,0,0,0,0,0,0,0,0,887,888,907,908,0,909,910,889,890,0,0,0,0,0,0,0,0,0,0,0,0,0,0,0,0,0,0,0,0,
0,0,0,0,0,0,0,0,0,0,0,0,0,0,0,0,0,0,0,0,907,908,927,928,0,929,930,909,910,0,0,0,0,0,0,0,0,0,0,0,0,0,0,0,0,0,0,0,0,
0,0,0,0,0,0,0,0,0,0,0,0,0,0,0,0,0,0,0,0,927,928,0,0,0,0,0,929,930,0,0,0,0,0,0,0,0,0,0,0,0,0,0,0,0,0,0,0,0,
0,0,0,0,0,0,0,0,0,0,0,0,0,0,0,0,0,0,0,0,0,0,0,0,0,0,0,0,0,0,0,0,0,0,0,0,0,0,0,0,0,0,0,0,0,0,0,0,0,
0,0,0,0,0,0,0,0,0,0,0,0,0,0,0,0,0,0,0,0,0,0,0,0,0,0,0,0,0,0,0,0,0,0,0,0,0,0,0,0,0,0,0,0,0,0,0,0,0,
0,0,0,0,0,0,0,0,0,0,0,0,0,0,0,0,0,0,0,0,0,0,0,0,0,0,0,0,0,0,0,0,0,0,0,0,0,0,0,0,0,0,0,0,0,0,0,0,0,
0,0,0,0,0,0,0,0,0,0,0,0,0,0,0,0,0,0,0,0,0,0,0,0,0,0,0,0,0,0,0,0,0,0,0,0,0,0,0,0,0,0,0,0,0,0,0,0,0,
0,0,0,0,0,0,0,0,0,0,0,0,0,0,0,0,0,0,0,0,0,0,0,0,0,0,0,0,0,0,0,0,0,0,0,0,0,0,0,0,0,0,0,0,0,0,0,0,0,
0,0,0,0,0,0,0,0,0,0,0,0,0,0,0,0,0,0,0,0,0,0,0,0,0,0,0,0,0,0,0,0,0,0,0,0,0,0,0,0,0,0,0,0,0,0,0,0,0,
0,0,0,0,0,0,0,0,0,0,0,0,0,0,0,0,0,0,0,0,0,0,0,0,0,0,0,0,0,0,0,0,0,0,0,0,0,0,0,0,0,0,0,0,0,0,0,0,0,
0,0,0,0,0,0,0,0,0,0,0,0,0,0,0,0,0,0,0,0,0,0,0,0,0,0,0,0,0,0,0,0,0,0,0,0,0,0,0,0,0,0,0,0,0,0,0,0,0,
0,0,0,0,0,0,0,0,0,0,0,0,0,0,0,0,0,0,0,0,0,0,0,0,0,0,0,0,0,0,0,0,0,0,0,0,0,0,0,0,0,0,0,0,0,0,0,0,0,
0,0,0,0,0,0,0,0,0,0,0,0,0,0,0,0,0,0,0,0,0,0,0,0,0,0,0,0,0,0,0,0,0,0,0,0,0,0,0,0,0,0,0,0,0,0,0,0,0,
0,0,0,0,0,0,0,0,0,0,0,0,0,0,0,0,0,0,0,0,0,0,0,0,0,0,0,0,0,0,0,0,0,0,0,0,0,0,0,0,0,0,0,0,0,0,0,0,0,
0,0,0,0,0,0,0,0,0,0,0,0,0,0,0,0,0,0,0,0,0,0,0,0,0,0,0,0,0,0,0,0,0,0,0,0,0,0,0,0,0,0,0,0,0,0,0,0,0,
0,0,0,0,0,0,0,0,0,0,0,0,0,0,0,0,0,0,0,0,0,0,0,0,0,0,0,0,0,0,0,0,0,0,0,0,0,0,0,0,0,0,0,0,0,0,0,0,0,
0,0,0,0,0,0,0,0,0,0,0,0,0,0,0,0,0,0,0,0,0,0,0,0,0,0,0,0,0,0,0,0,0,0,0,0,0,0,0,0,0,0,0,0,0,0,0,0,0,
0,0,0,0,0,0,0,0,0,0,0,0,0,0,0,0,0,0,0,0,0,0,0,0,0,0,0,0,0,0,0,0,0,0,0,0,0,0,0,0,0,0,0,0,0,0,0,0,0,
0,0,0,0,0,0,0,0,0,0,0,0,0,0,0,0,0,0,0,0,0,0,0,0,0,0,0,0,0,0,0,0,0,0,0,0,0,0,0,0,0,0,0,0,0,0,0,0,0,
0,0,0,0,0,0,0,0,0,0,0,0,0,0,0,0,0,0,0,0,0,0,0,0,0,0,0,0,0,0,0,0,0,0,0,0,0,0,0,0,0,0,0,0,0,0,0,0,0,
0,0,0,0,0,0,0,0,0,0,0,0,0,0,0,0,0,0,0,0,0,0,0,0,0,0,0,0,0,0,0,0,0,0,0,0,0,0,0,0,0,0,0,0,0,0,0,0,0,
0,0,0,0,0,0,0,0,0,0,0,0,0,0,0,0,0,0,0,0,0,0,0,0,0,0,0,0,0,0,0,0,0,0,0,0,0,0,0,0,0,0,0,0,0,0,0,0,0,
0,0,0,0,0,0,0,0,0,0,0,0,0,0,0,0,0,0,0,0,0,0,0,0,0,0,0,0,0,0,0,0,0,0,0,0,0,0,0,0,0,0,0,0,0,0,0,0,0,
0,0,0,0,0,0,0,0,0,0,0,0,0,0,0,0,0,0,0,0,0,0,0,0,0,0,0,0,0,0,0,0,0,0,0,0,0,0,0,0,0,0,0,0,0,0,0,0,0
</data>
 </layer>
 <layer id="5" name="walls_above" width="49" height="29">
  <properties>
   <property name="collides" type="bool" value="true"/>
   <property name="rendersAbove" type="bool" value="true"/>
  </properties>
  <data encoding="csv">
0,0,0,0,0,0,0,0,0,0,0,0,0,0,0,0,0,0,0,0,0,0,0,0,0,0,0,0,0,0,0,0,0,0,0,0,0,0,0,0,0,0,0,0,0,0,0,0,0,
0,0,0,0,0,0,0,0,0,0,0,0,0,0,0,0,0,0,0,0,0,0,0,0,0,0,0,0,0,0,0,0,0,0,0,0,0,0,0,0,0,0,0,0,0,0,0,0,0,
0,0,0,0,0,0,0,0,0,0,0,0,0,0,0,0,0,0,0,0,0,0,0,0,0,0,0,0,0,0,0,0,0,0,0,0,0,0,0,0,0,0,0,0,0,0,0,0,0,
0,0,0,0,0,0,0,0,0,0,0,0,0,0,0,0,0,0,0,0,0,0,0,0,0,0,0,0,0,0,0,0,0,0,0,0,0,0,0,0,0,0,0,0,0,0,0,0,0,
0,0,0,0,0,0,0,0,0,0,0,0,0,0,0,0,0,0,0,0,0,0,0,0,0,0,0,0,0,0,0,0,0,0,0,0,0,0,0,0,0,0,0,0,0,0,0,0,0,
0,0,0,0,0,0,0,0,0,0,0,0,0,0,0,0,0,0,0,0,0,0,0,0,0,0,0,0,0,0,0,0,0,0,0,0,0,0,0,0,0,0,0,0,0,0,0,0,0,
0,0,0,0,0,0,0,0,0,0,0,0,0,0,0,0,0,0,0,0,0,0,0,0,0,0,0,0,0,0,0,0,0,0,0,0,0,0,0,0,0,0,0,0,0,0,0,0,0,
0,0,0,0,0,0,0,0,0,0,0,0,0,0,0,0,0,0,0,0,0,0,0,0,0,0,0,0,0,0,0,0,0,0,0,0,0,0,0,0,0,0,0,0,0,0,0,0,0,
0,0,0,0,0,0,0,0,0,0,0,0,0,0,0,0,0,0,0,0,0,0,0,0,0,0,0,0,0,0,0,0,0,0,0,0,0,0,0,0,0,0,0,0,0,0,0,0,0,
0,0,0,0,0,0,0,0,0,0,0,0,0,0,0,0,0,0,0,0,0,0,0,0,0,0,0,0,0,0,0,0,0,0,0,0,0,0,0,0,0,0,0,0,0,0,0,0,0,
0,0,0,0,0,0,0,0,0,0,0,0,0,0,0,0,0,0,0,0,0,0,0,0,0,0,0,0,0,0,0,0,0,0,0,0,0,0,0,0,0,0,0,0,0,0,0,0,0,
0,0,0,0,0,0,0,0,0,0,0,0,0,0,0,0,0,0,0,0,0,0,0,0,0,0,0,0,0,0,0,0,0,0,0,0,0,0,0,0,0,0,0,0,0,0,0,0,0,
0,0,0,0,0,0,0,0,0,0,0,0,0,0,0,0,0,0,0,0,0,0,0,0,0,0,0,0,0,0,0,0,0,0,0,0,0,0,0,0,0,0,0,0,0,0,0,0,0,
0,0,0,0,0,0,0,0,0,0,0,0,0,0,0,0,0,0,0,0,0,0,0,0,0,0,0,0,0,0,0,0,0,0,0,0,0,0,0,0,0,0,0,0,0,0,0,0,0,
0,0,0,0,0,0,0,0,0,0,0,0,0,0,0,0,0,0,0,0,0,0,0,0,0,0,0,0,0,0,0,0,0,0,0,0,0,0,0,0,0,0,0,0,0,0,0,0,0,
0,0,0,0,0,0,0,0,0,0,0,0,0,0,0,0,0,0,0,0,0,0,0,0,0,0,0,0,0,0,0,0,0,0,0,0,0,0,0,0,0,0,0,0,0,0,0,0,0,
0,0,0,0,0,0,0,0,0,0,0,0,0,0,0,0,0,0,0,0,0,0,0,0,0,0,0,0,0,0,0,0,0,0,0,0,0,0,0,0,0,0,0,0,0,0,0,0,0,
0,0,0,0,0,0,0,0,0,0,0,0,0,0,0,0,0,0,0,0,0,0,0,0,0,0,0,0,0,0,0,0,0,0,0,0,0,0,0,0,0,0,0,0,0,0,0,0,0,
0,0,0,0,0,0,0,0,0,0,0,0,0,0,0,0,0,0,0,0,0,0,0,0,0,0,0,0,0,0,0,0,0,0,0,0,0,0,0,0,0,0,0,0,0,0,0,0,0,
0,0,0,0,0,0,0,0,0,0,0,0,0,0,0,0,0,0,0,0,0,0,0,0,0,0,0,0,0,0,0,0,0,0,0,0,0,0,0,0,0,0,0,0,0,0,0,0,0,
0,0,0,0,0,0,0,0,0,0,0,0,0,0,0,0,0,0,0,0,0,0,0,0,0,0,0,0,0,0,0,0,0,0,0,0,0,0,0,0,0,0,0,0,0,0,0,0,0,
0,0,0,0,0,0,0,0,0,0,0,0,0,0,0,0,0,0,0,0,0,0,0,0,0,0,0,0,0,0,0,0,0,0,0,0,0,0,0,0,0,0,0,0,0,0,0,0,0,
0,0,0,0,0,0,0,0,0,0,0,0,0,0,0,0,0,0,0,0,0,0,0,0,0,0,0,0,0,0,0,0,0,0,0,0,0,0,0,0,0,0,0,0,0,0,0,0,0,
0,0,0,0,0,0,0,0,0,0,0,0,0,0,0,0,0,0,0,0,0,0,0,0,0,0,0,0,0,0,0,0,0,0,0,0,0,0,0,0,0,0,0,0,0,0,0,0,0,
0,0,0,0,0,0,0,0,0,0,0,0,0,0,0,0,0,0,0,0,0,0,0,0,0,0,0,0,0,0,0,0,0,0,0,0,0,0,0,0,0,0,0,0,0,0,0,0,0,
0,0,0,0,0,0,0,0,0,0,0,0,0,0,0,0,0,0,0,0,0,0,0,0,0,0,0,0,0,0,0,0,0,0,0,0,0,0,0,0,0,0,0,0,0,0,0,0,0,
0,0,0,0,0,0,0,0,0,0,0,0,0,0,0,0,0,0,0,0,0,0,0,0,0,0,0,0,0,0,0,0,0,0,0,0,0,0,0,0,0,0,0,0,0,0,0,0,0,
0,0,0,0,0,0,0,0,0,0,0,0,0,0,0,0,0,0,0,0,0,0,0,0,0,0,0,0,0,0,0,0,0,0,0,0,0,0,0,0,0,0,0,0,0,0,0,0,0,
0,0,0,0,0,0,0,0,0,0,0,0,0,0,0,0,0,0,0,0,0,0,0,0,0,0,0,0,0,0,0,0,0,0,0,0,0,0,0,0,0,0,0,0,0,0,0,0,0
</data>
 </layer>
 <layer id="6" name="void" width="49" height="29">
  <properties>
   <property name="rendersAbove" type="bool" value="true"/>
  </properties>
  <data encoding="csv">
37,37,37,37,37,37,37,37,37,37,37,37,37,37,37,37,37,37,37,37,37,37,37,37,37,37,37,37,37,37,37,37,37,37,37,37,37,37,37,37,37,37,37,37,37,37,37,37,37,
37,37,37,37,37,37,37,37,37,37,37,37,37,37,37,37,37,37,37,37,37,37,37,37,37,37,37,37,37,37,37,37,37,37,37,37,37,37,37,37,37,37,37,37,37,37,37,37,37,
37,37,37,37,37,37,37,37,37,37,37,37,37,37,37,37,37,37,37,37,37,37,37,37,37,37,37,37,37,37,37,37,37,37,37,37,37,37,37,37,37,37,37,37,37,37,37,37,37,
37,0,0,0,0,0,0,0,0,0,0,0,0,0,0,0,0,0,0,0,0,0,0,0,0,0,0,0,0,0,0,0,0,0,0,0,0,0,0,0,0,0,0,0,0,0,0,37,37,
37,0,0,0,0,0,0,0,0,0,0,0,0,0,0,0,0,0,0,0,0,0,0,0,0,0,0,0,0,0,0,0,0,0,0,0,0,0,0,0,0,0,0,0,0,0,0,37,37,
37,37,37,37,37,37,37,37,0,0,0,0,0,0,0,0,0,0,0,0,0,0,0,0,0,0,0,0,0,0,0,0,0,0,0,0,0,0,0,0,0,37,37,37,37,37,37,37,37,
37,0,0,0,0,0,0,0,0,0,0,0,0,0,0,0,0,0,0,0,0,0,0,0,0,0,0,0,0,0,0,0,0,0,0,0,0,0,0,0,0,0,0,0,0,0,0,37,37,
37,0,0,0,0,0,0,0,0,0,0,0,0,0,0,0,0,0,0,0,0,0,0,0,0,0,0,0,0,0,0,0,0,0,0,0,0,0,0,0,0,0,0,0,0,0,0,37,37,
37,0,0,0,0,0,0,0,0,0,0,0,0,0,0,0,0,0,0,0,0,0,0,0,0,0,0,0,0,0,0,0,0,0,0,0,0,0,0,0,0,0,0,0,0,0,0,37,37,
37,37,0,0,0,0,0,0,0,0,0,0,0,0,0,0,0,0,0,0,0,0,0,0,0,0,0,0,0,0,0,0,0,0,0,0,0,0,0,0,0,0,0,0,0,0,0,37,37,
37,37,0,0,0,0,0,0,0,0,0,0,0,0,0,0,0,0,0,0,0,0,0,0,0,0,0,0,0,0,0,0,0,0,0,0,0,0,0,0,0,0,0,0,0,0,0,37,37,
37,37,0,0,0,0,0,0,0,0,0,0,0,0,0,0,0,0,0,0,0,0,0,0,0,0,0,0,0,0,0,0,0,0,0,0,0,0,0,0,0,0,0,0,0,0,0,37,37,
37,37,0,0,0,0,0,0,0,0,0,0,0,0,0,0,0,0,0,0,0,0,0,0,0,0,0,0,0,0,0,0,0,0,0,0,0,0,0,0,0,0,0,0,0,0,0,37,37,
37,37,0,0,0,0,0,0,0,0,0,0,0,0,0,0,0,0,0,0,0,0,0,0,0,0,0,0,0,0,0,0,0,0,0,0,0,0,0,0,0,0,0,0,0,0,0,37,37,
37,37,0,0,0,0,0,0,0,0,0,0,0,0,0,0,0,0,0,0,0,0,0,0,0,0,0,0,0,0,0,0,0,0,0,0,0,0,0,0,0,0,0,0,0,0,0,37,37,
37,37,0,0,0,0,0,0,0,0,0,0,0,0,0,0,0,0,0,0,0,0,0,0,0,0,0,0,0,0,0,0,0,0,0,0,0,0,0,0,0,0,0,0,0,0,0,37,37,
37,37,0,0,0,0,0,0,0,0,0,0,0,0,0,0,0,0,0,0,0,0,0,0,0,0,0,0,0,0,0,0,0,0,0,0,0,0,0,0,0,0,0,0,0,0,0,37,37,
37,37,0,0,0,0,0,0,0,0,0,0,0,0,0,0,0,0,0,0,0,0,0,0,0,0,0,0,0,0,0,0,0,0,0,0,0,0,0,0,0,0,0,0,0,0,0,37,37,
37,37,0,0,0,0,0,0,0,0,0,0,0,0,0,0,0,0,0,0,0,0,0,0,0,0,0,0,0,0,0,0,0,0,0,0,0,0,0,0,0,0,0,0,0,0,0,37,37,
37,37,0,0,0,0,0,0,0,0,0,0,0,0,0,0,0,0,0,0,0,0,0,0,0,0,0,0,0,0,0,0,0,0,0,0,0,0,0,0,0,0,0,0,0,0,0,37,37,
37,37,0,0,0,0,0,0,0,0,0,0,0,0,0,0,0,0,0,0,0,0,0,0,0,0,0,0,0,0,0,0,0,0,0,0,0,0,0,0,0,0,0,0,0,0,0,37,37,
37,37,0,0,0,0,0,0,0,0,0,0,0,0,0,0,0,0,0,0,0,0,0,0,0,0,0,0,0,0,0,0,0,0,0,0,0,0,0,0,0,0,0,0,0,0,0,37,37,
37,37,0,0,0,0,0,0,0,0,0,0,0,0,0,0,0,0,0,0,0,0,0,0,0,0,0,0,0,0,0,0,0,0,0,0,0,0,0,0,0,0,0,0,0,0,0,37,37,
37,37,0,0,0,0,0,0,0,0,0,0,0,0,0,0,0,0,0,0,0,0,0,0,0,0,0,0,0,0,0,0,0,0,0,0,0,0,0,0,0,0,0,0,0,0,0,37,37,
37,37,0,0,0,0,0,0,0,0,0,0,0,0,0,0,0,0,0,0,0,0,0,0,0,0,0,0,0,0,0,0,0,0,0,0,0,0,0,0,0,0,0,0,0,0,0,37,37,
37,37,0,0,0,0,0,0,0,0,0,0,0,0,0,0,0,0,0,0,0,0,0,0,0,0,0,0,0,0,0,0,0,0,0,0,0,0,0,0,0,0,0,0,0,0,0,37,37,
37,37,0,0,0,0,0,0,0,0,0,0,0,0,0,0,0,0,0,0,0,0,0,0,0,0,0,0,0,0,0,0,0,0,0,0,0,0,0,0,0,0,0,0,0,0,0,37,37,
37,37,0,0,0,0,0,0,0,0,0,0,0,0,0,0,0,0,0,0,0,0,0,0,0,0,0,0,0,0,0,0,0,0,0,0,0,0,0,0,0,0,0,0,0,0,0,37,37,
37,37,0,0,0,0,0,0,0,0,0,0,0,0,0,0,0,0,0,0,0,0,0,0,0,0,0,0,0,0,0,0,0,0,0,0,0,0,0,0,0,0,0,0,0,0,0,37,37
</data>
 </layer>
 <layer id="7" name="doors" width="49" height="29">
  <properties>
   <property name="collides" type="bool" value="true"/>
  </properties>
  <data encoding="csv">
0,0,0,0,0,0,0,0,0,0,0,0,0,0,0,0,0,0,0,0,0,0,0,0,0,0,0,0,0,0,0,0,0,0,0,0,0,0,0,0,0,0,0,0,0,0,0,0,0,
0,0,0,0,0,0,0,0,0,0,0,0,0,0,0,0,0,0,0,0,0,0,0,0,0,0,0,0,0,0,0,0,0,0,0,0,0,0,0,0,0,0,0,0,0,0,0,0,0,
0,0,0,0,0,0,0,0,0,0,0,0,0,0,0,0,0,0,0,0,0,0,0,0,0,0,0,0,0,0,0,0,0,0,0,0,0,0,0,0,0,0,0,0,0,0,0,0,0,
0,0,0,0,0,0,0,0,0,0,0,0,0,0,0,0,0,0,0,0,0,0,0,0,0,0,0,0,0,0,0,0,0,0,0,0,0,0,0,0,0,0,0,0,0,0,0,0,0,
0,0,0,0,0,0,0,0,0,0,0,0,0,0,0,0,0,0,0,0,0,0,0,0,0,0,0,0,0,0,0,0,0,0,0,0,0,0,0,0,0,0,0,0,0,0,0,0,0,
0,0,0,0,0,0,0,0,0,0,0,0,0,0,0,0,0,0,0,0,0,0,0,0,0,0,0,0,0,0,0,0,0,0,0,0,0,0,0,0,0,0,0,0,0,0,0,0,0,
0,0,0,0,0,0,0,0,0,0,0,0,0,0,0,0,0,0,0,0,0,0,0,0,0,0,0,0,0,0,0,0,0,0,0,0,0,0,0,0,0,0,0,0,0,0,0,0,0,
0,0,0,0,0,0,0,0,0,0,0,0,0,0,0,0,0,0,0,0,0,0,0,0,0,0,0,0,0,0,0,0,0,0,0,0,0,0,0,0,0,0,0,0,0,0,0,0,0,
0,0,0,0,0,0,0,0,0,0,0,0,0,0,0,0,0,0,0,0,0,0,0,0,0,0,0,0,0,0,0,0,0,0,0,0,0,0,0,0,0,0,0,0,0,0,0,0,0,
0,0,0,0,0,0,0,0,0,0,0,0,0,0,0,0,0,0,0,0,0,0,0,0,0,0,0,0,0,0,0,0,0,0,0,0,0,0,0,0,0,0,0,0,0,0,0,0,0,
0,0,0,0,0,0,0,0,0,0,0,0,0,0,0,0,0,0,0,0,0,0,0,0,0,0,0,0,0,0,0,0,0,0,0,0,0,0,0,0,0,0,0,0,0,0,0,0,0,
0,0,0,0,0,0,0,0,0,0,0,0,0,0,0,0,0,0,0,0,0,0,0,0,0,0,0,0,0,0,0,0,0,0,0,0,0,0,0,0,0,0,0,0,0,0,0,0,0,
0,0,0,0,0,0,0,0,0,0,0,0,0,0,0,0,0,0,0,0,0,0,0,0,0,0,0,0,0,0,0,0,0,0,0,0,0,0,0,0,0,0,0,0,0,0,0,0,0,
0,0,0,0,0,0,0,0,0,0,0,0,0,0,0,0,0,0,0,0,0,0,0,0,0,0,0,0,0,0,0,0,0,0,0,0,0,0,0,0,0,0,0,0,0,0,0,0,0,
0,0,0,0,0,0,0,0,0,0,0,0,0,0,0,0,0,0,0,0,0,0,0,0,0,0,0,0,0,0,0,0,0,0,0,0,0,0,0,0,0,0,0,0,0,0,0,0,0,
0,0,0,0,0,0,0,0,0,0,0,0,0,0,0,0,0,0,0,0,0,0,0,0,0,0,0,0,0,0,0,0,0,0,0,0,0,0,0,0,0,0,0,0,0,0,0,0,0,
0,0,0,0,0,0,0,0,0,0,0,0,0,0,0,0,0,0,0,0,0,0,0,0,0,0,0,0,0,0,0,0,0,0,0,0,0,0,0,0,0,0,0,0,0,0,0,0,0,
0,0,0,0,0,0,0,0,0,0,0,0,0,0,0,0,0,0,0,0,0,0,0,0,0,0,0,0,0,0,0,0,0,0,0,0,0,0,0,0,0,0,0,0,0,0,0,0,0,
0,0,0,0,0,0,0,0,0,0,0,0,0,0,0,0,0,0,0,0,0,0,0,0,0,0,0,0,0,0,0,0,0,0,0,0,0,0,0,0,0,0,0,0,0,0,0,0,0,
0,0,0,0,0,0,0,0,0,0,0,0,0,0,0,0,0,0,0,0,0,0,0,0,0,0,0,0,0,0,0,0,0,0,0,0,0,0,0,0,0,0,0,0,0,0,0,0,0,
0,0,0,0,0,0,0,0,0,0,0,0,0,0,0,0,0,0,0,0,0,0,0,0,0,0,0,0,0,0,0,0,0,0,0,0,0,0,0,0,0,0,0,0,0,0,0,0,0,
0,0,0,0,0,0,0,0,0,0,0,0,0,0,0,0,0,0,0,0,0,0,0,0,0,0,0,0,0,0,0,0,0,0,0,0,0,0,0,0,0,0,0,0,0,0,0,0,0,
0,0,0,0,0,0,0,0,0,0,0,0,0,0,0,0,0,0,0,0,0,0,0,0,0,0,0,0,0,0,0,0,0,0,0,0,0,0,0,0,0,0,0,0,0,0,0,0,0,
0,0,0,0,0,0,0,0,0,0,0,0,0,0,0,0,0,0,0,0,0,0,0,0,0,0,0,0,0,0,0,0,0,0,0,0,0,0,0,0,0,0,0,0,0,0,0,0,0,
0,0,0,0,0,0,0,0,0,0,0,0,0,0,0,0,0,0,0,0,0,0,0,0,0,0,0,0,0,0,0,0,0,0,0,0,0,0,0,0,0,0,0,0,0,0,0,0,0,
0,0,0,0,0,0,0,0,0,0,0,0,0,0,0,0,0,0,0,0,0,0,0,0,0,0,0,0,0,0,0,0,0,0,0,0,0,0,0,0,0,0,0,0,0,0,0,0,0,
0,0,0,0,0,0,0,0,0,0,0,0,0,0,0,0,0,0,0,0,0,0,0,0,0,0,0,0,0,0,0,0,0,0,0,0,0,0,0,0,0,0,0,0,0,0,0,0,0,
0,0,0,0,0,0,0,0,0,0,0,0,0,0,0,0,0,0,0,0,0,0,0,0,0,0,0,0,0,0,0,0,0,0,0,0,0,0,0,0,0,0,0,0,0,0,0,0,0,
0,0,0,0,0,0,0,0,0,0,0,0,0,0,0,0,0,0,0,0,0,0,0,0,0,0,0,0,0,0,0,0,0,0,0,0,0,0,0,0,0,0,0,0,0,0,0,0,0
</data>
 </layer>
 <layer id="8" name="doors_above" width="49" height="29">
  <properties>
   <property name="collides" type="bool" value="true"/>
   <property name="rendersAbove" type="bool" value="true"/>
  </properties>
  <data encoding="csv">
0,0,0,0,0,0,0,0,0,0,0,0,0,0,0,0,0,0,0,0,0,0,0,0,0,0,0,0,0,0,0,0,0,0,0,0,0,0,0,0,0,0,0,0,0,0,0,0,0,
0,0,0,0,0,0,0,0,0,0,0,0,0,0,0,0,0,0,0,0,0,0,0,0,0,0,0,0,0,0,0,0,0,0,0,0,0,0,0,0,0,0,0,0,0,0,0,0,0,
0,0,0,0,0,0,0,0,0,0,0,0,0,0,0,0,0,0,0,0,0,0,0,0,0,0,0,0,0,0,0,0,0,0,0,0,0,0,0,0,0,0,0,0,0,0,0,0,0,
0,0,0,0,0,0,0,0,0,0,0,0,0,0,0,0,0,0,0,0,0,0,0,0,0,0,0,0,0,0,0,0,0,0,0,0,0,0,0,0,0,0,0,0,0,0,0,0,0,
0,0,0,0,0,0,0,0,0,0,0,0,0,0,0,0,0,0,0,0,0,0,0,0,0,0,0,0,0,0,0,0,0,0,0,0,0,0,0,0,0,0,0,0,0,0,0,0,0,
0,0,0,0,0,0,0,0,0,0,0,0,0,0,0,0,0,0,0,0,0,0,0,0,0,0,0,0,0,0,0,0,0,0,0,0,0,0,0,0,0,0,0,0,0,0,0,0,0,
0,0,0,0,0,0,0,0,0,0,0,0,0,0,0,0,0,0,0,0,0,0,0,0,0,0,0,0,0,0,0,0,0,0,0,0,0,0,0,0,0,0,0,0,0,0,0,0,0,
0,0,0,0,0,0,0,0,0,0,0,0,0,0,0,0,0,0,0,0,0,0,0,0,0,0,0,0,0,0,0,0,0,0,0,0,0,0,0,0,0,0,0,0,0,0,0,0,0,
0,0,0,0,0,0,0,0,0,0,0,0,0,0,0,0,0,0,0,0,0,0,0,0,0,0,0,0,0,0,0,0,0,0,0,0,0,0,0,0,0,0,0,0,0,0,0,0,0,
0,0,0,0,0,0,0,0,0,0,0,0,0,0,0,0,0,0,0,0,0,0,0,0,0,0,0,0,0,0,0,0,0,0,0,0,0,0,0,0,0,0,0,0,0,0,0,0,0,
0,0,0,0,0,0,0,0,0,0,0,0,0,0,0,0,0,0,0,0,0,0,0,0,0,0,0,0,0,0,0,0,0,0,0,0,0,0,0,0,0,0,0,0,0,0,0,0,0,
0,0,0,0,0,0,0,0,0,0,0,0,0,0,0,0,0,0,0,0,0,0,0,0,0,0,0,0,0,0,0,0,0,0,0,0,0,0,0,0,0,0,0,0,0,0,0,0,0,
0,0,0,0,0,0,0,0,0,0,0,0,0,0,0,0,0,0,0,0,0,0,0,0,0,0,0,0,0,0,0,0,0,0,0,0,0,0,0,0,0,0,0,0,0,0,0,0,0,
0,0,0,0,0,0,0,0,0,0,0,0,0,0,0,0,0,0,0,0,0,0,0,0,0,0,0,0,0,0,0,0,0,0,0,0,0,0,0,0,0,0,0,0,0,0,0,0,0,
0,0,0,0,0,0,0,0,0,0,0,0,0,0,0,0,0,0,0,0,0,0,0,0,0,0,0,0,0,0,0,0,0,0,0,0,0,0,0,0,0,0,0,0,0,0,0,0,0,
0,0,0,0,0,0,0,0,0,0,0,0,0,0,0,0,0,0,0,0,0,0,0,0,0,0,0,0,0,0,0,0,0,0,0,0,0,0,0,0,0,0,0,0,0,0,0,0,0,
0,0,0,0,0,0,0,0,0,0,0,0,0,0,0,0,0,0,0,0,0,0,0,0,0,0,0,0,0,0,0,0,0,0,0,0,0,0,0,0,0,0,0,0,0,0,0,0,0,
0,0,0,0,0,0,0,0,0,0,0,0,0,0,0,0,0,0,0,0,0,0,0,0,0,0,0,0,0,0,0,0,0,0,0,0,0,0,0,0,0,0,0,0,0,0,0,0,0,
0,0,0,0,0,0,0,0,0,0,0,0,0,0,0,0,0,0,0,0,0,0,0,0,0,0,0,0,0,0,0,0,0,0,0,0,0,0,0,0,0,0,0,0,0,0,0,0,0,
0,0,0,0,0,0,0,0,0,0,0,0,0,0,0,0,0,0,0,0,0,0,0,0,0,0,0,0,0,0,0,0,0,0,0,0,0,0,0,0,0,0,0,0,0,0,0,0,0,
0,0,0,0,0,0,0,0,0,0,0,0,0,0,0,0,0,0,0,0,0,0,0,0,0,0,0,0,0,0,0,0,0,0,0,0,0,0,0,0,0,0,0,0,0,0,0,0,0,
0,0,0,0,0,0,0,0,0,0,0,0,0,0,0,0,0,0,0,0,0,0,0,0,0,0,0,0,0,0,0,0,0,0,0,0,0,0,0,0,0,0,0,0,0,0,0,0,0,
0,0,0,0,0,0,0,0,0,0,0,0,0,0,0,0,0,0,0,0,0,0,0,0,0,0,0,0,0,0,0,0,0,0,0,0,0,0,0,0,0,0,0,0,0,0,0,0,0,
0,0,0,0,0,0,0,0,0,0,0,0,0,0,0,0,0,0,0,0,0,0,0,0,0,0,0,0,0,0,0,0,0,0,0,0,0,0,0,0,0,0,0,0,0,0,0,0,0,
0,0,0,0,0,0,0,0,0,0,0,0,0,0,0,0,0,0,0,0,0,0,0,0,0,0,0,0,0,0,0,0,0,0,0,0,0,0,0,0,0,0,0,0,0,0,0,0,0,
0,0,0,0,0,0,0,0,0,0,0,0,0,0,0,0,0,0,0,0,0,0,0,0,0,0,0,0,0,0,0,0,0,0,0,0,0,0,0,0,0,0,0,0,0,0,0,0,0,
0,0,0,0,0,0,0,0,0,0,0,0,0,0,0,0,0,0,0,0,0,0,0,0,0,0,0,0,0,0,0,0,0,0,0,0,0,0,0,0,0,0,0,0,0,0,0,0,0,
0,0,0,0,0,0,0,0,0,0,0,0,0,0,0,0,0,0,0,0,0,0,0,0,0,0,0,0,0,0,0,0,0,0,0,0,0,0,0,0,0,0,0,0,0,0,0,0,0,
0,0,0,0,0,0,0,0,0,0,0,0,0,0,0,0,0,0,0,0,0,0,0,0,0,0,0,0,0,0,0,0,0,0,0,0,0,0,0,0,0,0,0,0,0,0,0,0,0
</data>
 </layer>
 <layer id="9" name="windows" width="49" height="29">
  <data encoding="csv">
0,0,0,0,0,0,0,0,0,0,0,0,0,0,0,0,0,0,0,0,0,0,0,0,0,0,0,0,0,0,0,0,0,0,0,0,0,0,0,0,0,0,0,0,0,0,0,0,0,
0,0,0,0,0,0,0,0,0,0,0,0,0,0,0,0,0,0,0,0,0,0,0,0,0,0,0,0,0,0,0,0,0,0,0,0,0,0,0,0,0,0,0,0,0,0,0,0,0,
0,0,0,0,0,0,0,0,0,0,0,0,0,0,0,0,0,0,0,0,0,0,0,0,0,0,0,0,0,0,0,0,0,0,0,0,0,0,0,0,0,0,0,0,0,0,0,0,0,
0,0,0,0,0,0,0,0,0,0,0,0,0,0,0,0,0,0,0,0,0,0,0,0,0,0,0,0,0,0,0,0,0,0,0,0,0,0,0,0,0,0,0,0,0,0,0,0,0,
0,0,0,0,0,0,0,0,0,0,0,0,0,0,0,0,0,0,0,0,0,0,0,0,0,0,0,0,0,0,0,0,0,0,0,0,0,0,0,0,0,0,0,0,0,0,0,0,0,
0,0,0,0,0,0,0,0,0,0,0,0,0,0,0,0,0,0,0,0,0,0,0,0,0,0,0,0,0,0,0,0,0,0,0,0,0,0,0,0,0,0,0,0,0,0,0,0,0,
0,0,0,0,0,0,0,0,0,0,0,0,0,0,802,803,804,0,0,0,0,0,0,0,0,0,0,0,0,0,0,0,802,803,804,0,0,0,0,0,0,0,0,0,0,0,0,0,0,
0,0,0,0,0,0,0,0,0,0,0,0,0,0,822,823,824,0,0,0,0,0,0,0,0,0,0,0,0,0,0,0,822,823,824,0,0,0,0,0,0,0,0,0,0,0,0,0,0,
0,0,0,0,0,0,0,0,0,0,0,0,0,0,0,0,0,0,0,0,0,0,0,0,0,0,0,0,0,0,0,0,0,0,0,0,0,0,0,0,0,0,0,0,0,0,0,0,0,
0,0,0,0,0,0,0,0,0,0,0,0,0,0,0,0,0,0,0,0,0,0,0,0,0,0,0,0,0,0,0,0,0,0,0,0,0,0,0,0,0,0,0,0,0,0,0,0,0,
0,0,0,0,0,0,0,0,0,0,0,0,0,0,0,0,0,0,0,0,0,0,0,0,0,0,0,0,0,0,0,0,0,0,0,0,0,0,0,0,0,0,0,0,0,0,0,0,0,
0,0,0,0,0,0,0,0,0,0,0,0,0,0,0,0,0,0,0,0,0,0,0,0,0,0,0,0,0,0,0,0,0,0,0,0,0,0,0,0,0,0,0,0,0,0,0,0,0,
0,0,0,0,0,0,0,0,0,0,0,0,0,0,0,0,0,0,0,0,0,0,0,0,0,0,0,0,0,0,0,0,0,0,0,0,0,0,0,0,0,0,0,0,0,0,0,0,0,
0,0,0,0,0,0,0,0,0,0,0,0,0,0,0,0,0,0,0,0,0,0,0,0,0,0,0,0,0,0,0,0,0,0,0,0,0,0,0,0,0,0,0,0,0,0,0,0,0,
0,0,0,0,0,0,0,0,0,0,0,0,0,0,0,0,0,0,0,0,0,0,0,0,0,0,0,0,0,0,0,0,0,0,0,0,0,0,0,0,0,0,0,0,0,0,0,0,0,
0,0,0,0,0,0,0,0,0,0,0,0,0,0,0,0,0,0,0,0,0,0,0,0,0,0,0,0,0,0,0,0,0,0,0,0,0,0,0,0,0,0,0,0,0,0,0,0,0,
0,0,0,0,0,0,0,0,0,0,0,0,0,0,0,0,0,0,0,0,0,0,0,0,0,0,0,0,0,0,0,0,0,0,0,0,0,0,0,0,0,0,0,0,0,0,0,0,0,
0,0,0,0,0,0,0,0,0,0,0,0,0,0,0,0,0,0,0,0,0,0,0,0,0,0,0,0,0,0,0,0,0,0,0,0,0,0,0,0,0,0,0,0,0,0,0,0,0,
0,0,0,0,0,0,0,0,0,0,0,0,0,0,0,0,0,0,0,0,0,0,0,0,0,0,0,0,0,0,0,0,0,0,0,0,0,0,0,0,0,0,0,0,0,0,0,0,0,
0,0,0,0,0,0,0,0,0,0,0,0,0,0,0,0,0,0,0,0,0,0,0,0,0,0,0,0,0,0,0,0,0,0,0,0,0,0,0,0,0,0,0,0,0,0,0,0,0,
0,0,0,0,0,0,0,0,0,0,0,0,0,0,0,0,0,0,0,0,0,0,0,0,0,0,0,0,0,0,0,0,0,0,0,0,0,0,0,0,0,0,0,0,0,0,0,0,0,
0,0,0,0,0,0,0,0,0,0,0,0,0,0,0,0,0,0,0,0,0,0,0,0,0,0,0,0,0,0,0,0,0,0,0,0,0,0,0,0,0,0,0,0,0,0,0,0,0,
0,0,0,0,0,0,0,0,0,0,0,0,0,0,0,0,0,0,0,0,0,0,0,0,0,0,0,0,0,0,0,0,0,0,0,0,0,0,0,0,0,0,0,0,0,0,0,0,0,
0,0,0,0,0,0,0,0,0,0,0,0,0,0,0,0,0,0,0,0,0,0,0,0,0,0,0,0,0,0,0,0,0,0,0,0,0,0,0,0,0,0,0,0,0,0,0,0,0,
0,0,0,0,0,0,0,0,0,0,0,0,0,0,0,0,0,0,0,0,0,0,0,0,0,0,0,0,0,0,0,0,0,0,0,0,0,0,0,0,0,0,0,0,0,0,0,0,0,
0,0,0,0,0,0,0,0,0,0,0,0,0,0,0,0,0,0,0,0,0,0,0,0,0,0,0,0,0,0,0,0,0,0,0,0,0,0,0,0,0,0,0,0,0,0,0,0,0,
0,0,0,0,0,0,0,0,0,0,0,0,0,0,0,0,0,0,0,0,0,0,0,0,0,0,0,0,0,0,0,0,0,0,0,0,0,0,0,0,0,0,0,0,0,0,0,0,0,
0,0,0,0,0,0,0,0,0,0,0,0,0,0,0,0,0,0,0,0,0,0,0,0,0,0,0,0,0,0,0,0,0,0,0,0,0,0,0,0,0,0,0,0,0,0,0,0,0,
0,0,0,0,0,0,0,0,0,0,0,0,0,0,0,0,0,0,0,0,0,0,0,0,0,0,0,0,0,0,0,0,0,0,0,0,0,0,0,0,0,0,0,0,0,0,0,0,0
</data>
 </layer>
 <layer id="12" name="stairs" width="49" height="29">
  <properties>
   <property name="clearance" type="int" value="20"/>
   <property name="collides" type="bool" value="true"/>
   <property name="seeThrough" type="bool" value="true"/>
   <property name="walkable" type="bool" value="true"/>
  </properties>
  <data encoding="csv">
0,0,0,0,0,0,0,0,0,0,0,0,0,0,0,0,0,0,0,0,0,0,0,0,0,0,0,0,0,0,0,0,0,0,0,0,0,0,0,0,0,0,0,0,0,0,0,0,0,
0,0,0,0,0,0,0,0,0,0,0,0,0,0,0,0,0,0,0,0,0,0,0,0,0,0,0,0,0,0,0,0,0,0,0,0,0,0,0,0,0,0,0,0,0,0,0,0,0,
0,0,0,0,0,0,0,0,0,0,0,0,0,0,0,0,0,0,0,0,0,0,0,0,0,0,0,0,0,0,0,0,0,0,0,0,0,0,0,0,0,0,0,0,0,0,0,0,0,
0,0,0,0,0,0,0,0,0,0,0,0,0,0,0,0,0,0,0,0,0,0,0,0,0,0,0,0,0,0,0,0,0,0,0,0,0,0,0,0,0,0,0,0,0,0,0,0,0,
0,0,0,0,0,0,0,0,0,0,0,0,0,0,0,0,0,0,0,0,0,0,0,0,0,0,0,0,0,0,0,0,0,0,0,0,0,0,0,0,0,0,0,0,0,0,0,0,0,
0,0,0,0,0,0,0,0,0,0,0,0,0,0,0,0,0,0,0,0,0,0,0,0,0,0,0,0,0,0,0,0,0,0,0,0,0,0,0,0,0,0,0,0,0,0,0,0,0,
0,0,0,0,0,0,0,0,0,0,0,0,0,0,0,0,0,0,0,0,0,0,0,0,0,0,0,0,0,0,0,0,0,0,0,0,0,0,0,0,0,0,0,0,0,0,0,0,0,
0,0,0,0,0,0,0,0,0,0,0,0,0,0,0,0,0,0,0,0,0,0,0,0,0,0,0,0,0,0,0,0,0,0,0,0,0,0,0,0,0,0,0,0,0,0,0,0,0,
0,0,0,0,0,0,0,0,0,0,0,0,0,0,0,0,0,0,0,0,0,0,0,0,0,0,0,0,0,0,0,0,0,0,0,0,0,0,0,0,0,0,0,0,0,0,0,0,0,
0,0,0,0,0,0,0,0,0,0,0,0,0,0,0,0,0,0,0,0,0,0,0,0,0,0,0,0,0,0,0,0,0,0,0,0,0,0,0,0,0,0,0,0,0,0,0,0,0,
0,0,0,0,0,0,0,0,0,0,0,0,0,0,0,0,0,0,0,0,0,0,0,0,0,0,0,0,0,0,0,0,0,0,0,0,0,0,0,0,0,0,0,0,0,0,0,0,0,
0,0,0,0,0,0,0,0,0,0,0,0,0,0,0,0,0,0,0,0,0,0,0,0,0,0,0,0,0,0,0,0,0,0,0,0,0,0,0,0,0,0,0,0,0,0,0,0,0,
0,0,0,0,0,0,0,0,0,0,0,0,0,0,0,0,0,0,0,0,0,0,0,0,0,0,0,0,0,0,0,0,0,0,0,0,0,0,0,0,0,0,0,0,0,0,0,0,0,
0,0,0,0,0,0,0,0,0,0,0,0,0,0,0,0,0,0,0,0,0,0,0,0,0,0,0,0,0,0,0,0,0,0,0,0,0,0,0,0,0,0,0,0,0,0,0,0,0,
0,0,0,0,0,0,0,0,0,0,0,0,0,0,0,0,0,0,0,0,0,0,0,0,0,0,0,0,0,0,0,0,0,0,0,0,0,0,0,0,0,0,0,0,0,0,0,0,0,
0,0,0,0,0,0,0,0,0,0,0,0,0,0,0,0,0,0,0,0,0,0,0,0,0,0,0,0,0,0,0,0,0,0,0,0,0,0,0,0,0,0,0,0,0,0,0,0,0,
0,0,0,0,0,0,0,0,0,0,0,0,0,0,0,0,0,0,0,0,0,0,0,0,0,0,0,0,0,0,0,0,0,0,0,0,0,0,0,0,0,0,0,0,0,0,0,0,0,
0,0,0,0,0,0,0,0,0,0,0,0,0,0,0,0,0,0,0,0,0,0,0,0,0,0,0,0,0,0,0,0,0,0,0,0,0,0,0,0,0,0,0,0,0,0,0,0,0,
0,0,0,0,0,0,0,0,0,0,0,0,0,0,0,0,0,0,0,0,0,0,0,0,0,0,0,0,0,0,0,0,0,0,0,0,0,0,0,0,0,0,0,0,0,0,0,0,0,
0,0,0,0,0,0,0,0,0,0,0,0,0,0,0,0,0,0,0,0,0,0,0,0,0,0,0,0,0,0,0,0,0,0,0,0,0,0,0,0,0,0,0,0,0,0,0,0,0,
0,0,0,0,0,0,0,0,0,0,0,0,0,0,0,0,0,0,0,0,0,0,0,0,0,0,0,0,0,0,0,0,0,0,0,0,0,0,0,0,0,0,0,0,0,0,0,0,0,
0,0,0,0,0,0,0,0,0,0,0,0,0,0,0,0,0,0,0,0,0,0,0,0,0,0,0,0,0,0,0,0,0,0,0,0,0,0,0,0,0,0,0,0,0,0,0,0,0,
0,0,0,0,0,0,0,0,0,0,0,0,0,0,0,0,0,0,0,0,0,0,0,0,0,0,0,0,0,0,0,0,0,0,0,0,0,0,0,0,0,0,0,0,0,0,0,0,0,
0,0,0,0,0,0,0,0,0,0,0,0,0,0,0,0,0,0,0,0,0,0,0,0,0,0,0,0,0,0,0,0,0,0,0,0,0,0,0,0,0,0,0,0,0,0,0,0,0,
0,0,0,0,0,0,0,0,0,0,0,0,0,0,0,0,0,0,0,0,0,0,469,466,470,466,467,0,0,0,0,0,0,0,0,0,0,0,0,0,0,0,0,0,0,0,0,0,0,
0,0,0,0,0,0,0,0,0,0,0,0,0,0,0,0,0,0,0,0,0,0,486,483,487,483,484,0,0,0,0,0,0,0,0,0,0,0,0,0,0,0,0,0,0,0,0,0,0,
0,0,0,0,0,0,0,0,0,0,0,0,0,0,0,0,0,0,0,0,0,0,503,500,504,500,501,0,0,0,0,0,0,0,0,0,0,0,0,0,0,0,0,0,0,0,0,0,0,
0,0,0,0,0,0,0,0,0,0,0,0,0,0,0,0,0,0,0,0,0,0,0,0,0,0,0,0,0,0,0,0,0,0,0,0,0,0,0,0,0,0,0,0,0,0,0,0,0,
0,0,0,0,0,0,0,0,0,0,0,0,0,0,0,0,0,0,0,0,0,0,0,0,0,0,0,0,0,0,0,0,0,0,0,0,0,0,0,0,0,0,0,0,0,0,0,0,0
</data>
 </layer>
 <layer id="13" name="ledges" width="49" height="29">
  <properties>
   <property name="clearance" type="int" value="20"/>
   <property name="collides" type="bool" value="true"/>
   <property name="seeThrough" type="bool" value="true"/>
  </properties>
  <data encoding="csv">
0,0,0,0,0,0,0,0,0,0,0,0,0,0,0,0,0,0,0,0,0,0,0,0,0,0,0,0,0,0,0,0,0,0,0,0,0,0,0,0,0,0,0,0,0,0,0,0,0,
0,0,0,0,0,0,0,0,0,0,0,0,0,0,0,0,0,0,0,0,0,0,0,0,0,0,0,0,0,0,0,0,0,0,0,0,0,0,0,0,0,0,0,0,0,0,0,0,0,
0,0,0,0,0,0,0,0,0,0,0,0,0,0,0,0,0,0,0,0,0,0,0,0,0,0,0,0,0,0,0,0,0,0,0,0,0,0,0,0,0,0,0,0,0,0,0,0,0,
0,0,0,0,0,0,0,0,0,0,0,0,0,0,0,0,0,0,0,0,0,0,0,0,0,0,0,0,0,0,0,0,0,0,0,0,0,0,0,0,0,0,0,0,0,0,0,0,0,
0,0,0,0,0,0,0,0,0,0,0,0,0,0,0,0,0,0,0,0,0,0,0,0,0,0,0,0,0,0,0,0,0,0,0,0,0,0,0,0,0,0,0,0,0,0,0,0,0,
0,0,0,0,0,0,0,0,0,0,0,0,0,0,0,0,0,0,0,0,0,0,0,0,0,0,0,0,0,0,0,0,0,0,0,0,0,0,0,0,0,0,0,0,0,0,0,0,0,
0,0,0,0,0,0,0,0,0,0,0,0,0,0,0,0,0,0,0,0,0,0,0,0,0,0,0,0,0,0,0,0,0,0,0,0,0,0,0,0,0,0,0,0,0,0,0,0,0,
0,0,0,0,0,0,0,0,0,0,0,0,0,0,0,0,0,0,0,0,0,0,0,0,0,0,0,0,0,0,0,0,0,0,0,0,0,0,0,0,0,0,0,0,0,0,0,0,0,
0,0,0,0,0,0,0,0,0,0,0,0,0,0,0,0,0,0,0,0,0,0,0,0,0,0,0,0,0,0,0,0,0,0,0,0,0,0,0,0,0,0,0,0,0,0,0,0,0,
0,0,0,0,0,0,0,0,0,0,0,0,0,0,0,0,0,0,0,0,0,0,0,0,0,0,0,0,0,0,0,0,0,0,0,0,0,0,0,0,0,0,0,0,0,0,0,0,0,
0,0,0,0,0,0,0,0,0,0,0,0,0,0,0,0,0,0,0,0,0,0,0,0,0,0,0,0,0,0,0,0,0,0,0,0,0,0,0,0,0,0,0,0,0,0,0,0,0,
0,0,0,0,0,0,0,0,0,0,0,0,0,0,0,0,0,0,0,0,0,0,0,0,0,0,0,0,0,0,0,0,0,0,0,0,0,0,0,0,0,0,0,0,0,0,0,0,0,
0,0,0,0,0,0,0,0,0,0,0,0,0,0,0,121,122,122,122,122,122,122,122,122,122,122,122,122,122,122,122,122,122,123,0,0,0,0,0,0,0,0,0,0,0,0,0,0,0,
0,0,0,0,0,0,0,0,0,0,0,0,0,0,0,138,0,0,0,0,0,0,0,0,0,0,0,0,0,0,0,0,0,140,0,0,0,0,0,0,0,0,0,0,0,0,0,0,0,
0,0,0,0,0,0,0,0,0,0,0,0,0,0,0,138,0,0,0,0,0,0,0,0,0,0,0,0,0,0,0,0,0,140,0,0,0,0,0,0,0,0,0,0,0,0,0,0,0,
0,0,0,0,0,0,0,0,0,0,0,0,0,0,0,138,0,0,0,0,0,0,0,0,0,0,0,0,0,0,0,0,0,140,0,0,0,0,0,0,0,0,0,0,0,0,0,0,0,
0,0,0,0,0,0,0,0,0,0,0,0,0,0,0,138,0,0,0,0,0,0,0,0,0,0,0,0,0,0,0,0,0,140,0,0,0,0,0,0,0,0,0,0,0,0,0,0,0,
0,0,0,0,0,0,0,0,0,0,0,0,0,0,0,138,0,0,0,0,0,0,0,0,0,0,0,0,0,0,0,0,0,140,0,0,0,0,0,0,0,0,0,0,0,0,0,0,0,
0,0,0,0,0,0,0,0,0,0,0,0,0,0,0,138,0,0,0,0,0,0,0,0,0,0,0,0,0,0,0,0,0,140,0,0,0,0,0,0,0,0,0,0,0,0,0,0,0,
0,0,0,0,0,0,0,0,0,0,0,0,0,0,0,138,0,0,0,0,0,0,0,0,0,0,0,0,0,0,0,0,0,140,0,0,0,0,0,0,0,0,0,0,0,0,0,0,0,
0,0,0,0,0,0,0,0,0,0,0,0,0,0,0,138,0,0,0,0,0,0,0,0,0,0,0,0,0,0,0,0,0,140,0,0,0,0,0,0,0,0,0,0,0,0,0,0,0,
0,0,0,0,0,0,0,0,0,0,0,0,0,0,0,138,0,0,0,0,0,0,0,0,0,0,0,0,0,0,0,0,0,140,0,0,0,0,0,0,0,0,0,0,0,0,0,0,0,
0,0,0,0,0,0,0,0,0,0,0,0,0,0,0,138,0,0,0,0,0,0,0,0,0,0,0,0,0,0,0,0,0,140,0,0,0,0,0,0,0,0,0,0,0,0,0,0,0,
0,0,0,0,0,0,0,0,0,0,0,0,0,0,0,138,0,0,0,0,0,0,0,0,0,0,0,0,0,0,0,0,0,140,0,0,0,0,0,0,0,0,0,0,0,0,0,0,0,
0,0,0,0,0,0,0,0,0,0,0,0,0,0,0,155,156,156,156,156,156,156,0,0,0,0,0,156,156,156,156,156,156,157,0,0,0,0,0,0,0,0,0,0,0,0,0,0,0,
0,0,0,0,0,0,0,0,0,0,0,0,0,0,0,172,173,173,173,173,173,173,0,0,0,0,0,173,173,173,173,173,173,174,0,0,0,0,0,0,0,0,0,0,0,0,0,0,0,
0,0,0,0,0,0,0,0,0,0,0,0,0,0,0,0,0,0,0,0,0,0,0,0,0,0,0,0,0,0,0,0,0,0,0,0,0,0,0,0,0,0,0,0,0,0,0,0,0,
0,0,0,0,0,0,0,0,0,0,0,0,0,0,0,0,0,0,0,0,0,0,0,0,0,0,0,0,0,0,0,0,0,0,0,0,0,0,0,0,0,0,0,0,0,0,0,0,0,
0,0,0,0,0,0,0,0,0,0,0,0,0,0,0,0,0,0,0,0,0,0,0,0,0,0,0,0,0,0,0,0,0,0,0,0,0,0,0,0,0,0,0,0,0,0,0,0,0
</data>
 </layer>
 <layer id="14" name="altar" width="49" height="29">
  <properties>
   <property name="collides" type="bool" value="true"/>
  </properties>
  <data encoding="csv">
0,0,0,0,0,0,0,0,0,0,0,0,0,0,0,0,0,0,0,0,0,0,0,0,0,0,0,0,0,0,0,0,0,0,0,0,0,0,0,0,0,0,0,0,0,0,0,0,0,
0,0,0,0,0,0,0,0,0,0,0,0,0,0,0,0,0,0,0,0,0,0,0,0,0,0,0,0,0,0,0,0,0,0,0,0,0,0,0,0,0,0,0,0,0,0,0,0,0,
0,0,0,0,0,0,0,0,0,0,0,0,0,0,0,0,0,0,0,0,0,0,0,0,0,0,0,0,0,0,0,0,0,0,0,0,0,0,0,0,0,0,0,0,0,0,0,0,0,
0,0,0,0,0,0,0,0,0,0,0,0,0,0,0,0,0,0,0,0,0,0,0,0,0,0,0,0,0,0,0,0,0,0,0,0,0,0,0,0,0,0,0,0,0,0,0,0,0,
0,0,0,0,0,0,0,0,0,0,0,0,0,0,0,0,0,0,0,0,0,0,0,0,0,0,0,0,0,0,0,0,0,0,0,0,0,0,0,0,0,0,0,0,0,0,0,0,0,
0,0,0,0,0,0,0,0,0,0,0,0,0,0,0,0,0,0,0,0,0,0,0,0,0,0,0,0,0,0,0,0,0,0,0,0,0,0,0,0,0,0,0,0,0,0,0,0,0,
0,0,0,0,0,0,0,0,0,0,0,0,0,0,0,0,0,0,0,0,0,0,0,0,0,0,0,0,0,0,0,0,0,0,0,0,0,0,0,0,0,0,0,0,0,0,0,0,0,
0,0,0,0,0,0,0,0,0,0,0,0,0,0,0,0,0,0,0,0,0,0,0,0,0,0,0,0,0,0,0,0,0,0,0,0,0,0,0,0,0,0,0,0,0,0,0,0,0,
0,0,0,0,0,0,0,0,0,0,0,0,0,0,0,0,0,0,0,0,0,0,0,0,0,0,0,0,0,0,0,0,0,0,0,0,0,0,0,0,0,0,0,0,0,0,0,0,0,
0,0,0,0,0,0,0,0,0,0,0,0,0,0,0,0,0,0,0,0,0,0,0,0,0,0,0,0,0,0,0,0,0,0,0,0,0,0,0,0,0,0,0,0,0,0,0,0,0,
0,0,0,0,0,0,0,0,0,0,0,0,0,0,0,0,0,0,0,0,0,0,0,0,0,0,0,0,0,0,0,0,0,0,0,0,0,0,0,0,0,0,0,0,0,0,0,0,0,
0,0,0,0,0,0,0,0,0,0,0,0,0,0,0,0,0,0,0,0,0,0,0,0,0,0,0,0,0,0,0,0,0,0,0,0,0,0,0,0,0,0,0,0,0,0,0,0,0,
0,0,0,0,0,0,0,0,0,0,0,0,0,0,0,0,0,0,0,0,0,0,0,0,0,0,0,0,0,0,0,0,0,0,0,0,0,0,0,0,0,0,0,0,0,0,0,0,0,
0,0,0,0,0,0,0,0,0,0,0,0,0,0,0,0,0,0,0,0,0,0,0,0,0,0,0,0,0,0,0,0,0,0,0,0,0,0,0,0,0,0,0,0,0,0,0,0,0,
0,0,0,0,0,0,0,0,0,0,0,0,0,0,0,0,0,0,0,0,0,0,0,0,0,0,0,0,0,0,0,0,0,0,0,0,0,0,0,0,0,0,0,0,0,0,0,0,0,
0,0,0,0,0,0,0,0,0,0,0,0,0,0,0,0,0,0,0,0,0,0,0,0,0,0,0,0,0,0,0,0,0,0,0,0,0,0,0,0,0,0,0,0,0,0,0,0,0,
0,0,0,0,0,0,0,0,0,0,0,0,0,0,0,0,0,0,0,0,0,0,942,943,943,943,944,0,0,0,0,0,0,0,0,0,0,0,0,0,0,0,0,0,0,0,0,0,0,
0,0,0,0,0,0,0,0,0,0,0,0,0,0,0,0,0,0,0,0,0,0,962,963,963,963,964,0,0,0,0,0,0,0,0,0,0,0,0,0,0,0,0,0,0,0,0,0,0,
0,0,0,0,0,0,0,0,0,0,0,0,0,0,0,0,0,0,0,0,0,0,982,983,983,983,984,0,0,0,0,0,0,0,0,0,0,0,0,0,0,0,0,0,0,0,0,0,0,
0,0,0,0,0,0,0,0,0,0,0,0,0,0,0,0,0,0,0,0,0,0,0,0,0,0,0,0,0,0,0,0,0,0,0,0,0,0,0,0,0,0,0,0,0,0,0,0,0,
0,0,0,0,0,0,0,0,0,0,0,0,0,0,0,0,0,0,0,0,0,0,0,0,0,0,0,0,0,0,0,0,0,0,0,0,0,0,0,0,0,0,0,0,0,0,0,0,0,
0,0,0,0,0,0,0,0,0,0,0,0,0,0,0,0,0,0,0,0,0,0,0,0,0,0,0,0,0,0,0,0,0,0,0,0,0,0,0,0,0,0,0,0,0,0,0,0,0,
0,0,0,0,0,0,0,0,0,0,0,0,0,0,0,0,0,0,0,0,0,0,0,0,0,0,0,0,0,0,0,0,0,0,0,0,0,0,0,0,0,0,0,0,0,0,0,0,0,
0,0,0,0,0,0,0,0,0,0,0,0,0,0,0,0,0,0,0,0,0,0,0,0,0,0,0,0,0,0,0,0,0,0,0,0,0,0,0,0,0,0,0,0,0,0,0,0,0,
0,0,0,0,0,0,0,0,0,0,0,0,0,0,0,0,0,0,0,0,0,0,0,0,0,0,0,0,0,0,0,0,0,0,0,0,0,0,0,0,0,0,0,0,0,0,0,0,0,
0,0,0,0,0,0,0,0,0,0,0,0,0,0,0,0,0,0,0,0,0,0,0,0,0,0,0,0,0,0,0,0,0,0,0,0,0,0,0,0,0,0,0,0,0,0,0,0,0,
0,0,0,0,0,0,0,0,0,0,0,0,0,0,0,0,0,0,0,0,0,0,0,0,0,0,0,0,0,0,0,0,0,0,0,0,0,0,0,0,0,0,0,0,0,0,0,0,0,
0,0,0,0,0,0,0,0,0,0,0,0,0,0,0,0,0,0,0,0,0,0,0,0,0,0,0,0,0,0,0,0,0,0,0,0,0,0,0,0,0,0,0,0,0,0,0,0,0,
0,0,0,0,0,0,0,0,0,0,0,0,0,0,0,0,0,0,0,0,0,0,0,0,0,0,0,0,0,0,0,0,0,0,0,0,0,0,0,0,0,0,0,0,0,0,0,0,0
</data>
 </layer>
 <layer id="10" name="objects" width="49" height="29">
  <data encoding="csv">
0,0,0,0,0,0,0,0,0,0,0,0,0,0,0,0,0,0,0,0,0,0,0,0,0,0,0,0,0,0,0,0,0,0,0,0,0,0,0,0,0,0,0,0,0,0,0,0,0,
0,0,0,0,0,0,0,0,0,0,0,0,0,0,0,0,0,0,0,0,0,0,0,0,0,0,0,0,0,0,0,0,0,0,0,0,0,0,0,0,0,0,0,0,0,0,0,0,0,
0,0,0,0,0,0,0,0,0,0,0,0,0,0,0,0,0,0,0,0,0,0,0,0,0,0,0,0,0,0,0,0,0,0,0,0,0,0,0,0,0,0,0,0,0,0,0,0,0,
0,0,0,0,0,0,0,0,0,0,0,0,0,0,0,0,0,0,0,0,0,0,0,0,0,0,0,0,0,0,0,0,0,0,0,0,0,0,0,0,0,0,0,0,0,0,0,0,0,
0,0,0,0,0,0,0,0,0,0,0,0,0,0,0,0,0,0,0,0,0,0,0,0,0,0,0,0,0,0,0,0,0,0,0,0,0,0,0,0,0,0,0,0,0,0,0,0,0,
0,0,0,0,0,0,0,0,0,0,0,0,0,0,0,0,0,0,0,0,0,0,0,0,0,0,0,0,0,0,0,0,0,0,0,0,0,0,0,0,0,0,0,0,0,0,0,0,0,
0,0,0,0,0,0,0,0,0,0,0,0,0,0,0,0,0,0,0,0,0,0,0,0,0,0,0,0,0,0,0,0,0,0,0,0,0,0,0,0,0,0,0,0,0,0,0,0,0,
0,0,0,0,0,0,0,0,0,0,0,0,0,0,0,0,0,0,0,0,0,0,0,0,0,0,0,0,0,0,0,0,0,0,0,0,0,0,0,0,0,0,0,0,0,0,0,0,0,
0,0,0,0,0,0,0,0,0,0,0,0,0,0,0,0,0,0,0,0,0,0,0,0,0,0,0,0,0,0,0,0,0,0,0,0,0,0,0,0,0,0,0,0,0,0,0,0,0,
0,0,0,0,0,0,0,0,0,0,0,0,0,0,0,0,0,0,0,0,0,0,0,0,0,0,0,0,0,0,0,0,0,0,0,0,0,0,0,0,0,0,0,0,0,0,0,0,0,
0,0,0,0,0,0,0,0,0,0,0,0,0,0,0,0,0,0,0,0,0,0,0,0,0,0,0,0,0,0,0,0,0,0,0,0,0,0,0,0,0,0,0,0,0,0,0,0,0,
0,0,0,0,0,0,0,0,0,0,0,0,0,0,0,0,0,0,0,0,0,0,0,0,0,0,0,0,0,0,0,0,0,0,0,0,0,0,0,0,0,0,0,0,0,0,0,0,0,
0,0,0,0,0,0,0,0,0,0,0,0,0,0,0,0,0,0,0,0,0,0,0,0,0,0,0,0,0,0,0,0,0,0,0,0,0,0,0,0,0,0,0,0,0,0,0,0,0,
0,0,0,0,0,0,0,0,0,0,0,0,0,0,0,0,0,0,0,0,0,0,0,0,0,0,0,0,0,0,0,0,0,0,0,0,0,0,0,0,0,0,0,0,0,0,0,0,0,
0,0,0,0,0,0,0,0,0,0,0,0,0,0,0,0,0,0,0,0,0,0,0,0,0,0,0,0,0,0,0,0,0,0,0,0,0,0,0,0,0,0,0,0,0,0,0,0,0,
0,0,0,0,0,0,0,0,0,0,0,0,0,0,0,0,0,0,0,0,0,0,0,0,0,0,0,0,0,0,0,0,0,0,0,0,0,0,0,0,0,0,0,0,0,0,0,0,0,
0,0,0,0,0,0,0,0,0,0,0,0,0,0,0,0,0,0,0,0,0,0,0,2147,2148,2149,0,0,0,0,0,0,0,0,0,0,0,0,0,0,0,0,0,0,0,0,0,0,0,
0,0,0,0,0,0,0,0,0,0,0,0,0,0,0,0,0,0,0,0,0,0,0,2177,2178,2179,0,0,0,0,0,0,0,0,0,0,0,0,0,0,0,0,0,0,0,0,0,0,0,
0,0,0,0,0,0,0,0,0,0,0,0,0,0,0,0,0,0,0,0,0,0,0,0,0,0,0,0,0,0,0,0,0,0,0,0,0,0,0,0,0,0,0,0,0,0,0,0,0,
0,0,0,0,0,0,0,0,0,0,0,0,0,0,0,0,0,0,0,0,0,0,0,0,0,0,0,0,0,0,0,0,0,0,0,0,0,0,0,0,0,0,0,0,0,0,0,0,0,
0,0,0,0,0,0,0,0,0,0,0,0,0,0,0,0,0,0,0,0,0,0,0,0,0,0,0,0,0,0,0,0,0,0,0,0,0,0,0,0,0,0,0,0,0,0,0,0,0,
0,0,0,0,0,0,0,0,0,0,0,0,0,0,0,0,0,0,0,0,0,0,0,0,0,0,0,0,0,0,0,0,0,0,0,0,0,0,0,0,0,0,0,0,0,0,0,0,0,
0,0,0,0,0,0,0,0,0,0,0,0,0,0,0,0,0,0,0,0,0,0,0,0,0,0,0,0,0,0,0,0,0,0,0,0,0,0,0,0,0,0,0,0,0,0,0,0,0,
0,0,0,0,0,0,0,0,0,0,0,0,0,0,0,0,0,0,0,0,0,0,0,0,0,0,0,0,0,0,0,0,0,0,0,0,0,0,0,0,0,0,0,0,0,0,0,0,0,
0,0,0,0,0,0,0,0,0,0,0,0,0,0,0,0,0,0,0,0,0,0,0,0,0,0,0,0,0,0,0,0,0,0,0,0,0,0,0,0,0,0,0,0,0,0,0,0,0,
0,0,0,0,0,0,0,0,0,0,0,0,0,0,0,0,0,0,0,0,0,0,0,0,0,0,0,0,0,0,0,0,0,0,0,0,0,0,0,0,0,0,0,0,0,0,0,0,0,
0,0,0,0,0,0,0,0,0,0,0,0,0,0,0,0,0,0,0,0,0,0,0,0,0,0,0,0,0,0,0,0,0,0,0,0,0,0,0,0,0,0,0,0,0,0,0,0,0,
0,0,0,0,0,0,0,0,0,0,0,0,0,0,0,0,0,0,0,0,0,0,0,0,0,0,0,0,0,0,0,0,0,0,0,0,0,0,0,0,0,0,0,0,0,0,0,0,0,
0,0,0,0,0,0,0,0,0,0,0,0,0,0,0,0,0,0,0,0,0,0,0,0,0,0,0,0,0,0,0,0,0,0,0,0,0,0,0,0,0,0,0,0,0,0,0,0,0
</data>
 </layer>
 <layer id="16" name="objects-1" width="49" height="29">
  <data encoding="csv">
0,0,0,0,0,0,0,0,0,0,0,0,0,0,0,0,0,0,0,0,0,0,0,0,0,0,0,0,0,0,0,0,0,0,0,0,0,0,0,0,0,0,0,0,0,0,0,0,0,
0,0,0,0,0,0,0,0,0,0,0,0,0,0,0,0,0,0,0,0,0,0,0,0,0,0,0,0,0,0,0,0,0,0,0,0,0,0,0,0,0,0,0,0,0,0,0,0,0,
0,0,0,0,0,0,0,0,0,0,0,0,0,0,0,0,0,0,0,0,0,0,0,0,0,0,0,0,0,0,0,0,0,0,0,0,0,0,0,0,0,0,0,0,0,0,0,0,0,
0,0,0,0,0,0,0,0,0,0,0,0,0,0,0,0,0,0,0,0,0,0,0,0,0,0,0,0,0,0,0,0,0,0,0,0,0,0,0,0,0,0,0,0,0,0,0,0,0,
0,0,0,0,0,0,0,0,0,0,0,0,0,0,0,0,0,0,0,0,0,0,0,0,0,0,0,0,0,0,0,0,0,0,0,0,0,0,0,0,0,0,0,0,0,0,0,0,0,
0,0,0,0,0,0,0,0,0,0,0,0,0,0,0,0,0,0,0,0,0,0,0,0,0,0,0,0,0,0,0,0,0,0,0,0,0,0,0,0,0,0,0,0,0,0,0,0,0,
0,0,0,0,0,0,0,0,0,0,0,0,0,0,1718,1719,0,0,0,0,0,0,0,0,0,0,0,0,0,0,0,0,0,1720,1721,0,0,0,0,0,0,0,0,0,0,0,0,0,0,
0,0,0,0,0,0,0,0,0,0,0,0,0,0,1724,1725,0,0,0,0,0,0,0,0,0,0,0,0,0,0,0,0,0,1726,1727,0,0,0,0,0,0,0,0,0,0,0,0,0,0,
0,0,0,0,0,0,0,0,0,0,0,0,0,0,0,0,0,0,0,0,0,0,0,0,0,0,0,0,0,0,0,0,0,0,0,0,0,0,0,0,0,0,0,0,0,0,0,0,0,
0,0,0,0,0,0,0,0,0,0,0,0,0,0,0,0,0,0,0,0,0,0,0,0,0,0,0,0,0,0,0,0,0,0,0,0,0,0,0,0,0,0,0,0,0,0,0,0,0,
0,0,0,0,0,0,0,0,0,0,0,0,0,0,0,0,0,0,0,0,0,0,0,0,0,0,0,0,0,0,0,0,0,0,0,0,0,0,0,0,0,0,0,0,0,0,0,0,0,
0,0,0,0,0,0,0,0,0,0,0,0,0,0,0,0,0,0,0,0,0,0,0,0,0,0,0,0,0,0,0,0,0,0,0,0,0,0,0,0,0,0,0,0,0,0,0,0,0,
0,0,0,0,0,0,0,0,0,0,0,0,0,0,0,0,0,0,0,0,0,0,0,0,0,0,0,0,0,0,0,0,0,0,0,0,0,0,0,0,0,0,0,0,0,0,0,0,0,
0,0,0,0,0,0,0,0,0,0,0,0,0,0,0,0,0,0,0,0,0,0,0,0,0,0,0,0,0,0,0,0,0,0,0,0,0,0,0,0,0,0,0,0,0,0,0,0,0,
0,0,0,0,0,0,0,0,0,0,0,0,0,0,0,0,0,0,0,0,0,0,0,0,0,0,0,0,0,0,0,0,0,0,0,0,0,0,0,0,0,0,0,0,0,0,0,0,0,
0,0,0,0,0,0,0,0,0,0,0,0,0,0,0,0,0,0,0,0,0,0,0,0,0,0,0,0,0,0,0,0,0,0,0,0,0,0,0,0,0,0,0,0,0,0,0,0,0,
0,0,0,0,0,0,0,0,0,0,0,0,0,0,0,0,0,0,0,0,0,0,1718,1719,0,1722,1723,0,0,0,0,0,0,0,0,0,0,0,0,0,0,0,0,0,0,0,0,0,0,
0,0,0,0,0,0,0,0,0,0,0,0,0,0,0,0,0,0,0,0,0,0,1724,1725,0,1728,1729,0,0,0,0,0,0,0,0,0,0,0,0,0,0,0,0,0,0,0,0,0,0,
0,0,0,0,0,0,0,0,0,0,0,0,0,0,0,0,0,0,0,0,0,0,0,0,0,0,0,0,0,0,0,0,0,0,0,0,0,0,0,0,0,0,0,0,0,0,0,0,0,
0,0,0,0,0,0,0,0,0,0,0,0,0,0,0,0,0,0,0,0,0,0,0,0,0,0,0,0,0,0,0,0,0,0,0,0,0,0,0,0,0,0,0,0,0,0,0,0,0,
0,0,0,0,0,0,0,0,0,0,0,0,0,0,0,0,0,0,0,0,0,0,0,0,0,0,0,0,0,0,0,0,0,0,0,0,0,0,0,0,0,0,0,0,0,0,0,0,0,
0,0,0,0,0,0,0,0,0,0,0,0,0,0,0,0,0,0,0,0,0,0,0,0,0,0,0,0,0,0,0,0,0,0,0,0,0,0,0,0,0,0,0,0,0,0,0,0,0,
0,0,0,0,0,0,0,0,0,0,0,0,0,0,0,0,0,0,0,0,0,0,0,0,0,0,0,0,0,0,0,0,0,0,0,0,0,0,0,0,0,0,0,0,0,0,0,0,0,
0,0,0,0,0,0,0,0,0,0,0,0,0,0,0,0,0,0,0,0,0,0,0,0,0,0,0,0,0,0,0,0,0,0,0,0,0,0,0,0,0,0,0,0,0,0,0,0,0,
0,0,0,0,0,0,0,0,0,0,0,0,0,0,0,0,0,0,0,0,0,0,0,0,0,0,0,0,0,0,0,0,0,0,0,0,0,0,0,0,0,0,0,0,0,0,0,0,0,
0,0,0,0,0,0,0,0,0,0,0,0,0,0,0,0,0,0,0,0,0,0,0,0,0,0,0,0,0,0,0,0,0,0,0,0,0,0,0,0,0,0,0,0,0,0,0,0,0,
0,0,0,0,0,0,0,0,0,0,0,0,0,0,0,0,0,0,0,0,0,0,0,0,0,0,0,0,0,0,0,0,0,0,0,0,0,0,0,0,0,0,0,0,0,0,0,0,0,
0,0,0,0,0,0,0,0,0,0,0,0,0,0,0,0,0,0,0,0,0,0,0,0,0,0,0,0,0,0,0,0,0,0,0,0,0,0,0,0,0,0,0,0,0,0,0,0,0,
0,0,0,0,0,0,0,0,0,0,0,0,0,0,0,0,0,0,0,0,0,0,0,0,0,0,0,0,0,0,0,0,0,0,0,0,0,0,0,0,0,0,0,0,0,0,0,0,0
</data>
 </layer>
 <objectgroup id="11" name="objects"/>
</map>
